/* XPM */
static char *bd777a2c06804f899a248dd280445661ZTMvnyhvCmc95fn7[] = {
/* columns rows colors chars-per-pixel */
"225 225 256 2 ",
"   c #242270",
".  c #521D77",
"X  c #264E73",
"o  c #494A74",
"O  c #331490",
"+  c #15318F",
"@  c #313093",
"#  c #3433AD",
"$  c #2423A3",
"%  c #4D1392",
"&  c #4C3094",
"*  c #6B3296",
"=  c #5117AD",
"-  c #6D17AF",
";  c #4738A8",
":  c #4838B8",
">  c #5738B8",
",  c #522CAE",
"<  c #6739B8",
"1  c #6F30B0",
"2  c #6B1493",
"3  c #154E93",
"4  c #304D94",
"5  c #316C98",
"6  c #1651AD",
"7  c #334FB0",
"8  c #336EB1",
"9  c #146BA7",
"0  c #4D4C97",
"q  c #6A4C98",
"w  c #4F6C96",
"e  c #4847A9",
"r  c #4848B8",
"t  c #5848B8",
"y  c #4757B8",
"u  c #5757B8",
"i  c #5350A8",
"p  c #6748B8",
"a  c #6758B9",
"s  c #7250B0",
"d  c #5867B9",
"f  c #4E6FB2",
"g  c #6766B8",
"h  c #7070B3",
"j  c #6B6B97",
"k  c #3735C7",
"l  c #1D3AC2",
"z  c #5739C7",
"x  c #5034CC",
"c  c #6F35CC",
"v  c #672BDA",
"b  c #3551C9",
"n  c #356DCD",
"m  c #2E66DC",
"M  c #4947C7",
"N  c #5748C7",
"B  c #4858C7",
"V  c #5857C8",
"C  c #5849D6",
"Z  c #5858D7",
"A  c #4950D6",
"S  c #6848C8",
"D  c #7749C8",
"F  c #6758C8",
"G  c #7758C8",
"H  c #6849D7",
"J  c #7748D7",
"K  c #6758D7",
"L  c #7858D7",
"P  c #4967C8",
"I  c #5767C8",
"U  c #5877C8",
"Y  c #4967D6",
"T  c #5967D7",
"R  c #5878D7",
"E  c #4877D0",
"W  c #6867C8",
"Q  c #7768C8",
"!  c #6777C8",
"~  c #7877C9",
"^  c #6768D7",
"/  c #7768D8",
"(  c #6877D8",
")  c #7778D8",
"_  c #5654E7",
"`  c #6859E6",
"'  c #7858E7",
"]  c #714EEB",
"[  c #5968E5",
"{  c #5A77E6",
"}  c #4E70EC",
"|  c #6868E7",
" . c #7768E7",
".. c #6978E7",
"X. c #7877E7",
"o. c #7869F7",
"O. c #6977F7",
"+. c #7978F8",
"@. c #6969F6",
"#. c #8936B3",
"$. c #9125A2",
"%. c #8B51B5",
"&. c #8C6FB7",
"*. c #A461AD",
"=. c #8C35CE",
"-. c #9734DD",
";. c #8758C8",
":. c #8758D8",
">. c #904ED0",
",. c #AA53D2",
"<. c #8767C8",
"1. c #8777C8",
"2. c #8768D8",
"3. c #9668D9",
"4. c #8778D8",
"5. c #9778D8",
"6. c #9670C9",
"7. c #AC71D3",
"8. c #8758E7",
"9. c #9054ED",
"0. c #AB55EB",
"q. c #8768E7",
"w. c #9768E7",
"e. c #8878E7",
"r. c #9778E8",
"t. c #8768F7",
"y. c #9769F8",
"u. c #8778F8",
"i. c #9779F9",
"p. c #A778E8",
"a. c #A779F9",
"s. c #B679FA",
"d. c #AE6CEE",
"f. c #C974F3",
"g. c #CD68DA",
"h. c #CA62BC",
"j. c #358DB3",
"k. c #2A96AC",
"l. c #518CB5",
"z. c #6F8CB7",
"x. c #5EA6B3",
"c. c #6CD5B4",
"v. c #368BCD",
"b. c #38A2DC",
"n. c #5987D8",
"m. c #518FCF",
"M. c #6787C8",
"N. c #7987C9",
"B. c #6887D9",
"V. c #7887D8",
"C. c #6897D7",
"Z. c #7897D8",
"A. c #6F97C9",
"S. c #54ACD0",
"D. c #70ACD3",
"F. c #5987E7",
"G. c #5491ED",
"H. c #6887E7",
"J. c #7887E7",
"K. c #6897E8",
"L. c #7897E8",
"P. c #6888F7",
"I. c #7987F9",
"U. c #7897F9",
"Y. c #6897F7",
"T. c #56ACEA",
"R. c #78A7E8",
"E. c #79A7F9",
"W. c #7AB6F9",
"Q. c #6DAFED",
"!. c #72CAD3",
"~. c #75CBF0",
"^. c #64D8DA",
"/. c #3ACABC",
"(. c #8D8DB6",
"). c #A19EB6",
"_. c #99DCB5",
"`. c #8787C9",
"'. c #8887D8",
"]. c #9787D9",
"[. c #8897D9",
"{. c #9797D9",
"}. c #9191C9",
"|. c #A787D9",
" X c #AE92D3",
".X c #97A7D9",
"XX c #8DB0D4",
"oX c #AEAED6",
"OX c #8887E8",
"+X c #9788E8",
"@X c #8797E9",
"#X c #9798E8",
"$X c #8888F9",
"%X c #9788FA",
"&X c #8898FA",
"*X c #9897FA",
"=X c #A788E8",
"-X c #B788E8",
";X c #A797E8",
":X c #B698E8",
">X c #A788FA",
",X c #B789FB",
"<X c #A798FB",
"1X c #B798FC",
"2X c #88A7E9",
"3X c #97A7E9",
"4X c #88B6E8",
"5X c #97B7E8",
"6X c #88A7FA",
"7X c #98A7FB",
"8X c #88B7FA",
"9X c #98B7FC",
"0X c #A7A7E8",
"qX c #B7A8E8",
"wX c #A8B7E8",
"eX c #B7B6E9",
"rX c #A7A7FB",
"tX c #B7A7FC",
"yX c #A8B7FC",
"uX c #B7B7FC",
"iX c #CA91D6",
"pX c #CCB1D6",
"aX c #C689FB",
"sX c #C798FC",
"dX c #CF92F0",
"fX c #E993F8",
"gX c #C7A7FC",
"hX c #D6A8FC",
"jX c #C7B8FC",
"kX c #D7B8FD",
"lX c #CDB0E8",
"zX c #E8B0F9",
"xX c #E7A7D4",
"cX c #90CCD5",
"vX c #AECDD6",
"bX c #88C6FA",
"nX c #98C6FB",
"mX c #92CFEE",
"MX c #A8C6FB",
"NX c #B8C7FC",
"BX c #A8D6FB",
"VX c #B8D6FB",
"CX c #AFCEE8",
"ZX c #93E6F1",
"AX c #AFE8F6",
"SX c #9EE9D3",
"DX c #CBCCD5",
"FX c #C7C7FC",
"GX c #D6C7FC",
"HX c #C7D6FD",
"JX c #D0D0F0",
"KX c #E9CDF8",
"LX c #CCE7F8",
"PX c #DBE3E9",
"IX c #D0A2B8",
"UX c #85357E",
/* pixels */
"zXdX;XF a.sXp ) a., G W H.K.( =XaX6.tX<XI 8 e a.[.D.eX(.c.^._._.^.c.c._.DXo X S.ZX!.XXC.7 l b +.a.0.-.%.6.&.z.~.SXx.5 M.9XE.2XrXZXmXJXpXoXXX(.A.S.Z.s - - v 9.v M U XX_.c.^.SXc.c.c.c._.c._.SXc.cXcXvXCXeXeXqXrXlXMXbXnX7XOX1XaX6.1 ,.aXOXr W tXgX<Xu.O.} 6X9XnXcXZ.7 A.CXSXXXl.lXdXlXV.7 { <XdXy e ;X5.d :X Xw 9 b K |.#X6X$X' J u.yXuXq *.dXF h dX,XE.Y.^ 4.9X/.^.c.c.^.SX_.X k.^.5XjX-Xp. XwXw z.FXCXvXcXA.f  XXX!.[.& 1 { b.Y.bXtXzX).z.S.G.i.9.z # r C.BXjXgX",
"j &.0Xg 4.<X+X; OXQ 1.7XW.n Z / hXdX6.1.nXC.w s *X2XoXoXc.SXAXcX!.ZXx.).zXpXX 3 S.bXVX9XH.T X.r.g.g.%.5.zXg.j S.mXLXJXj 5 3 3 7 4 0 =X Xj cXAXMXCXFX:X&.p F 1.g E nXmXS.^.c.!.AXcXD.mXZXXXD.cXmX.X}.&.%.,.s c , > / ) %Xw., c - 3.<.Q '.h 4 ; L 3.w.^ A b P B.2X9XMX5Xw w .XCXz.q  Xh %X&X# / jXFX! i Z.4X[.}.[.6X7 @ +XtX;X1Xi.M B ( uX|.#.dXgX; #.d...n I [.x./.c.ZX^.x.PXJXSXx.o   X Q <XuXFX!.4 0 {.FX#XNX7XG ;XuX1XD 8.` Y # ^ q j XXcX!.l.r.2.*X7Xu t s &.#.",
"f 5X[.`.h rXtX2.3XtXa i ..P.O.N ;XtX|.Z.~.bX[.'.N B rXuX(.0 ;Xd o h ;.. iXJX}.X 8 n.[.uXyXOX5.*.h.fX7.i 5.f.s 6 u ~ oXJXcXx.A.&X8.= 2.'.d f 4XMX.X XGXGXz.D.AXSXk.5 K.Q.!.XXyX,X:.J H 2.:.% O c p >.,.,.g.-.-.c - C z c ,.>., S e.#X4XZXAX[.F H :.i. .V T T y e I ~ NXuX[.0 h qX X(.&.p $X+.@ ) 0X5XA.Q.~.mX Xj a 6Xb 7 i.aX1X#XL.V OX+Xp.dX7.f.s.D w.^ 8 ~.ZXc.b.S.R.8Xh j lXwXDXoX(.w d y ~ wXBXXXo   1.s Q 1Xe.<.%.<./ ^ _ ] N O F B.D.D.mX8X|.VX! #X<X1 2 2 %.",
"R.NXqXjXh h '.2.5.jX:Xa @ K S 1 > G X.n.P %X:./ a @ 7 +.2.s s i h & 1 7.%  XNXl.+ $ & G 3.> & . . 6.:Xg < >.D # x % s 7.6.:XaXf.>.c @ rX6Xy @ W 5.q h FXXX5 l.ZXcXf 4 y ! Q 3.f.d.>.c =.f.0.2 - < D 0.,.0.>.s ; N # V.h &.[.h `.L.m.m.~.HXlXr.q.%XtX*X( H.9X&XR g ; # ^ <X=XG >XlXkXhXs i ..[ m h 3XnXD.l.wXKX0 @ 8XW.m N i.gX.XOXw.>.c >.0.7.%.y.e.7XL.n v.S.SX8XT ^ ' S , & 0 (.uXPXJX`.w l.l.XXJX0Xq & i 0 s NX{.}.oXVXcXA.^ X./ Z Y.L.) Q +X=XyX#X6.s %.,.+Xz.",
"/ s -XhXrXOXtX<.@ a =X#X~ 4.4.&.a 4.n.8 ; 2 1 +XuXZ.3 3 %X>Xh 5X0X[.(.s s s Z.R.n B c #.=.1 t G Z. X X|.<.<.g d < < % . . * 2 2 * G g V.7XW > c >X=XQ rXR.7 7 M.}.:X&.& = = - ,.,.1 c - =.f.f.=.' c c >.d.-XtX0X2.3 Q.BXXXZXAXvXmXj.9 u 1.-X|.Q T &X9XC.f R.9X9XtXtX4.; , 8.v 9.d.:XkXFXj @ T A ^ 6XtXH.l.0XkX(.i ) &X@.x  .=XsXf.>.=.0.0.=.3.,.4.n.v.T.b.k.v.7XsXr.8.v =.8.4.7Xm.g .XeXz..XmXD.vXVXJXoX[.7Xg w }..X5XD.vXvXwX`.W.yXA B C >.9.= V / d.$.s W +XW.D.",
"d.% 2 s ~ g ].p.^ f f D.W.8XVXCXA.D.~.ZXjXq 1.A.2XnXmXj.wXFX2Xw vXJXCX(.* G &XQ.G.T >.=.,.a.) ) JXzXIX*.).cXc.!.SX_.XXcXD.).cX_.oXz.f X ! <Xa.] q.<XqXFX@X! X.e > 6.lX7.= = - 2 1 > v = = >.a.y.a.9.J 9.w.p.1XjXgXL.8 K.2Xm.nXHXXXl.y t D -X=Xh 7 n.nX8XK.n.&X*X%X|.GX;XK ] t.c v & `.HXDX(.@ l # [ i.G W |.iXFXq , c :.t.9.- ,.f.-.#.=.=.9.a.1X2XS.S.T.m.9 B r.d.sXa.s.y.r U 6X5XN. Xz.f A.f N.XXoXDXCXyXBXAXw 2 d C.f (.oXhX=Xm.R 6X| , 1 -.c O > >.*.].5 f v.v.",
"#.%.u @XrX'.<.jXyXnX~.^.m.k.XXAXAXx.!.oXMX4X~.^.m.L.bXbX}.GX5X  z.vXJXpX&.~ R E.n. .9.>.6.{.z.X o *.).pXLXc./.^._.c.SXSXSXSXAXSXHXLXmX.X& s : # X.W =XGXuX4.%Xr.x , q oXeX'.Q p.,X1Xt.] H z ; : c z N  .V K u / uX8Xb 7 B + 4 3XAXMX<Xi.%XgXjXjX{ R H.H...p S :.x t qXtXe.K i.p , : @ N.HXJX1.F 7 $ % ; e * %.uXjX& . % % 1 1 =.$.7.p & , ; *X2XbXW.D.L.P.A # , =.p $X1X%XU 3 m.9XNXkXlX3XB.7 # f NX).w h @XFXHXs d G.W.CXlXlX*.O # 6XI.5.s O r.%X& Q NXyXMX8XW V ",
"fXuXL.L.yXjXkXlX1.z.bX~.ZXD.z.CXCX5X Xq s mXm.BX~.f 6 m.%X`.CX).  s dXzXpXA.U b 7 y.y.> 0 D.D.X w X w cXVXZX!.j.!.!.!.oXkX*.%.3.D.CXCXVXeXg @XY A z & q 1X%X/ %Xu.+.X.XXvXvX2X) 5.a.q.i.%X<X<X%Xh '.C.6XY.9XJ.I C.m.E.$Xu.H.f f oXuXtX;X#X2X0XzX$X..| Z q.c c =.S O ; #X#X'.;X:Xy.u.7 # ;XGXjX0XuX! i e @ & 2 O g uXuX&.& % , c 6.uX9XyXjX#Xf 3 9 R.yX4.^ _ H ,X=XW d yXVXbX~.T.nX:XiXg.%.y nXE y N.eXlXj a &.KXNXC.b.^.cXDXDXiX,.F 4 ! 3XMXXXj p.s 5 mXh 1.tX1Xs.",
"'.2XC.L.e 0   z.XXX X l.f 3 P %.dX-X& 0 MXXX4 5 cXK.[ b # * &.HX X. o .XmXNX].;XOXf .X.Xj Z.5XlXoXMXf @ 4.'.M.v.L.C.! G #.,.7.@Xi l.cXpXpXMX9XBXp.1 % < 4.( N.7X<X@ m.4X.XeXPXg & q d d 7 Z 7XMXZXnX4XD.5X2XR.V.@XD.4  .u.O.P.#X=XgX{.Q X. .s =X3.t A _ y.,.>.9.u.| # Y 9XuXNXuX5X&XJ.x = 2.lX}.D.XXFXVXXXBXNXe.4 S.vXKXKXJXw Z.6XnXCXXXSX!.AX.Xd ; S L T 7 O - 2.R f >X1.C.m.U @ #.$.h.0 7 Q.4X) @ {.VXVXo 0 `.wXf m.W.f z.).pXcX!.l.z.XXSXvXpXq i I 7 V.0 w z.s ",
"(.h w f w `.(.j CXNXw f ! d g . q iX6.f z.uXwX5 D.VXMXM.Z w.s ~ FX Xq w }.lX%.+X*XR.XXVX5Xj.z.).oX~ & @ e ..Z M - , , 1 >.w.X.K.4XA.XXoXpX[.h +XjXtX! d R.E.R.MXKX`.# # , . *.pX[.[.2XU.I 8 H.7XE.J.K.bXyX@X8XL.6XbXl.d : b _ t %.;.<.>Xp p.d.p.6.e.U.&Xr.=Xr.X.7X&XP Y ( ^ >XgXsXr.u. .O & ].qX! @ Q *XB.3XNXlX! m.S.eXkXmX~.~.W.A.BX[.z.D.[.LXyXh i M.4XQ.f e S ^ ; 2 * O , -.;.*.fXd.W E P N.<Xd 4 0XeXFX(.).0Xf 3 m.OX-X XzXNXmXSX!.(.D.JXpX|.+X( 7 H.2XA.2XMX",
"JXJXz.w `.{.rX@X! NXFX6X2XNXkX&.h %.<X8 3 `.NXD.l.(.vXwXu :.d.t &.HX3Xo . h.*.@ y 2X{.{.[.5 l.XX).oX}.w g 7XF , $.-.9.- J i.Y 9 S.W.yX X XoX5.:.6.kXyXm.R.nX4X{.vXoXcXl.z.(.j eXBXmXAXBXE.U.{ H. .^ b K.tX>X&XU.K.~.ZXyX'.t # z 2.r.tX>Xa.r.1XgXgXOXn.mX9X3X3XyX9X2X..@.` x 1 >.d.w. .$XX.W ) 3XjX`.  M ..b `.lXt 7 d 5.sXmXmX~.!.z.'.rX$X'.h  XKXNX2XQ.ZXZXZXD.R.FX|.%.%X; % - >.>.g.,XJ.b # % L I.7 ! p.qXGXpX:X2X8 n ,.g.*. Xh x.~.mXCXj *.*.`.3X8 G.8XR.9X2X~.",
"oXoXJXvX).w d g 3 e g R.8X&.&.jXJX&.B.G.E o {.~.[.0 z.vX;X1 s.G @ ~ yX0XUX).hXs + 7 q * %.z.z.D.).JXLXXXoX5.;.> -.9.y.' q.+.7 m.j.K.;XdXDXJXqX3.0 rX9XG.G.E.2X@XZ.CX_._._.SX~.~.C.D.BXVX9XU...P.>Xo.n P 1XsXB.E n.C.bXMXHX=X; ; u.tX%Xr.e.%X+X#XtXL.5 m.mXVXyX3X5X@X^ o.i.t.=.#.:.i.J.R K.E.P.n.CXeX(.4 k _ K 6.;.@ ; 2 D ! M.5XvXqX;.i.a.8., u lXNXR.x.S.BXAX!.!.(. X XnX3XQ . - #.- s.N b ' :., } G.: 9.s qXiX6.w G.7X,.-.h.#.i f K.U 1XxXh.IXz.4 Y.v.8 n.6X8XS.",
"{..XCXCXJXcX}.3XN.q   @ s * . &  X`.n.K.Y.R.5 C.tXh @ j KXh.,.:.N @ u 0XvX).JXlXd   i 5.X.n.8 n.zX}.Z.4X{.7.w.c v o.6X{ R W.C.l.f ^ a.hXoXvXoX&.a u 7 B r r T P.P.L.R.mXS.D.AXmXd d h oXrX .^ o.>X$Xn E i.gX9XC.} G.Q.M.eXkX].0 ; t <.3.1 D +X<.&XnXm.5 M.2X;X1.3.r.t.] H 8.d.,X .e.9X8XE R ..b f CXLX(.g t & p.[.f X. ./ Y E L.7.d.,.,.c c = x r.rXU.E f Z.yX2Xj *.fXq w AXGX).; 1 c 9.= A +.o.J + m ] v v < 7.iXq   ! d.h.$.%.u @ b S ,.g.fXxXXX5 Q.Q.6 4 R 7XR ",
"& 4.|.N.CXHXoXGXuXFX0Xg i 1X<X4 %.FX( 8 T.ZXR.Z.;X1Xp   }.zX7.-X` # 7 [.cXx.XXKX.Xf n ~.T.9 + A uXoX`.wXoX0XtXs.OX( n.m.S.Q.Q.~.I S :.*X.XvXPXpX:Xg e u t S K | E.Y.2XE.K.&XoXoXrX].q 6.1X%Xu.X.*X<Xy b L e.yXMXI.b { B.&.lXKXXXu O Q =Xr.e 7X4XJ.9X8XM.6X7X=X(.3.w.y.] H N V [.<XX.&XyX<Xu.q.` b nXCXCXJXs . `.ZXD.U X.7XU.P 7 #.$.#.>.>.>.y.k : ` u.` # @ I OX* h.fX&.X }.CXHXeX5.c 8.^ 7 R Y ^ b # t.v v z >.fXhX& O -.,.,.=XT # O < - $.UX(.vX4X8 Q.9XI # Z ] ",
"H = , & p >XsX1 [.4XAXHX].5XAXW. XaX4.+ v.T.Q.L.oXKXNXw o hXxX X&XE n.! h o X (.JXXX8 n Q.b.b x f yXuXlXDXDXoXFXNXBXW.m.b.T.S.A.r.D # T 7X;XlXDXKXBX~.D.W.MX8XP.b.W.D.R.6XJ.-X*.tXtX;Xr.i.%X&XU.0XjX( 7 N N V 7X<X; # { e.dXqXR.nX[.i rXuXH.T.~.MX3XN.0 I yXKXHXkX|.5.@X7X7XU U *XW # e e.y.| @.b b 9XlXpXKX(.0 A.NX5.; ; e e Q ,.%.q <.-X+XuX| # C ] t.A 7 B $XqXs =XVX5 w oXXXPXJX4.) W.9 C.BX2X3Xt D ` ` y.- *.f.,.1 . $.s.4.Y.%X, # i <.h x.vXCXXX4 '.tXF < =.",
"y.J -.v O O >.=.q V.[.<X|.0 5 XX1.#.%.m.k.m.6XE.).CXJXA.@ &.pX&.z.W.Q.@ <.jXz.z.vXSXh   tX8Xm b } b B.`.lXzXXXx.XXmX~.~.~.T.! 4.3.,X| m m L 6. XDXvX!.c.~.MX6XB.7 P rX&X+.o.y.dX[.+Xr./ t.+.F.W.#X].<X| z +.# 2. Xi._ _ e.aX`.A.yXJX}.s +Xi m.D.5XwXuX~ + y [.vXoXoX5XN.R.nXbXnX7XyX@XF ^ *X&X{ 8 7 4 1.iXpXFXE   <.1XG e +X#XtXlXVXBXyXuX@XM.yX7 x 8.t.P.} m.U.JX.XA.MXXXX o oX).DXVXC.ZX!.k.mXBXFXsXp V | 8.0.g.,.- 0.f.0.J V n +.%X9XR.5XmXx.pXz.VXf @ 2.hXy.=.",
"i.o.%Xt.K S t >Xh a = >.>X5.L > 0.iXq 7 n bXl.R.cX.XeXGX&.o lXJXD.m.C.! i 9XBXm.(.JXHXj . w.C k 7 O...J.].dX;XU v.G.Q.W.W.4X@X%XMX8XP.P.U.^ c c >.;.-XQ K a.;.* > O # &XrXr.>.aX,.;.w.q.@.P.{ X.r.+X0X3XT A ` x %.rXY.m J f.%.U.B.,XfX%.2.U 6 P.U.<XlXFXg 7 t =.|.oXAXmXQ.Y.H.L.*X*XyX9XZ.2XyXrXH.8XOXw w  XdXqX* * 3.u.f S.ZX).0XeXeXNX;X<.<X<X&XN ` | G.m.E [ >XrX#X5XBXBXM.1.-XlXwXh G a.# e |.g.g.aX9.= -.-.-.f.y.; rX7XL.R n R Y U.Q.x.CXh g 0X0XHX{.u +X<X>X",
"<X%Xa.2.<Xu.N X.9X;X X&., : t S d.iXh + + B.@Xe '.#X0XgXzX*.w SXZXD.3X+X; 4 C.C.z.HXoXlX% = 8.: $ M ` o.7.g.sX@Xb P.Y.K.m.M.OXrX X#XB.T +.,Xg.-.#.;.a a >.0.7.7.#Xu M M H >Xf.0.d.,X,Xa.$XU.Y.$XyXuXFXuX$XK ] H C +.&XY / 7.;.V q.;.3.2.V.BXf 8 | a ;XuXVX[.p = N @XCXcXmXBXXXcXA.w ( &XU.X.OX1.E C.2XmXmXXXIXvX*XQ #XD.j.9 D.NX}.oXlXoX-Xq.p *X&XK _ O.n 6 Y o.r.+X'.V.M.B.*X+X7.dX.XXX[.#Xf 4 0 * * >.o.] -.9.>.>X*XL.Z.VXMXn.$Xo.A # d i N.2.4 M.A.nXuX&.g yXoX",
"OX+X4.<.Q OX{ m Y #XGXlXlX/ : ' >.|.oXM.X + $XJ v < ;.iXiX&.D.k.ZXSXqXqX*X3 5 K.R N.xXxX7.% > a k k k , :.f.fX;.V T b E E.OX4.1X7.5.( H.+X7.#.#.u <X=XD D J ;.=XyX~ # x v 8.d.,.s.1XsX,Xq.I Y A B.}.eXGX0Xq.H J _ A u...J.&.%.t -.8.t C.f W.5X`.N # J.uXqXlXp.>._ # f 5XvXeXvXDXCXVXN.y I./ S <.r @ 7 C.cXvXDXDX9XXXXXSXm.4 + q.MX.X X7.aXa.> 4.MX@XZ P.G.m A _ ]  .u.&XJ.V  .q.d.7.%.2XNXBX5XN.#XaXg.c ] y.8.L +XrX&XI.i *X<XOX] ' K @ y 7 V <XN.8 B.@XjX&.i *XeX",
"<XuXyX0Xd @XMXY.@ u 4. XKXjX/ o.4.qXcXZX8 + Z C v v #.1 & A.D.c.C.eXpX XAX~.8 Y Y q g.xXdX&.  h I.@.A x :.f.f.3. .b b n U.*X:.,.f.i.$Xu.7.g.g.dX8 ( aX3.V { T ^ A.NXg & > c 0.w.q.q.>XhX5.V { _ 7 d }.|.].;Xe.w._ $ , C J.0X-X3.,.a.H.Y.8 y uX1X>Xz 7 uXpXxX7.c k b 7 & h ;.p W ].GXHX.Xh Q +XtXt.Y 7 7 f oXxX_.PXvXx.h u.= = O f ;XhXfXf.p.+XB.[.9XT Y } } k ] x ] ] ' %X .q.s.g.,.<.~ 2.q.^ / %.fXf.>.] y.e.I ) e.u. .S 1 >.d.y.3XcXS.S.n 5 8XFXi < D iXgX&.c 6.",
"& 4.rXBXR.2XMX3X7 # r F 6.GXjX~ ! 9XmXmXR.I u.t.c =.1 +Xf K.K.K.w.7.dXDXZX~.C.@Xq.< #.iXKXpXf 7 n n 6 n ! |. XqXI b G.m B r.>.=.9.z v =.,.,.,.jXMX& ,.aXOXE.H.Y 7 HXuXs % = 8.y.K ^ Q 7.<.d Y.&X+.z p =XjXuX#XrXrX5.p k K gXdXG ,.c $XR { B F 2.a.+.b 7  XxXdX2.# Z i.p.;.1 % $ & * Q GXFXuX*XrX*XF.n 3 + & &.z._.AX).).;.>.# M t ;.,.fX7.h 6X4Xh 0X@XV k _ v v C ] ] x o.y.y.d.,.6.I P :.3.^ # & %.*.>.W ( 9X2X,Xe. .L e.> > ' E.Q.S.ZXZX8Xf w 5.;.= 1 %.lX<.J =.",
"r.; r H.9X[.uX(.$X) ^ p = :.gXGXn.H.nXNX{.O < %.2 %.& Z.8X7 B 7 g.7.q g !.ZXBX|.f.3.1 * KXpX4Xn k.G.v.v.R.LXlXDXV.8 G.G.%XhXf.,.f.=.= - $.$.1 u.zX7.;.s.,Xr.$X&XA I NXGXtX%XH H @.&X+X=X0XL.n.&X1XH > w.jXNX3X7X;XtXq.A k 3.5.4.1X+X^ b ..Z r t a X.} + q dXhXkXG e $ p hXkXp.#X;.i   ; / yX5XMXMXbXW.m.5 & 0 w 9 A.LXxXxX(.7 m %X7.#.,.sX#XA.bXrX;XuXe.C t.] x _ _ 9.] J ] =.1 s Z.T.bXkX5.6XT.Q.MXjXyXM.U MXMXkXqX3XyXVX9XL.T.G.j.j.Q.HXjX7.q * / %Xu.+X5.h   yX",
"yXJ.^ V : O &.jX*XV.+Xi.9.- , +XF.7 ^ qXlXp t Q ;Xh wXZ.( y / F . s.r.@ + ~ =X&.dXsXQ * *.IX}.~.m.8X6XF.f 5XpXoX[.4 6 [ i.f.0.#.%.,.G s <.6.u   . &.t & 1 * > | +.# 4 w J.uX$Xu M { J.<XuX8Xm.U ;X<XL @ 4 0XGX].1.;X*X{ 7 & h ( [.uXI P Y.Y.yXjX].! ..I.F 5.7.lXjX/ V : & ~ yXyXuXtXuX) @ e N.h @X5XnXMXuXsX>XK.n P ;XlXPXPXz.e z 3.3.s '.6XU 4 *X*XuX;XL H o.` _ v v ] ] -.>.>.@XOXv.E.GX XR.S.m.2XCXnXD.w w d i N.3XCXvX5XR.K.T 7 + # s %.%.a 1.f 8 7 #XjXHX}.i ",
"j.9X%Xa.>.= & tXqX& F u.s.s.c H ^ M @ i .X9Xm.!.~.MXuX0XP P 4.sX1 <.jX`.0 O , >.7.qXLXqX*.%.3XQ.n.r @.b + & *.dXqX~ # $ = 2 #.>.&.tX#XZ.cXAXmXl.{.#XyXB.M.rXW # N X.! U ..&XMX.X*Xb T @XZ.W.bX8XCXuX+XF @ i :X,XR OXtX6XL.5XuXL.f 5X@Xn T.~.4XgXNX7XI.+.+.W  XpXtXQ +.$XA M { Y.&X7XyX0XuX1./  .= O O ; G %.c Y n.e.8.7.DXDXDXq + Q |.+XL.E.&XF M ( {.jXjXL @.U._ o.v v 9.9.>.0.H ] x O 6.qX4XW.Y s &.CXVX`.i ~ n.Q.m.z. X X;.c 3.D = O . &.f C.MXMXX X M.eXoXKXj ",
"# OX=X&.&.u.M z.BX(.&.Q a jX[.m.6XK.A.d ;Xm.l.bXl.z. X7.&.O F gXd.@ Z.JXiX& , ] 8 '.jXhXfX*.@ 8 A.z.z.m.m A Z.oXvXPX&.* , p %X*X6.rX9XE.A.mXwXeXyXHXVXwXoXwXMX2XP n.W.nXZ.d uXuXP.U.<Xe.Y Y.~.Q.5XVXJX}.d r ! CXtXOX3XZ.l.m.8XVXuX#XyXE j.m.l.@X XBX9X^ %X*X1.iX#XOXZ 6X&XR 7 B %XX.+.%XrX1X1XgX1.p = = = z : # = = 7   o iXh.h.f XXcX2XV.u.tX X9.A / gXkXtXa { +.u.] c c 1 F R E n.m b ^ <X7XBXjX4Xl.2XNX9X5XoXR.B.! 5.,.f.aXF >X$XW a u Z.BXcXvXNX[.! i t <.dXCX",
"}.& +XyXyX@Xd 4 5XJXJX3XN..XLXbX~.ZXZXwX{.2X  ! 9X&.*.f.sXa @ Q pXh   [.DXJXl.n.U.*Xr.iXg.7.4 9 W.mXmX!.C.T.R.yXFXpXdX-Xh B.[.[.5.Q  .B.7 U 3XN.h {.cXZXcXXXwXyX6Xn.n K.9X'.~ <XP.X.%X$XY F.Y.Y.B.{.lXJX2XQ.E.XXrX+X'.nXE.n 7 B.rXuXyXR n K.I.e.=XrXX.8.2.<XuX).lX0X^ | { *X .x q.t. .K V Q +X1XGX;X<.2.8. .[ m ; ( ( [.(.*.(.j S.D.AXcX0 & ;.a.i.Z r a ].gX4.R I.*Xi.2.V.N.Z.5X2XBXW.U.@X# U 8XuXMXZ.#X~ 2X5X5XrX1.& G 7.,X|.~ K.K.8X8XE F.C.Z.lXqXyXL.i   h (.CX",
"PX).0 =X+Xz.f 6 ! }..XMXmXoXXX~.A.D.S..X XGX'.  ;.0.#.0.gX'.@ 7 .X;X@ O N.oXMXn.K.*X[.}.xXDXc.k.m.D.AXZXS.Q.B.V.7.iXzX XbXS.5 (.#X<X*X .K y d Z.[.MXx.x.CXmXXX5X7XB.F.R @XuX+Xe.*X2.3.e.Y b Y Y Y s 6.:X2XQ.W.BXeX0XV.R { Y.U.t ( 0X<X) 7 _ %X/ w.y.q.9.- i 0XFXKXqX7X&XI.$X>Xy.x c :.L > ; / rXGXqX`.`.6XE.F.Y 8 m.Q.yXJXpX)._./.x.cXvXvX&.% y.$XP./ Q h ;XgXJ.Z  .+X3XZX~.cX5X2XA.4X7XV.) 7 7 B.9XyX].6.'.M.V.sXp.1 1 G #X5XnXl.S.S.m.n b $ Z D %XNXwXoXj 4 S.XX",
"oXvX&.& 1.mXD.v.f (.z.cXmXXXo w H O.Z 2.p.6.HXN.  #.>.8.'.9Xf 5 N.kXp.4 3 z.GX~ y e.uX}.xXDXcXS.n 3 x.AX4X7X*Xp.1 %.|..X!.S.R.yXuX'.%XV T J.@X9XN.VX5Xz.wXNX.XwX#XT R | Z >X%X%Xu.q.5.$X..O.+.e._ H 6.dXrXR 8 &XNX0XwXU b P.$X$XK >X1X>Xb b O.^ 2.w.,Xd.D   @ wXxX:X<X^ ..X.>Xt.8.H  .<X>XV # V h tXyX4XD.Q.Y.T.5 3 5 [.iX XcXc.!.!.D.JXDXpXtX, ) E.7X@XZ.yXjX+X| ( C.D.mXmXD.5X@XL.@XyXJ.@X&X{ r ( 7X#XgX:X& / >.7.d.q.&XK.bXZXBX4XA.6XT 7 x = O & h eXDXVXC.S.R.",
"hXpXDXz.h MXbX7 n VXD.j.mXDXoXs 9.C _ *XsXj g AXwX#X*X! f BXf 9 D.FXLX!.k.f lXlXc c 0.1 #.%.i Y U.P @ p / p.3.- #.h [.x.A.C.7XyXkX{.z.5 Y.9XyX}.a d 2XyX3XgXfXh.>X^ x M > c H t.t.w.a.%X^ Y o.%X] t.i.1XsXt.N Y R.MXHXvXZ.R b O.` / ;XuXF.n K.mXuX;X=Xp.jX4.  0 ,.7.r.( H.J.@X%XyXX.W OXuX%Xt @ t *XVXnXbXmXbXR.8XX 3 4 q :XnX^.cXS.5 g oXKXJXwXd Q.6XL.E.2X{.<X>X&XT.m.m.Q F S @.$X%X$XuXOX*XyXq., X.uXg lXs.1 < = D ^ G.9 v.D.D.NXFXgXtX2./ A 5Xw   O I bXbX4X9X",
"L  XIXKXj R 6XY n 6XN.f 7XzXzXzX{.8 v.8XLXwXf m.AXBXnXBX4XnXbX4 + }.oXXXBXd & *.y.1 < 1 #.%.+ $ + *Xi.c - = >.fX<.3XBXbX9XOX: x qXeXXXXXB.U #Xh i @ e.<X%.1 ,.7.1X%Xu.t.z S c x o.t.>X%XT # b  .9.C z S D :.| A } 9XVXJXCXV...@.o.S Q yXQ.v.S.~.NXgX&.~ yXFX].& $.3.L $XB.R.N.7X8XL.d t / <X<X) Z M 7 8 m.5XMX5XyXMXB @ & u B.3 9X2X*XQ q oXPXDXN.f J.I.m.M.:XdXF b n 9 V s.f.J ` _  .K X.$XZ K ,Xw.# $XtX7.,.f.tXe.U W.~.S.Q.8Xl.4 rXkXqX#XR.E S.VXjXs 4     @ J.",
"t , sXhX*.; A R 7 ~ tXI ; iXzXhXCXT.b.m.oXFX7X4 l.nXD.mXMXXXLXXXF @   < O c ;.* +X1.`.FXzXlXd 6 8 ..i.3.p.0 g uXNXR.9XMXN.1.2.t t uXwXXX~ # i 1XyXX.G >.,.d.6.qXuXOX$XuX#X2.+._ C ` a.<X&X[ B ^ >Xt.L L J  .O.} m P.;XlXlX'.7X7X*XX.) E.Q.v.v.U 6.dX6.M.m.yXgX|.;.>X .O.R 9X9X3X4X7XOXF N X.rX9X$XM A ..V e i & O OXr.u I R 7 n y 7X*XrX*Xq  XKXgXi S $XR U hX X%XY n b t ,XhXr.` q.' y.M M  .c Q 1Xo.7 1.iXxXp.@XR.v.~.~.bX[.V.&X^ e.+XuXrXP.G.m Y.NXCXXXM.^ : # ",
"%.c v ,X1.G <XX.#   > : O % 7.3.5.E.n K.:XlX3XW I Z.mXA.R.f (.vXJX.XQ - 1 G uXFX+X<X#XuXhXlX3XR 8 4 <.%.lXoXD.l.C.! j 0X].~ ].h k u {.:X5.t.G %X+X4.L t 8.gXuX0X<X! f h uX;X$X$X@.@.L / O.I.P...4.gXaXw.%XE.G.v.} +.e.6.dXjX`.! &X*X6X8X~.T.U.$X3.g.dXB.S.z.|.hX4.u.&XI.I d [.@XeXtX<X>Xq.K ..6X9XZ ` u.] H y.d.F O * ~ L.n.b b O...&X) <XsX* h.iX5.>.u.U.u 7.7.Y.} G.U.B F tX].t > a.>Xu.` 8.a.d L u.X.. 7.lXoX5 D./.c.ZX.X1.4.%Xi.K p 1.+X%XA b } 8 [.VXFX#X$XM ",
"=Xa.* <.tXW Q hX0X6.* > > O %.f.$XN Z Z 5.iX7.Y y &X7X .S < r H.oXHXHX<.& P '.|.,.G  .X.7.iXXXD.f 8 K.R.D.mX#X;X,.@ B L.NXqXeX.X^ , % L J.T  .a.J c >.J M R 0XlX7.5.OXV / >XtX#Xt.S ^ ..T R E R <.w.p.i.J.E.W.R ` x J 9.>.aXsX& u  .X.U.G.E X.d.0.dX1XK.&X>.#.g.q.` O.' y.c x k H a.sXgX7XL.J.>X<X*XZ Z O.*X*XFXqX%.7 9 H.7Xn.n O.X.rX~ <.hXxXUXg.-Xc c ` ' 7.eXJ.P.7 H.u.& 3.sX@X( 2.p.q.t.i.$X%X .t q.V G lXxXz.k.T.m.MX=XsX7X*Xq. .$X/ d.>XN A l { &X#X#X'.*XC ",
"F w.3.1XGXZ.5 nXCXwXeX;X1.#X& p y.t.b $ < 7.&.A b Z q.r.<XB.y O.#X`.uXlXh 4   t 7.< + y s  X4Xl.m.4XR.m.l.M.#XtXs.H B y qXjXGXNXuX~ <.4.e.M ] 0.f.#.D i.@.k W tXiX.X9X2XOX) OX#X<XOXJ.6X8XE.F.U.7X*XOXe.( T $Xq.z z , c d.p +X>XT T A B M > > - -.p.&XH.*XsXiX%.q.+.@.| 9.8.H @.C L w.>X&X( +.<XrXtXI.O...J.) #XuX:Xf 9 8 *X&Xb T +.%X1Xc %.zXIXIXeX=Xt b %XhXlX6XF.O.@.t.>.c :.+.u.u.i.r.N M J.O.e.>XF K W h ).x.x.m.& 5.iX6.7X7X+X].<X+X3.e.H.Y } 7 7 rX;Xg F S ",
"L L s a 5XZXl.mXD.wXCXVXCXNX) ; x q.@.} t 7.iXq._ x < 6.uX&Xb m u.^ }.lXpX4Xd 7  X-Xg L.V.4XZXmX5 8 8Xn.E I [.gX-Xa 7XW q s 6.1XGXMX.XtX>X .z y.f.0.L  .` x x N HXBXnX8X7X#X%X&X2X9XQ.C.Q.Q.Q.E.yXyX7X*X^ r 8.s.w.>XL c a.2.%XrX+.O.T Z ' c z c ,.e.K.B Q =XkXlXi.%XP.o. .i.F +.^ ^ G e.X.B N H J.*X7XP...H.L.'.NX<XB.8 @ ; ( 7 + K y.s.9.% %.KXIX).CXW.9 4 7.hXL.B ..M t.y.v J k ` ` o.<X*X! 7 7 *X1X,XG t 4 `.S.!.3Xs q gX-X~ uXgX;XuX<X#X@XbXv.bXH.7 u <XjX=X1X",
",X>XOX7 n BXl.d 6XI yX.XCXwXHXqX9.H [ } X.hXzX:.x C Z S 4.>X^ b _ u.7.). XuXyX~  XdXu H.9XnXD.MX2XX @XuX$XT Q 4.).z..XuXi & O K 6.yX2X].-XtXu 2.,.w.+._ ] ] x k u B.8XNXNX#X@X9X8XR.f m.K.H.E $ 5.=X+X&X*Xo. .%X,XhX1X .H  .t.1X%X+...u.1X>XK F.gXyX9X%X/ u `.kX1X>X$XX.X.*X..7X6XrX4.4.*XX.| C r ^ &XU.I.P.&X'.;X~ L.E.I @ F *X7 O :.0.>.% . eXDX_.cXZXcXw & sX) d t N a.,X%XW O.@.O. .X.rXyXN.Y ^ p.a.w.p W U l.D.7XuX2XyXgX%.OX1X=X>X;XtX6X~.T.Q.bX7X) OXtXtX1X",
"s OXyXL.T <Xa.1 $X .S 2.;.q ].lXi./ P + 7 &.6.h x _ | C z a.*X..C ' p.<.+X].uXuX* 6.4 + P F.E N.NXw   +X<XH F s XX5XX {.FX;X~ F @ A.5Xq -X|.h i 0.q.I.$Xt.J C } z : N #XtX5.Q B.7X9X6X6XU.6X$XM s p.+X%XrX$XA | ~ W OX<XX.K : u.L.F.R H.<XtXn.n [.2X+X1X*X{ I -XsX>X%X..R L.f 3 2XHXuX#X;X$Xe.$XX.` O.@.[ Z t.q.6.Q L.J.J.: r U.+.' < f.sXq   i CXVXvX_.PX).(.G kX1X2.> S / yXnXY.F.I.O.V F *XGX&XN w.>.>.q...{ 3 B <.:.OXOXp.;.z y.y.i.r.tX8XT.b.S.6X7XI.| ) ;X].",
"[.V.+X4.< >.w.= Q hX< w.w.O s ,X%X#XyXG.6 h oXHX2XT H x k ` %X1XX.t p.G r.>X&.|.5.|.OX4 @ | ..^ yXGXs % >X .S 1.8X@Xy f 5XHXHXoXcXA.oXh j s -X1X,XX.P.&X<Xe.T } y.] # > p.s.W I Z +.7X&X( +.<X<XS *XtX*X*Xe.Z | @X( i ( tX*X) ^ T.Q.W.Z.V.6XE.m.l.`.%.:.$XW.$Xf.7.4.+XJ.L.nX8X7 7 #XuXqX;XQ F &X<X| ` | _ N H D %.! ( ) *XJ.@ $ @.<X>.6.KXqXu # d 0X).).DXpXwX].p.i.i.' x A ..E.P.Y.U.$X+.> t %X%Xt.9.a.;./ Z @.l # 7.2 % 1 ,.3.x v 9.` N  .U.G.v.F.OXK A A ^ uXlX",
"uX'.i , 1 < %Xr 0 1.=X6.;X) e %X%X/ @X8Xv.@XHXCXLX}.<.z k k _ u...G -X/ t >.%.$.<.].AXR.O ; b B u rXhX  S o.X.*X&X..*Xa 0 [.CXwX2X X-XFX}.}.;XVXCXXX2X2X3XrX&XY ..&XK S w.,Xe.+.t.C ` u.%X ./ i.` K e.r.>X1X%XH.7XNXOXi ! 7X8XW.W.8XMX7XJ.L.nXW.2XjXaXr...&X+Xp.qX;X*XU M.Z.yX+X4 e OX1XsX>X! I.*XJ.X.&X$Xt.:.c <.E P X.rXuX/ @ $ = z * a yX9XT b # i h  XpXPXDX X1.F [ x @.| _ P.&XI.o.$X%XOXOX+X%X2.;XNX! ( _ } $ -XfX>.1 3.;X .< / B M r ^ F.P.` 2.y.' x _ L dX",
"6.p.'.) +X) MXR.6 y 0XeXvXVX[.9X<XF F } m 4 (.cXpXeX0X+.o.v l b X.4.5.tXe =.f.0.V.h x.ZX;Xq.$ 6 J.`.lX6.  ^ &XL.3XrX2.+Xg W $XV t g.g.1.D.XXcX^.SXcXCXAXvXXX7XU.~.nXL./ 9.y.' +.t.' H : / <Xe./ o.k ^ e.3.=X6Xn g 7XuX) e R.m.~.6X4.2.*XL.Q.8XK.J.,XaX%X[  .7.|.CXNXMX9XC.f 1.sX%X: t q.1XjXX.8 9X3X@X&X*X<Xp.0.J.T.b F ) <X,XL 7 # v ] S ! U.6Xo.] M 7 3.pX_.DXDXJX.X@XM ` ` _ q.$X%X .Z OX7X@X+X>X<X7X4X9X6XO._ 6 d uXrXe.1XtXyX'.7XU.E.o.| m k _ ,.f.8.C _ # % ",
"z.wXwXNXR.B.2XNXC.f g wXwX.XZ.R.jX<X) n E.T O > IXoX0XtX@X<Xz # ; Q #XlX&.%.:.i.$X[ 7 [.jXFXz.@ w >XaX Xo + n K.J.1X1Xa.u.$Xt.] H g.%.t 7 ~ s ) 7.{.h :Xs.>. .n Y 7XuX;X`.+X/ o.[  .| | V T *X*XK.n.L.tX<X~ n.G.v.L.uX3XD.m.8 ..7.4.y E 6X&X2.>X9.>.s.a.C | %X2.].7Xn.8XyX0X1.].X.` x C <.-X) m a.*XE.&Xa.aX1X#XT.7X+XX.r i.gX{.P ^ : @.O.Y *X<X2.i.>Xq., p 1.}.JXDXDXPXcX4 @.C A _ %X<X^ 7 u ~ D.4XFX+Xe.*X*X*Xn.8 3 J.%XJ.d @XpX0X3X9XnXbXbX0XOX< 1 i.@X8 E  .W ",
"`.uXFXyXR.C.Z.3XM.V.e.i.%X'.&X) uX1Xg 8 K.*Xq.O &.wXeXqX<XtX,Xd ; # 1XsX3.sXG ) ..T E   h }.FX~ , , 3.GXA.n + t :.a.y.c N ' y.0.c ,.7.( F.2.1 @ =.- % %.d.0.q.o.A N 2.1XtXtX%Xi.*X+.| +.K I *XrX8X6X*XrXgX<X&XW.8X7XtX+XL.bXW.7 3.>X@X( ( F z z :.w.y.q...X.OX>X,.&.i B.#XgXkX:X@Xo._ C L a.%XG.N ^ ..X.;.;.e.7X8 ..tX%XT V rXBXOXuX^ # 6 9 U <X%Xw.H y.f.>.2 . 4.{.vXCXDXyXe @.[ A | +.%XX.T &XU.uX0X|.+Xe *XV.H.W.R @X*X7XOXe G H.P.J.&XD.[.gXGX1.@ 6XMX9X3XrX2X",
"W i [.BXnXL.NXqX&.t , z t.t.a.>Xj ;XMXm.3 rX-X* , }.GXpX{.4.jX.Xr @ > 8.>.sX<Xa y P.K.Z.w i i rX0.= p 0X5X9XK > =.=.>.H H J 0.0.0.,.6.^ &X,Xs.> 0.f.=.=.w.,Xi. .t.z z S / OX<X5.<X7XH.P.$XF : ^ T J.W a r.%X$XE.I.<X1X<XI y $Xu.z i.rX#X4.r.' x G %X<X*XU.6X*XrXfXdXd E U 4.tXkXCXCX#X^ J 8.u.H.7XrXy.2.G F J.M.B ; L u.P.[ H.9X0X].+XL.n 9 6 d >X2.D < w.dX,.. , @ d `.DXKX.XM.@.+.I.I.e.q.{ E.^ 2.,X1X>XQ @XwXL.E 6X( *XOX7XtX^ | I.u.F u G 1 5.9XS.S.5XGXGX#X9X",
"1XQ y nXnXM.0X;XjXg N H > > , u.'.M.bXZXS..XqXdX;   }.GXqXq =XyX7X*XV e.D s ;XZ.8 E.bXW.BXLX(.0 g.%.  @ # F L , #., , t : > =.#.0.7.<.7 K ,.d.H z >.L t ^ 7X*XV : > N M X.*XjX&.G &XY.P.rXa.F R $X*X2.D r.i.@.} | t.2.>X&X7 Z %X' K ^ G <.,X,Xi.t K $X9X&X&XOXe.aXtXB.m.G.J.X.*XwXHXJX'.G  ...E I.>Xd.w.i.&XuXyX*X .K +.O.O.Y 6XsX1.L.E.Q.E.E.nXkX;Xh ; i ;XGXqX@ ; C V o JXLXXXu y I.+.K _ [ O.c < d.p.q.$Xu 6X$X$ *Xe '.#X`.FXuXOXo. .z S ' H g 8XG.j.`.7.dX1.b ",
"8. .+ f MXrX`.qXjX[.3XHXrX].V M yXE.m.ZXAXz.JXpX(.  @ 1.0XjX1Xu...F.L.HXFX#X{.nXE.6 b.G.D.cXPXvXDXoXj , $ = N / G Q R P f G ;.2 ,.7.1.7 # 1 c t.P I J.@XU M.yXHXR.2XR P F.B.rXgXQ I n.H.e.<X*XH.^ e.>X>Xa.' [ } J.%XF W rX7X$X%XrXX.N z z w.1X<Xq.z r O.$Xu. .F >.1XP.m Y.<X>X4.o.*X0X X4.O.} n :.:.>.y.$X{ X.e.*X$XI.+.| } l M dX0XnX8X..& @ H.wXHXCXcXcXXXvXPXvX4.k x B 5 CXPXoXq N o.O.O.^ W y.9.>.3.' +.[ [ &X/ ; 7 I uX`.`.qX5.p F e.L N +.J.E.6 B G d.,.q.M ",
"S 4.f + ! FX{. XHX[.f XXuX].OX7 y F.G.K.4XD.CXDX).l...@X`.oX:X*X8XB.5 f 5XFX0XyXG.6 6 b.j.D.CXDXDXDXlX3.' W y L.9X8XbXmX9XjXhX=X>.=X0XrXtX<X2.>X9X7XyXyXg 4 h eXmXAXBXE.{ y ! uX<XJ.K.( T e.X.( # u *XgX>XL Z b T *XtXV.~ @X+Xr.<X*X*X%X8.w.r.5.>Xu.Z b | t.y.w.0.y.I.@.o.t.a.< _ W .XDXNXR.n.n 3.0.y.u.O.{ o.%XU.K.&Xe.u.O._ $ >.e 7 V.1XD O 7 h &.HXCXZXSXcXDXvXgXd.] l 3 o zXpX X< M P.O.r & i.a.>.w.i.u.+._ H.%XG I 8 @XqX1.:X-Xw.e.rXrX'.C.} U.[ N ;.d.d.t.$X",
"1X<X'.7 O g ;X.X0XN.y ~ gX6.].8X7 6 n | &X9XXXJXJXx.n.yXVXoX].+X7X8XE 8 ! 3XFXiXU b 6 b.G.M..XlXvXDXpX|.2X~.^.Q.S.S.S.4XN.1.=X;XrXuX{.#X*X9X*X*X#X7X&XrX+Xa i 3 4 Z.uX<X..( J.yX7X7X7XJ.&X6XJ.6X..y W <XtXtX*X{ B ..uXrX^ Q / D 4.%XyXtX*X>X>X%Xw.*XI.A z 8.a.0.0.y.Z x x , 2.4.m.D.XXDXDXCXD.N.;.3.<XX.B P { 6XL.C.[.<.L [ @.A J i.> O <.%Xe @ +   h }.D.CX*.$. X7.=Xi.{ # @ q ).pX}.M.Y.P.$X/  .e.=X+X%XI.| V 7 e.jXB.3 M.uX1.;X=X+X! M.3XNXR.Z R U.^ ,X6.5.%X$X",
"jXrX#XrXN    XoXqX4.F 8.aXdXs NXNXm.$ # N V 0 &.vX4Xl.f D.JXlX).h B.U.G.T Q :XlX4.P m G.n r Q G &.IXIX).c./.^.~.^.^.ZXBX|.6.|.'.U.0X Xa 7 f m.I p &XI.$XsX>XJ.v.Q W 2./ N @X6XyX7XOX<X&XI.8X9XyX&XR T ) r.+XU.{ | T ^ X.OXa.a.w.N I ) @X;X%X%Xu.r.) 6X6XK 8.s.9.f.a.K # | ^ V.R.D.~.~.(.XXBXLXjXrX+XtXrXOX( 8 G.MXMX0XhXr.I.P._ o.t.s.c > 7X&Xr H q.O   a 5.g.$.2 *.dX].7XF % 2 UX XcX~.A.M.rX%XT +X`.tXV.V.) V.K.& / L.9 8 rXuXoX:X+Xm.E V.7X9X=XT E U rXgX|.4.P.",
"-X7XY.uXtX5 3 :XgX2Xf a 3.r.H.n.pXrXZ k | O , -.) jX=X: $ uXJXDX.XN.U...O.o.5. XuXy 3 Y x J 9.1 & *.).vX!.bXD.D.b.S.A. X(. X XwX<XOX'.;XrX<X&XX.] H ` %XyX2X~.b.B.<X3.:.) P r <XNX7XX.I.U.O...;X5X9XL./ i.a.) P._ o.^ > G s.%X%XK C @.$X$X*X<X+X+X~ U 9X*Xt.c ;.y.,X>XOXC.Q.~.S.8 [.oXh ;.4.uXCXgX{.#XrXL.W.Q.9 m.7XlXeXwXbX2X) $XX.%X*XV V.MXQ.X.L.C.i   2 fXzX7.* ' @.a.aX* 3.[.x.cXSXcX(.z.Q b 8XnXCXvX.X7XH.2X@XOXI.3 3 U NXFXkXqX( b # H >X1XOXK.3 X.jX.XN.K.",
"0 3XU h MXD.4 & |.MXR.].p.p.( 3 &.tX~ @ $X/ : J %.d.sXS Z d `.JXjX3XOXX.M z ,XgXkX{.6 n F.>XaX* & &.vXD.D.NXV.D.{ P 0 %. XpX|.h uX+X'.'.4.%X<Xa.i.| T P.6X9XBXbXh ;X1X,X$XT # : OXrX@XU R U.J.g U.&X*X%X%X*X&X&Xq.L %X%Xt V @XwX4.` _ _ @.*XrXtXrX7X@XOXu.%Xd.3.;.w.X.L.~.~.W.L.7 y ;XlX5.t g uXqX5.<X7XL.E.W.K.7 W ;XuXwXMXNX0X+./ $XuX&XB b K.7Xf [.GX%.% q kXzX7.< # / hX,XV.~.Q.k.!.LXJX}.[.n.l.ZXAXcXSXZXA.Z.7X$XMXR f d u j dXsX@X{ Z z q. .| F.7 0 ;XGXz.f ",
"3XMXuX~ f BXFXO q nXMXuXhXtX3Xy s kXFXw f NX>X> 1 = L / R 6 I wXJX Xh e.o.N F 5.iX{.9 9 b.#XhXq d d ~.!.h sX-XB.+.Z e s z.vXJX.X&.'.#X) ; > 8.>.@.X.Y E n.n y rXw 1.gX>Xe...A # _ rXyXA.A.9X7X( [ %X>Xu.6XE.U.&XrX%X>X$X{ E.VXXX;Xr.` _ _ C K e.*X7X*X$X .i.>XgX3.p n 8 3 8 6X+Xy # ' kXlX%.& t kXlXi W 7X&X7X$XZ ; > F W @XjXgXOX) ) &X6X{ 7 b E.7Xg a 1X=X. 0 7.f.%XJ.@ i nX5 6 8 n @ h GXKXoXl.5 m.W.vXLXvXAX) *X$X&X9XP $ r & 7.iXtX$X' c C ` b U.U.4 '.HXHXyX",
"D.0XhX3XM.7 4.>X& U B.#XsX;X*X@X' ! VXXXo @XtXr.,Xq.| K.m.Q.9X4XxXlX X4.%X%XS / |.1.n k.9 u iX&.v.l.m.bX1.7.,X6X$XL.NXMXk.l.vXJXpX`.`.yX7XX.4.>X$X6XP.n n 6 @ 7X~ '.tXr.X.&XyXu.b H.7XnX8XbX9XyXX.$XOXJ.L.H...+.V.*X*X&XY 8 Z.GXjX+X] @.o.` ` %X) Q a L u.%X1XtXgXU K.~.j.X u 1XXX[ x :.lXkX<.@ &.hX6.; A +.e.a.o.c S x @ t =XhXrX*XOXI ( 7X6X7 7 &X>Xp ^ yXhX. $.d R.0Xh X !.5X@ $ x c % * xXDXh @ $ $ ; h qXjXe.W +.^ 7X^ # ] ;.;.f.:X+X8.t.' I...b 8XI   #XwXuX",
"BXj %.<X7XG p g W 7 0 s ;.s V %XA @ z.VXh i p s.3./ ..8Xn.+ @ z.iXlXGX=XF u. .u.uXuXJ.m l.%.h.).k.C.) *X1X3.e.nXL.n.2XMXS.8 `.tXkXJX.X[.nXBX5X#X&X&X7XU.F.Y.Y.E.<Xr.1X<X$XOX7XV.7 b ( U.E.K.2XVXyXV.8X9XM.4.%X| H.rX<XyX8XE W p.gX:Xq.' +.o.` _ *X<X>Xq.K ^ ~ }.yXZ.K.8XNX4.> t.BX7X: x / lXHX[.j lXiX+X7 # i.s.,X,X<Xi.C ; S a.tX%XrX@XW @XyX$X: z ' u.u.Z a.f.6.D.ZXwXwXS.x.CX Xp = v , % o pXKX}.# # C D 3.sX>Xe  .X.| %Xo.x $X=X-X|.rX%Xi.+.&X&X7 { $X# r e.+X",
"XXGXiXs / >Xr..X&XM.V.3.d.r.t X.P.P 4 #XtXw.#.>.<.G u ! %Xr.q . s  XiXkX+XF | $XU.rX^ 7 V %.%.(.9 7 e.F tX7XJ.L.H.&X%XX.Y.7 , :.pXJXLXCXcXXX4XCXM.! ) &XE.Y.G.K.w.z  .%X$X( OX6XE.F.^ @.[ T ( '.tXV.2XMX<X<XrXJ.Y J.'.].%Xo.S - p =X=XL ` t.o.A Z y.tXtXJ.U [.HXMX8Xf 4 4.1XF # ( CXoX/ x F NXHXjX:XiX=X^ b ^ p.+X,X<X<Xu.C : N +.X.$X7X'.u W +X' H  .` A  .q.7.l.x.mXCXcXcXcXFXpX;X; x H.d f }.xXJX}.4 ( $Xa 5.hX4.^  .q.u.%X# Y 1X=X6.;XrX .{ OXJ.X.B *Xo.# >X> ",
"  ].lX}.|.p.! E.T.W.NXhXzXgXJ.X.yX..$ K sXhXf.7.1XQ @ x J ,X,Xs & 6.:XjXFX%XJ.X.( X.T r > %.j }.S.4 L V &X9X#XW E U.w.H 6XU./ F f XXVXvXXXvXAXwX5X[.y U W.E.B.'.dXd.q.q./ T ..6X7XI.q.t.H v H D e. ./ OXrXyX7XMX<Xa q < 9.-.c =.J a.sX5.H ` o.` ` H 4.*X8XT.R.uXNXMXR.! s s G # # Q tX:X/ N W 2X[.KXlX|.) R ..e.a Q OX%XX.| ..P.n.H.J.*X#XW t ^ I.| +.%XJ S Q uX4X3 w VX#Xf N.;XjX}.OXU Q.Q.XXoXIX).vXl.3 ( rX}.zXlX) Z %Xq.u.W l %X=X1.5.<XX.( ^ I.| ` @.` x ' >.",
"' @ (.JX X=X..b.S.~.nX XdXtX@XK.{.<X` = :.dX7.d.rXVXL.k C K 0X9XW & 4.qXqX%X*X&X>XF ..u.N '.}.z.BXM.N F.T.R.].gXW.K.5.Q C.Q.5X5XU i XXLXvXoXCXCXyXMX6Xv.T.Q.uX7.>.d.r.u.u.u.T } A x L y.] v v 9.H z = H J.6XcXCXdX-X0.c v -.9.y.v , <.1X>Xo.` @.o.H t f Q.Q.4X[.6.yX8X3X<X=X>X%X;   S  XqXQ k _ 4 (.zXKX@Xn E 7X<Xe.X.OX+X7X6XG.W.~.nXyXrX*X$XI.Y.6X..8.,XL u m.9XA.4  X=X7 @ 1  X0X[.n.j.A.}.&.q ).DXAX! V uX X*.gX*X| ' %Xe.) n X.sX+X<.+XuX6X` @.H ` x y.H = -.",
"F.7 # 5.7.<.F b 7 e >.#.>.>XyXf X.,Xs.= , 8.i.F.R.bXHX;Xy y >XuXgXX.z g.f. Xs c p.>XS > H 1X) 4 ~ 1X+ n K.7X#X5X<X4.-Xr.m Q.U.3X8XT : h lX`.3XAXvXvXBXC.7 X.3.aX0.:.u.6X9XR.@XB.| / s =.8.` | *XyXyX~ e # b S D h.f.f.0.] ' *XyX;Xa , ' %X7X&XH.K N ( n 6 n ) >Xa 1.1.a V.nXmXCXpXs O > J.8X~ G | ; 3.kXFXf 4 T rXuXyXnXR.mX9XR.b.2X-X,.9.$X&XR. .I.7X$XL q.B.n 8 7XlX*.%.i 7 = o CXnXE + % %.%.0 h z.oXJXj q -X XjXaXd.O.I.i.u.# N 1Xa.r.;X3XMXtX*X*X+.| @.t.H ] ",
"Y.P.F s |.hXe Y z - =.$.- 9.a.S > s.a.t., J ` P.B.M.qXkX*X: % G V.e.> - ;.;.D x 4.rXr.& > / L.4   -X1X+ n *X7X&X-X&.0 J.{ R U.yXjX5.@ & {.eX`.+X0XNXuX3Xu > p 0.a.t. .O.U.&X*Xu.+.1XaX:.C _ [ b 2XwXNXrX/ > , #.%.* %.r.G > G *XHXyXB.r ^ $X@XJ.*X&X9XnXE.n W %XtX1X1X<XB.M.XXvXHXjX3.@ + ( rXgXOXN a #XJXHX'.& 4 f [.bXD.[.L.E.U.Q s >.w.| U h i.Z ^ tXa.< ..n y # p s {.5XL.1X6.i 9XMX}.. * >.B.U 0 w HXGX&.  }.NXsX3.i +.i.[ 7 $  .>XL a I W 4.4.%X<X%X$X%X&XI.",
"Y.G.X.;X6.gX$X_ y.>.d.a.] x ' ,Xy.>.c ` Z  .e.P.@X( &.p.sXi.< @ & z t : '.yXHXnXz.XXKXjXp r U.m.& q jX# A @.K H >.-Xf G.@._ { ^ s.hXtXu Q  X7.=.J < q tX1X;.c =.<X%X| A 7 : H t.X.4.>XgX%X} m 6 u ^ +XuXyX7X0XjXJXNXCXvXoX(.t O 0 9XAXnXyX<XOX( Y.K.C.E.E.Y.$X<X,XsXsX<X&X6X2X4 h NXKX.X0 7 OXrXhX%XI ! wXKXzX7.y ; @ @ ^ y.>Xt.t.w.w.e.&X9X+Xs | K < ;.u.+.Z B i.z r B K.~.R.GXfXp    XzXfX* & b T X.@ g FXKX(.  z.jXkX1.u F I.M.y T uX*X^ T | OXq.q.r.8.K O.7XY.",
"G.P.( |.dX5.+Xb ' ] t.8.| k Z o.d.q.<X$XX.; Z ^ u ) &.s h +XOX! V.=X*XB.Q.mXmX^.D.w oXGX+XJ.U.8X) @ $XA # x c c 1 <XW.v.` t.` @.1 -XkX<X; =X-X>.aXw.& 5.tX>Xp.>.4.OX+.&X+.V H >Xe./ 2.>X*X{ m G._ |  .e.&XK.C.S.yXmXSXvXAXPX{.0 4 Z.MX5X'.'.OX&X6XE.R U ..Z Z D q.w.< ; t ( *XNXd N.GXKX0X; # Z >X<X*Xe.* * &.;XnXNXa i F S 9.x 8.>XtX*XH.OXtXkX@Xq.;.G OXU.P | *X*XI.U.E n f h dX|.&   7.,.6.z.6 l ..B + d JXPX).o s gX=X+X6XW.9Xn.7 ..yXyXOX&X%X%Xu.t.+.Z Y P.O.",
"m } y u lX:X4.i e / ,X>X/ e W &X;X#X#XyX>XF @ # V a `.wXoXD.cX!.cXAXmXl.v.L.U C.JXoX&.{.[.( y *XgXt : H : C K / 6XE.&XI V S , o.OX .a.1X<.s ,X=Xr.r.Q a e.tXjX0X1.) T &X6X$X^ X.%X>Xi.r.%X..} T.G.I.i.y.8.@.O.} N.3XMXmX.XeXFXeX8 d &.6.1.L.K.{ U.6XI.u.I._ v J y.i.i./ F # 7 ( NXQ 4.1X:Xi ; k I.$X:.=.=.>.2XS.c.SXCXmXXX].+XR # ..rXuX@X~ 2.i.,X'.@XyX#X~ 8X~.cXMXrX&X7 # x ^ zXFX}.0   &.5X!.B.7 Y 7X[ 7 z. XpX X&.s +X7X4X~.9XU.R E 9XMXuXFX>X%XU.U.W.U.R I K ",
"P n 7 Z.{.oXHX}.D.V.#X0XuXA.m.n..XBXNXkX:X'.d H.uX4.N.mXPXSX^.x.cXcXAXD.4 J.V.y }.JX).{.9X&Xe.p d.2.# , r ..R.R.~.D.{.].[.N.a u R +.D -X7.2.r.HX;X;X#Xg u ) #XwXFXyXOX@X7X7X( M J i.i.<XtX^ 7 m I.t.0.-.=.H A m F  .%X%X&.&..XCXQ.! ;.%.W R.U.Y [ u.u.u.i.t.t.9.] e.jXtX%X%XW @ 4.L 9.s. X6./ k # Q <.s s ) ~.S.k.x.AXCXXXtX+X#Xv.n.6XrX;X~ W | ].[.2X2Xz.M.Q.W.cXz.oX9XOX^ x [ eXwXLXLX).z.4XT.XXZ.@ { P.L.Q h *.xXKXqX4.i l.z.4.^ H.E E A.0X].0XwXXXD.!.mX4XZ.Z.",
"3X9Xm.Q.4XD.AXJXCXBXBXmXZXcX~.m.U M.'.7.iX1.m.S.tX+Xf 5 (.CX4Xg W 4.uXjXg X.9XM.q 7.fXzX5.u / & . `.#Xt @ n T.W.C.M.0X;XCXAXwXN.H.&X5.&.aX:.F N.yX0XFXeXuX<X&XOX7X&X7X*XrXrX>X/ z o.t.u.*XOXT m J 9.9.:.5.`.V # x @ > ,.>.* a V.bX5XtX+Xn.H.@XX._ Z q.L 8.i.a.y.] V J.uXtX*X$XJ.; z w.aX-XqX@Xn W ].lX0Xn.G.G.v.l.f jX0X1.aXs.%XY.R H.tXqX&.h U.3XOX<.w S.S.5 z.mXN.wXcXXX#X^ B T N..XCXLXcXD.l.A.2X( B B ..J.tX(.xX X&.eXz.4 %.:.z M Y E J.#Xa 5XMXBXmXmXmXCXCXmX",
"MX8X~.b.S.!.SX_.eXoXNXmXcX!.nXtX&X{ W 7.7.}.x.k.~ +X8 3 h lX;XL S *X+X7.w.# V i.q.1 g.g.%.p p r.A.A.BXuXe   3 h %X, ..m.[.cXbXyX$XyXjXp.a.w.a  .+X{. X}.qX<X%X .R R +.u.<XaXhXaXt._ A o.<XrX&XG.1.r.X.M.2XVXjXw.A C L %.>.d.>X+.z.4XnXnXE.L.#X1XI.X.%Xa.L S K 4.+.T 7 L.tX/ / &X1XG p 6.5.0XbX~.S.XXJXlX`.j.k.b.m.V.qX0X].lXjX~ A M b g oXJX[.4 W r.Q h D.mXQ.M.d @XCXSXcXvX.X6 + W t j D.AXAX_.Z.y P [ b k N 4.oXKX).o oXVX~ - >.:.M P.Y.L.*Xa.H.R.9X9XA.2XMXnXR.",
"4XD.M.Y.Y.n.2XBX}.&.) K.Q.mXA.8X2X:X,.,.h S.!.XX-X4.n.7 # >XzX,.o.y.0.0.0.c = x 0.-.-.>.].yXmXmX~.x.cXLXoXi   $ ' i.C : V rX$X$X{ , %.|.0X1X>.> 8 $X1X>.* s y.a.7Xw.S @ ; ;.%.*.*X%XK V { P.6XB.K yXnXx.S.S.wXzX8XU.*X>XsX1X..} j.4X9XyXE.W.5X XJ.$X&X<X=X4.r.%Xu.O.7 F 1X&XW G 1Xt.p s h A.^.!.~.B.j lX).w 9 b.T.~.VXpX7.7.kX;Xo.A A # w vXCXdX. c &XE.m.m.BXBXXXo z.CXHXDXjX{., r  .O @ f PXDXJXwX4XJ.( $ 7 ^ #XdXpX)._.vXpX Xe.X.3 n T.B.g +XM.M.n.J.<.< u K.C.",
"( 7X7XR I.u.e a dX:X+XB.M.[.! OX=XaXg.7.h l.m.eXiXh 4 E.4 D sXf.1 =.>.9.%XrXi.& - 1 1 OXN.CXmXcXZXC.V.rXFXjX) 7 x C C ` t X.$Xo.,X7.*   f ].=XOXr F gXgX7.%.< 8.~ 6.h 0 0 0 0 4 , , 9.i.` x C C # I nXBX4Xf W <X7X) ^ / 5.tX6Xb.m.K.@X6XR.8XMX0XOX( ..$X<XrX7X$X%X&X| ^ <XgX%X<.,.K ! @XQ.m.S.nX[.h h oXJX{.3 9 v.m.rXzXg.*.d.zX1X%XI.+.+   0XzXqX@XP n n 4 7 X.BX3X  o (. XoXuXjXV.V.uX4 4 @ '.CXHXkX;X7Xn.P V s h wXcXvXDXxXIX1X$Xn + n bXVXwXV.7 8 6XyX0X2XQ.S.",
"[ rX>X<.& ' y.J -XgXFX`.g 7XgXw.=.#.*.|.x.S.5  XzX X5 f W ; 0.f.>.>.f.>XM M.HXoX&.h h D.j.x.XXz.#X%XH e.wXFXwXi + # A @.C r ] 8.#.aX1X[.#X+X+XjX>XO Q sXfXaX:., h wXHXLXHXHXHXAX+Xa z ] t.o.C ' ..7 n &X<Xi.^ U.gX%X>X<Xe.OX8XQ.K.Y.6XK.m.C.yXgX>X2.| ..) @X7X6X6X*X) B | 1X,X:.w./ U.~.W.9 3 &XFXz.w z.CXLXf X E J.,.f.fX$.$.9.7.4.L ` _ l e  X.X9XU.m b A x A R FXKX0   GX&.o w HXyXMXHX0 # $ e 1.iX(.A.mXE.6 ;.Q B.D.XXxXxXIXtXX...6 n Q.mXSXwX9Xh U 7X&Xn.~.nX",
"*XQ -X=XL # %XS 2.V.MX{.q ^ dX,.,.%.h D.!.b.w &.iXJX5Xd <X, =.0.a.0.f.=Xi 5 cXSXSXvXSX~.m.f @X:X-Xa.N B Z.wXNX.X6 7 Y @.o.S J 0.#.:.1X#X1Xf.$.0.sXS $ 3.dXdX-Xu 9 D.mXVXCXoXCXCXSXCX}.e ^ *Xu.$X&Xb # V t.aX%XX.w.y.>X1X$XI H.G.F.P.9XMX9X@XtXhXd.i.+...F.H.L.4XnX;Xe.b 7 J d.2.&XE.I...H.} 7 A CX5X8XN.h VXVXw @ , 1 =.g.g.;.J =.i.q. .[ F.2X).6.< _ _ _ +.O.b A / :XjX7 3XKXoX0 a X.H.uXeX3Xa , @ N.NX.XA.3X9Xd.s 4 m.}.JXIXIXDX}.L.n + + l.CXVXAXmX2XOXW P E OX",
"NXq %.=X*XH.5 z.y 5 l.eX|.> 7.g.g.s.h j.^.b.Z.-X*. X{.uXsX>.$.-.q.w.6.q w x.x.ZX_._.vXvXnX! &XrXjXqXN.d I L.uXJXK.7 [ A ] ] c -.0.v S - $.,.- 2 x t.H D ,.*.].4Xb.v.n [.eXcXCXSX_._.vX}.i y [ [ &XI.N # x %X1X:.J L D ' i.o.T B Y } 6X7X<X2.0.,.aX1XJ.F.U.&XE.9XNXuXtX$XZ G 3.4.Q.6XW C  . .b 6 V.9XyXrX&.&.VX4XQ * c * *.kX4...q.*XMX9XC.8 M.lXfX=., x A _ Y Y ` a.* #Xf 3 CXCXeX& @ 7 a uXFXqXw.t 7 Y.6X'.1. Xd.t @ + ].|. XPXDXDXvX@XB +   u }.#X0XyXtXOXI R 4X",
"pXoX&.j E.Q.Q.VXMXZ.w 0XKXd.%.h.,.4.9 k.~.m.3Xf. X Xi 3.;.=.c 1 # g wXcXx.S.m.) dX XIXlXrXZ.C.mXwXCXVX4XB.I.0XpX9X7 k k x c >.$.0.- - - 2 1 5.6.# x  .c s  X.X!.G.} E OX0XA.S.~.PXIXpXkX=X: x x O.*Xu.^ b Z i.0. .>Xw.c o.u.u.e.b 7 ^ 2.;.1 >.d.a.+X( b [ ..T ( +X1XkXtXr.e.4.! n.J.K ^ +.t.] # @ L w.d.,.. h [.;X<X-X&.6.0XMXE.Q.S.cXcXCXM.  ,.fXsXt.N x # # x K y.w.J.E.C.h NXpXlXs O ; F '.qXuX%XH b } rX-X$.*.( n + =.#.}.eXDXPXoXeX#XF O O > 8.8.:.<X7XA.D.!.",
"h zXlX Xf S.4XwXgXaXp s fXfXh.h. XZ.j.8 L.~ %.,.g.dXs . s s j D.D.l.R.ZXS.8 T J y.7.iXiXh d f A.2X.XCXMX#XrXuXeXtX> # C ] 8.s.>.-.>.* %.&.z.cXJX+X@ e g M.BXnXD.P 8 P t.%XK.C.nXpXxXxXxXkXtXu.7 # @.*X<X .: S w.J.tX1Xw.H ` O.yXV # N 9.9.d.y.,X*X7X9X@Xo.@.K K J w.,Xp.5.[.R.A.y +X$X[ [ i.i.^ # = % 1 dX-Xh 7 ! FXFXjX1.i 9XnX!.!.S.cXcXXX4.- 7.dX'.( M.u # # # c 8.B E 9X;Xp. XpXoXh + # $ V.9X#Xq.L : a 6.h.j Q.C.X.- 1 p < (.iXoXCXAXNXh & = = c c L @XL.w i ",
"  %.KXFXD.3 7 1 7.0.$.% - h.h.*.z.~.^.4 0 Q #.,.g.g.%.2 -XNXx.^.SX!.l.K.P.l # x v < iXqXtXu.^ @ 3X[.3X@Xf g {.qXlX:.$ v v < %.1 - s.tX}.cX^.c.vXpX&.f D.~.S.A.MXnXm.n N o.O.T 4.dX%.*.iX XHXVXU _ # M ^ a.J > / 2X`.=X=Xu.{ R 8XjXF O c 9.,X .I 7X2XnX7XX.t.y.' 9.J s #.6.{.bXBX8XOX%XI.| K  .*XC Z $X4 g NXyX8Xm.f }.FXyX~ U nXR.Q.T.mXAXCX}.6.d.1X$XA.D.BXNXu $ = 9.@.+ 7 ,.-.7.lXDXDX6Xb M 7 .XrX) a , 2 * |.^.S.M.>X=.O 1 - =.5.oXj (.PXFX}.: $ O = ' u.| M c ",
"dX% - 1 =XtX< % 2 0.f.-.$.$.,.1.8 C.MX X. . - v *. XcXcXcXSXmX5XvX5XJ.9XQ.bX9XV.X.) =X:XmXAXmXcXz.cXDXDXoX< % h lXkX0 # _ Z w ).D.!.!.W.9XuX;X`.oXcXx.W.{.gX'.f 8XnX7X4.F Y [ H 7.*.6.1.[.3XFXjXR 7 M # k %X7Xf S < 5.1X7XH.V o.hXjXX.r M o.u.[ | y.J X.{ ..>Xi.y.a.$X@XL.8 y 7XyXuXrX#X+XL | i.X.L 8.' # M @XrXjXW 4 %.zX-X7 b.9XB.E.P.Z.VXiXh.h.=XmXS./.^.LXxXq @ k ] ] # , ] q.*XHXSXSXcXCX%.O ,XfX#.s 0 w D.W.mXnXBXHXwX`.d Z X.5XSX_._.DXDX0X! @ # :  .*XI 7X",
"<X4.G < * 7.fX-.1 0.f.g.$.1 }.cXS.X 0 hXfXh., $ z.BX!.c.l.mX.X0 h W A b R A.NXNXw.: > Q D.D.cXSXXXvXwXFXHXFX'.W oXoX3XZ.R.MXVXCXcXl.5 3 3 I `.3.pXCXk.j.! g ) nXR.A.@X1XG 3 B i.zXdXdX].1.~ +X;XuXrXrX@XI e.<X>Xz z > o.$XO.@.C 2.>XrX*X| o.+.| O.i.i.*X&XX.i.t.' $X7XyX7X( r x Q 4.*X<X%XOX| V I.o.y.y.C # r 7 $XjXtX%.*.tXZ.8 4.@ P T.m.jXzXg.6.d /.S.f f ).KXpXs : k C ] Z C P 4 z.uXBXXXMX{.2 % ,.s.%XNXR.m.8 f B.rXuXNXFXyX9X@X@X5X3XeXDXpXGX{.FX7 + + e.<XV ",
"N %X<XsX,.- >.0.9.9.,.%.&.D.!.!.ZXD.0 s dXdX}.w k.S.!.mXw q q a D q.| T 7   i NXdX*.@ H.G.6 S.nXCX].r.sXlXeXyX9XDXDXD.l.cXSXvXXXR.J.J.{ E T 2.fXiXwXD.5 C.7X..X.BX2X&.-X;XR.V.& g.fXhX1Xr.3.2.$X#X7XyXBXA.w G q.o.i.' H C b _ ` F ^ B.J.&X%XI.O.H.$X%X*X8XOXX.*XI I H.7X<Xu.' x K X.<XrX7XrX&XY I.' y.i.@.M A M z S p.p.1.@XmXZXFXa 7 } &X7.h.f.[.m.b.m.4 O * ;XKX Xh # k _ P.P W.S.E 2.s.0 h VXdX* s a. .I.F.E J c S - . s =X1X6.L :.v = % #.g.*. X0XBX7 # : 9.L ",
", J u.=Xd.>.- -.-.=.w.].[.~.D.z.XX#X6.s q (.mXx.b.S.!.MXeX{..XNX XyXR.nX~ ;   r  XiX! v.Y.n 6 X.hX3.1 2 %.:X}.i oXHXmX5 x.D.z.3XQ W { P.Y.I * d.}.XXBXD.N.rXOXT P =X,XaX*X6XtX#.$.d.>X1X,Xs.u.$XF.G.Q.mXmXA.XXyX*X'.7XuXyXJ.y B J.7X6XM.2XyXL.&XK.%X>XJ.&X&Xe.7X8XB.! OX*X%Xu.K k A X.rX7X7X7X7X..K t.a.u._ [ @.e.a.,.;.rX8Xl.m.MXNXT # >.h.*.{.S.S.S.Q.) p i p oXKX X&.C l } Q.j.T.7XaXf.6.`.uXjX|.<  .C $ N 2.a.a.s.d.d.%.= ;.,.=.v -.v -.- =.1.;XN.MXyXe., O - ",
"- % D ;.%.s.>.] 8.< 1.R.l.w s s c >.f.,.q z.W.Q.m v.B.h #XNX4XbXCXCXcXmXBX7X4.t t =X8X9 M.9X7 S d.zXiX%.1 :.e.g . 1.7XE + U.tXqXsX) R F.&Xi.%.%.R.m.[.uX1.a ) Z , 8.>.+X&X2.0.g.=.;.t 2.d.s.t.U.T.Y.F.B.8XnX4XBXVXmXmX5XXXNX9Xz.Y.8XbXC.4XVX9XK.E.rX<X( L.7X'.*XyX7X) OXtXuXrX7XH.b 7 N.uXyX#X#X&Xe.i.>Xo.b k A p d.f.c T Y.6XT 4.iX4.y o UXIXD.^.Q.U L.9XyX*Xu (.KXpX:X$Xm b K.T.m.4.dXdXg 0 7.lXKX<.G o.# , 1 4.w.y.9.d.d.c v =.#.c >.v S W u.P.I ! g ;X1X5.s v ",
"0.2 O , :.>X%XX.9X(.}.ZXS.h %.2 - -.,.<.z.M.E G.b Z M > g nXm.S.mXmXmXXXMX7XVXlX) OXBX!.f 4.i.- s  XdX6.;.e.&X6Xc p V.U.l x a.sXhX*XE.Y./ w.<XN.T.m.Q p.=X+XOXI < >.- r ) 9.0.f.p.>X5.<.;.5.J.F.W.6X$XK u.&X! m.8XnXR.XXZ..XHXL.8 8 Q.nXZ.OX*X@XI.>X>X( Y.9X@X'.<XyX<XOX*XuXCXXXbX6XU d @XtX+X`.rX*Xa.%Xo.A x C , 1 ;.> b l O.o.- %.;XBXoX).).X l.3X<.F R U.yX&Xh }.KXxXr.P.b 7 b ( ;.%.dXgXs 2 *.7.f.2.%Xu.K O O % - - - =.-.- c G 1..X5XD.!.~.ZXw 0 j & 5.%X%Xp.",
",X>X<.; : Y U.9XVXmXz.XX.X1.1X,XJ % s NXcXl.8 n Z | > , r 6XR.U #X;X*.4.L.K..XpXCXx.D.VXz.& p.H @ a qXjXqX0X<X*Xq.Q B.6X( @   a +X*XU.P.t S 7X8Xn...r.p 2.yXyXyX<XgX1.0 u ,.0.>.) <XtX5.1.@X2Xn.M.J.^ M Z ..B.H.9XR.8 4XuX'.7XyXH.P T &X%Xr.i.e.( q.q.T Y.9X<Xe.Q OX$X^ T 3XNXMXC.8X6XT M ^ *XrX#X=X=X1X<X$Xo.8.s , ;.%Xy + x J p ~ XX!.vXPXPXXXX %.d.C : r L $XJ.&.fXxX&.e.` $ : # ;.,.,.sXaX#.. * 7.d.%XtX%X| #.- =.>.=.- 2.,XH.6XcXcXSXSX^.ZXAXvXXXVXCX~ N.e 3.",
"V.) kXuX} n E h uXR.+ s %.% a OX3X! f ~.ZXS.R.yX&X*X%X$Xb # I.u., >.-.c O.Y g &.}.8 5 4.FX:X*.HXF & ) KXpX&.;.s.e.*XL.A.AX.Xf O f B.e ^ %X( J.E.J.$Xa.q.X.f 7X5X5XFXFX}.0 $.3.uX( g 1.|.0X5X9XD.V $XR P { G.W.bX2XnXD.[.uX:X4.( B &Xo.` y.a.a.a.a.w.q.{ Y.7X<X+X'.) %XO.7 T *X0X3X! | +.+.+.$X&XyX;X5.|.*X*X<X>Xs.,XQ uXNX) & = v.S.!.XXvXoXpXkX%.2 = x t.:.= H &XhXiXIXlX4.t.x = = c =.- #.s 3.>Xa.G 2.G ' i.i.' %Xt.u.@X@XW.Q.~.T.T.D.nXCXl.w eXJXHXD.AXAXvXSX[.",
"vXw & T Y.G.y   & @XZ.& tX9Xd #XyXVXD.X S.BX6XG.n.&X7Xe.^ @ # K :.;.7.s b k : a.,X^ 7 Z tXyXyXtXrXi   * sXp.%.rX7XE S.l.}.eXuXh 7 8.,XX.&X&XB n.X.i.<X<Xo.C v H > a uXJXNXuX'.u NX+X~ [.R.R.*X1XL.6X9X8XQ.G.R B.{ E.9X0XtXsXD d.d V : v v v  .%XX.$X*XT b O.%X+X%X*XuXrX^ r | u.7X<X .H o.+.` M s.,X<X3X6X7X$Xq.e.X.I 8 rXjXu f G.v.7 & 3.dXqX).g.g.1 , O _ | # 7 e *.xXiX(.5.<Xr : = = #.- c t.1X1Xa.a.t. .OXrXX.E E.H.Q.T.bX~.x.j.b # s lXN.e   &.@X4 l._._._.SX",
"DXCXD.M.Z.X.T V X D.5X0X[.6XW.C.5XeXNXM.+ OX..I.f d OXtX$X$XA M %X1XgX<X| x c >.2.K M L 8.r.2.w.tX+XQ q 1.gX0X3XrXJ.T & , >.=XgXP ; :.$XY.U.H.{ $X .w.a.u. .L c k O > Q uXLXeX&.t *XMX9XN.N.*X%X7X6XL.R.W.Y.H.I Y ..) ].%.7.=X<X*X$X .H 8.' : o.$Xu.<X| $ Z %Xp.e.4.OXrX&XJ.( | *X<X<X .M Z +.` D %XrX*XOX<X>X>X$XL.B.y u <XyXf t V O % 2 #.g.f.g.g.f.;.O k &XI.I.F %.iXxX Xh [.#XN.N c =.8.g 7 e V.'.N.9XB.B.*X7XL.n.W.W.K.T.~.5X! P + 4 1.uX2Xj (.oXN.  j.vXDXDX",
"xXJXAXCXeX`.~ 4XcX!.AXlX{.nXm.8 e Q +X7Xi < c t.B.*X'.rXOXU.H.T Z / =XgX>X' 8.p ^ ....t.8.r.e.u.%XgXtXOX~ rX.XD.FX<Xu.t.x 8.w.;X&XG , # b I.*XO.i.>Xs.w.G 4.+Xp.@.x x H F ].qXzX%.4 m.E.<XsX+XU.I.*XJ.E n T.9X&X&X^ t -XiXp.<X@X| $XjX+XQ r.o.u.a.a.%Xo.@.+.%X<X<Xu./ @XyXyXU.H.$X$X<XrXX...I.$X( X.%X,X,Xp.p.=X@X6XW.U.t 4.FXV.O = A ] c % $.f.fXg.dX<X| $ 7 R i.,X;.%. XHXHXVXDXCXyXOXOXyX4Xj.N.XXmXl.!.ZXnX@XyX@XP G.Y.E.E Z.0XgX*XW.U O d nXHXlXlXoXk.3 M.lXxX",
"*.&.XXMXFXlXXXk.l.cXoX&.&.B.6XX.q.:.2.*X<X;.8.$ ( yX+XJ.7XH.U.Y./ r d 4.p.>Xr.OX8 j.K.7XtX;X7Xe.w.2.X.$X%XyX#X*X.X3X<X>X, K OX2XJ.1Xp.p @ z ' ] o.d.s.d.p.%X#XtXrXW M ' J 1 < |.lXh 7 7 i.gX*XB.T I.6XK.n } I.%X>Xt.> <.gXkXFX}.+.V ) rX#X$X+.@.L q. .^ O.P.( $X<X%X) / $X*Xu.u.u.>X<X1X*XX.K %X*Xu.:.9.7.5.`.N.4XbXE.9X*X^ +X#Xo.A [ %X>XG = ,.7.*.5.#XrX[ + O = c #., a `.A.z.(.XXAXvXXXc.^.~._.SXAXXXD.mXnXmXMX0Xf v.F.~.C.i ) uX.XNX7XV @ f V.].pXeX~.8 @ 7.IX",
"lX6.a i ! wXCXD.  o 6.g.1 O V ' t.a.i./ <XuX@Xm.7 d 7X! 9X6XY.8X<Xe.) W e.#XZ.A.Q.m.n.e.p.].*X*X1Xi.X./ i.9.J t.~ rX,Xr.2.F Z O.e.s.fXsXS % v x v =.-.w.<X&X@XyXGX[.I q.0.c = & ].GXOXB r V <XyXP.I U.&XP.O.Z L =.a.q.r F tXjX{.@XV.i d 7X*X^ V W W @XB.n E n.! '.;XOXK / t.' J ` i.>X1X1Xi. .t.q.r.w.=.p Q Z.Q.8XbXK.U.rX) Q <X1X| N c 9.r.p ;.q {.{.~ @XrXF ; % 1 :.2.0         X x._.SXx./.~.x.vXCXlXeXM.f 2XHXjXD.8 T.Q.Q.z.7 U 3X`.5.W I + O ; h MX8XU @ `.iX",
"DXpX7.2.H.n.K.BX6X&.. #.dX/ O O x c i.%X( [.MXT.8 7 &XJ.B.K.Y.U.<XkXtX+X7XyX7XZ.&XH.+.,Xs.0.9.y.w.>X1Xw.a.9.-.=.t.9.7.s.>XK A k ^ 8.>.5.4.> = = O z c x B E U a sXjX*Xr.9.,.4.V.V.tX1Xq.[ { / >X7XB.J.L.P.7Xi.3.0.:.%X| b F <XkX.XyX*XT ..7X&X#X&X*X9XE.G.Y.6X8X+XrX<Xe.e.y.y.L z : D i.i.i.q.c < L r.r.OXU.Q.Q.R.8X6XV.&XtX>X+X%XX.Z > :.OX#XtXeXNXwX.X) <X*X#Xq.G OXyX8XD.D._.@XXXx._.SX_.x.5 5 h pXpXpX X) B h GXVX5 S.W.BXyXL.K.2X|.-X+XB.H.9.K 7 L.3X0 i L.eX",
"pXJXxX5.R m.m.8XyXyX7.xX&.A.7X8.; % O F e.F &XT.F.P.U.yX( R Y.R %X1X>X%X$X7XuX1Xz N z =.-.9.-.9.9.y.a.0.0.f.>.- c c =.w.e.T O.@.Y <X:X3XMX3X'.J.T ( J.H.n.E.&X; L a.d.<.1.OX7X8X&X+X1X/ ..8X^ e 6X6X9X&XX.%X,X,.f.c ] @._ M q.jXHXwXyXyXJ.@XyX*XU.L.R.E.Q.Y.U.9X,X,X<X*X$X*XrXyX@Xu t L / / L p ^ ^ OXyXnXE.Y.Y.H.@XyX#X#XtX1Xr.<XU.F.P.9XbX8XMXVXHXCX0X].@X9X9XMXB.m.!.~.~.cX5XMXnXE.M.oXPXeXh + @ &.zXiXqXuXF 4 `.tXh 5 C.tX<XrX..e '.jXHX! T rX$Xb Y uXh d 7 W ",
"{. XhXGXA.f S.W.f XXJXJXLXj.f rXjX;.& # O = : Y.T.G.R 6XE.6XL.J.F = J H B ^ > =.< : @ % #.s < - ] J >.=.#.f.dXp.S G * Q 7X8X6XY.G.6XuXmXmXBXBX4XbXm.bXbXm.L.jXs.o.w.$.%.'.m.F.O.( >Xi./ 7 P 7Xt.E M.B.6X( K ,Xd.D t.] C o.H # @ }.uXwXVX3XV.yX$XF.y U.W.n b T X.y.9.i.%XL.@XmXBXnXNXrX+X%X<X<XgX6XE.K.Q.C.m.T | H.) #XrX{.'.e.w.u.U.G.G.T.S.S.h oXoXoXjXFXd M.Q.bXmXk.k.k.ZX4XX 4 7 7 7 u qXKXxXyXi o kXeX0X|.1X( + a jX4 @ >.0.e.i.yXZ.A.oXyXb u ..k $ g FXV.$ yX",
"fXh.DXAXZX4X8 2XA.x.D.SXPXSX(.j [.mXcXAX(.s O l _ M K H u.@.o.>Xf.>.2.D < >.2.Q U L.8Xn.2XyX;X&.i %.s 1 p i @XVXZXAXBX2X@X*X&X( n H.rX*X3XMX9XOXE P.Y } } B e.hXf.7.6.+X+XV # [ &XOX].rXJ.7 S.ZXMXV.t %Xy.< 3.sX:.G q._ Z o.o.K # / ,X,X/ W OXyXMXE.E #XrXH.Z y.%X%X/ u.%X| | X.M.4XBXnXnXBXuX0XW.@XW I 7X9XO.Z O.+.t.y.0.;.4.OXH.E.{ m b x _ A J.7XNXJXDXoXf [ !.4X#X: + @ *XJ.Z Z } @.K 1 ;.kXMXCXh q &.-X>X;X9XZ.u rX1X* O z Z 7 R.5XNXoX.X}.z.Z.{ Y + @X@Xi 6 ",
"s (.vX5XD.VXCXj 2X2Xz.z.XXvXPXoXw f C.[.KXKX'.7 l : z , C v t.J f.a.>X1Xr.=X<X#X*X7X6XL.L.yXtXsX1XkXgX<XrX( d ~ C.Z.VXqXW V ..OXm b ` u.@X0XrXqXB.U I.H.I ^ G %.f.,XOXOX9X7X( 7 &XuXrXuX7Xm.m.S.4X7X@X4.%X2.<.tXjX].%X&XT A Z $Xy e S a.>X^ I T U.6XB.X.$X*Xe.' $X<Xe.$X$X+.$X$X%X$XOX&X@X5X9X9X7XyX%XG F +.$Xu. .' ' :.w.>X7X9XM.4XE.[ M C @.@.[ ..[.wXPXJXN.U R.6X*X@Xy @ H.7X*XH.[ [ ` L S 2.3XNXNXjXhXqX(.z.3XyXrXg ].=XS z _ _ b 7 #XeXoXCXCXMX( T X.| I I m ",
"'.~ +X4.& &.eX(.y U B.U f (.pXpXJXf @ O `.JXGXqX7 ; H ] x , z 1 v >.F ! OX<XuX2X*X( X.*XI.u.t.i.4.<XgX<X@X7X) u 6 r ]. X].W r %XL.r $ , > p 4.-X*X( *XOXW 4.p.>.w.,X+.| I.9X9XB.7 V.#XyX9XK.K.Q.3X2X2X@XNX[.`.uXeX{.3X7X6XJ.( &XE.I F a.1Xu.| O.B ^ $X$X*X%Xq.+.J.$X4.$XI.O.P.&XuXu.|  . .) @X@Xe.>X>XG ; V +.u.q.| N F *XyX9XmXyXR.2X7X%X| C A _ A B g -XkX{.m.&X7XuXjX~ + 7 G.rX2XH.I  .<X%XF Q *XOX`.qXHXCXcX0X0XFX{.=X1XrXV.# k ` ^ @ q wXcXXXAX}.e M I.6X8 b.",
"gX7.%.7.q . h CX3X! J.E.L.`.&.DXCXyX0Xi + d .XDX}.i x t.i.L D 8.v  .R d w a '.*Xe.u V / i.i.%Xi. .Q =X>Xa &X7Xu.} C ;.-XtXrXJ.u.MXyX#X=XG & > v A x K q.G L aXf.,.0.L V Z O.&X6XI./ / OXJ.E E C.#XyXyX9XyX5XNXrX0XHXuXyXuXJ.( yXbX@X4.3.:.' @.+.@.C K Z +.y.:.K ( X.V.$XU.P.U.6XE.6X&X<X>X2.S L g Q #X#XZ.M.! g &X$X$XH.K.8XnX[.9XL.E.9XyXuX&X^ @._ A # >.iX0XM.+.$X1XtX7X8 6 n [.9X6X^ V e.7X&X .r.%X4.h 0XFXCXtX].}.GX>X) *XNXNXi # 2.2.# I n.XXAXvX0XU B G.W.8 ",
"g 1X6.iXoXj X T.HXnXl.L.6X! }.KXwXoXHXeXf @ u tXFXV.# ` %XtXw.t...K.8X9XOXG p '  .+.K O t +XtX>XX.S w.zX2.K +.I.&X| w.1X'.#X9X^ f R.BXHX0X1.r.o._ +. ./ a ; D >.*.%.Q V x M M Z +.t.t.u.u.7 + Y e.+X+X+X'.~ +X4.a 0X0X~ ~ / u t E.rX1XaXp.q.K N _ o.u.A  .,X1XP.L.7XrX7XY.Y.U.J.R.9XyX*X*X) / *XXX4XmXmXAXBXcXD.6X9XyXU.n C.9X0XU.F.R.A.N.7X7XU.o.I.$XH :.aXtXU o.e.p.tXyXE 6 m B.7XyXyXX.e ! [.q.F <XjXa & <.OX+X0X(.CXtX4.i z.CX5Xg e / ..O.m 8 BXVXVXVXL.5 x.E.",
"B.MXCXvXDXcX3 3 l.nX5Xm.^ X.=XpXIXq '.LXLXw @ ] rXNX( # r %X%X+.n.n n.J.>XaX8.= o.tX%X^ W ].qXtX+XG c d.,X .O.I.$XA V tX3Xh L.T 7 n n.MXJXJX].* 7 J.MXyXNXuX(.|.XXR.nXK.I ` N z :  .o.K %XJ.# A a.8.L 9.>Xa.p p.u W '.=X5.<X%X# 7 ^ =XgXhXtX*X%X` @.$XO. .u.%X6X&X<X1X<XU.P.Y.) u.%XOX'.0XMX4XcXnXbX!.!.!.ZXZXZXMXA.V.@XE y $XtX9XR.D.R.M.B...I.! I.I.` D >XtXi ` e.r.<X@XH.6 6 R I.$XtXuXV.V.V.%XF G a.d.< < e.*X7XNXoXFXFXz.4 7 9XGXOX+ y Y.U.+ ! VXwXyXVXnX5 U.",
"&XH.5XCXAXvX9X8 7 Z.HX{.4.tXtX:XxX%.@ 0 qXKX4.$ K tX3X7   z $XrXU.P.{ V J s.>XL N K | 7XJ.F / 1XzXdXD > +.I.U.7Xr.V 7 6XFX].'.6XI.b 7 d |.zXlX X9 8 C.C.D.mXCXCXBXMXBXnX7XrX*Xu.J.u.` x J.9XI # ' ' v v 9.aX%.;.*X^ 4.jXtX4.+Xu.A C S Q N.V.OX*X*X[ Y +.^ r b m.X.Q ;.%XI.G.I.*Xa.y.L ^ L.9XmX4X9X8X~.~.D.2X9X9XVX}.a X.H.b B i.yXMX9X3XyXuX7XI.U.U.$X%X) 3XGX|.r q.r.%X) U.n 6 { I. .L *XyX*X<XrX%XF :.sXsX) B.MX2XMXoXpXPXFX4.[  .e.FX[.4   H. .$ F ;Xh 0 $X_ [ ",
"z S / i oXCXVXW } P N.uX=XG -XlX*.iX(.@ % sXsX].> 4.HXNXF # N ..I.+.O.i.9.>.a.$XK r T U...$ L ,XiX-X<X{ G.G.C.7Xp.) n P OXgXtX7X7X[ _ k < 7.iXfXv.v.T.W.S.C.BXXXlXh j .XHXuXrXJ.U ^ rX*XB.9X7XI K  .9.0.=.-.s %...( u 4.tX+X^ C _ C Z OX7X7XU.( X.P.G.7Xu...G.n.X.;.;.q.[ } I.q.8.L %X*X..( OX..V f K.8X( W ) / oXGXsXw.@.Y l M *XJ.I &XuX;X#XrXY.J.e.<XM.Z.FXhXX./ i.%X$XU.n n Y I.>XJ  .o.C %XtXr.p.p.7.<X6X8 K.K.A.CXDXoXqXOX[  .X.'.NX9XM O ' ] = F 1XG : v k ",
"= = k # a eXlX&.@ ; L f.3.@ & 7.xXiX8X@X< % 7.%XZ z K tXyXW # # x @.@.%X>X2.e.7XOXI I $Xt.D , > ,.dXjXW.T.R.OXrX@X0X`.g S q.<X7X9X&Xu.t.S %.7.iXn 6 m Y.K.Q.A.rXlX0Xh f C.9X<XsX*X .X.v.G.$X>X .J a.=.>.z L $Xe.@X9X*X/ =XhXFXvXbX! W J.7XtX<XN.n.Y.X.q.i.F.} I.s.1X$XT O.P.J.L.2XM.B.U.6XOX*XrXU.T W  .1X<Xu.Z g 0XFXeXpXNXI b L.6X) a $X$XM.5XrXC.C.K.m.h jXqX7X! ].sXF B.n 7 = # T I.L q.K M / *X1Xs.w.p ..G.( &XA Q lXIX).VX3XW y OX) $XrX~ ; C x F :X X%.5.; ",
"0.= = $ O <.hXhXg ; , ;.-X{.6.#.g.zX3X#X+XG ^ H.u.` N F +XrX$Xb x k x ^ >Xa.X...uXrXF p %X<X .S > D *XW.Q.9X5.s ( L.9XV. . .V I J.&X%X>X>X7.-X-XK.v.m } U.K.R.tXjXkXuXh g *XtX3.%X%XI.{ R *Xy.> c ' L e./ OXyX( M.$Xi.:.p F C.bXBX3XOXB.7 Q tXrXL.Y...e.&XH.n _ Q uXtX^ [ O.U.6XwXVXnX6XU.6X@XyXyXU.K V X.u.$Xu.OX*X0XFXoXuX7Xb B <XtXQ I 6X7X#X3X6XnX9XQ.d &.;X0XOX%Xi.F B.R.z.* O # U.+X4.i.@.F 2.aX,.>.p ^ I.Y I.( e ].lXFXCXDXMX( ..| J.V.NXOXy : : H ,XkXhX X",
"hXd.9.v = O %.hXuXa O i 4.tXaX$.,.sX].5XMX9X7XuX%Xi.t.` ^ ( $X6X@.[ M # L <X$XV a 1X>Xp / 7X*X%X@.C T R K.].&.%.{ P @XyX*Xe.^ T ..u.L 2.r.;.7.dX8 m } m O.B.( <X|.7.-X:X<.5.>XG K +.I.I.N o.a.d.J *X6X6XrX@XU.P.&X%X3.:.e.R 6 6 [.tXOXn.L.rXrX0X*X&XI.&X6XQ.{ T V *X<X+X .Z _ U.N.V.L.U.H.Y.H.B.*X$XJ...^ ( +.%X$X%X4.]. X1.rX..A o.s.+X! E J.i.$XU.7X*X&Xu %.gX1X'.i.<X*Xf XXLX).u 7 7 7XtX2.t.6X%X,Xd.=X) H.K.{ 6XyXg i ].`.5XPXLXNXV.Z.Z.l.R.nXZ.<., $ x / 1.kX",
"7.a.' J H & O ;.gXGXqXa @ i 7.g.%.1.z.!.cXVXjX7.+X%Xi.u.$X*X$X{ O.I.O.M K <X%X^ 7 2.aXw.; ^ %X:.@.$XI.7 @ 5.1X5.R 6 8 7XuX;X7X( +.%XS H t.e.1X Xn m } b _ O.# S gX6.;.-X>.p i.%X^ P.6X$XS B <Xs.X.U.T.Z.yX=XX.7 K sX7.G 9XZXK.Y 2.>X+XP E.rX<X[.J.L.6X6X6X6XU.I.F.H.@XrX%Xk l O.X.V ( I.&XI.&XX.X.$X$X*XI.+.| $XS <X%X5. X|.5.t k x < e.U.U.$Xp K T X.+X<X2.%.,X7.5.$X*X7X7 f .XJX}.7 + y rX>XF H.<Xs.sXuXH.E.Y Y ( rXjXq.2.e 0 a qXLXCX5X5XR.C.Q.#XlXtXe.y # % %.",
"N u.u.$XrX) @ $ ;.:XuXyXe.< >.g.5.h x.D.cXlXxX%.a F o.o.u.$X..R O.U.I...|  .%X>X{ K s.,Xt Z 1X,XW V 7XOX& p <X$XG.G.7 Z.GXuX#XJ.*X<X8.] @.u.tXiXP b l _ _ Z @.J p.>X,X:X7.w.<X%X6XW.Y.&XrXI ! >XM L.Q.g 1XaX3.< $ >XtX! G.mXMXe.D :.*XR 7 V rXuXV.B.K.Q.Q.R.&X6XS.R.5XjXeX! b m 7X&XI.e.*Xe.q.1X<Xu.X.%X*X*X+.X.>.H J :.sXhXgX1XJ z t ` [ O.*X=X .# r :.*X,X3.8.5.<.N.`.[.f 3 u lXHXD.f # y gX6.M d.g.f.a.V %X%XY # i 1XsXi.2.i < & j }.NXHXHX@X4X1.s ,XuXyXuX/ % ",
"M T ^ ( OX7X+.# , & * / 1Xf.,.d.nX4XC.h 6.h.iXqXoX4.V V T ..U.6XH.$X+. .M M +.i.I.t.>X,X/ ; F <X7X5 A.GX-Xs V | m.Y.m.u ].1X3XL.'.tX,X8.x A <XkXOX6 m } A T +.y.8.%XtX1X-Xp.%X&XE.nXU L.uX&XP 7XJ.P L.*Xs >.aXp.r 7 &XnXm.x.yXgX<X=X%X7XY # t $X7XH.F.T.~.2X@XE.Q.4XyXuXuX3XC.v.&XU...X. .q.L :.1Xu.` o.o.t. . .sX9.c D d.7.;.gX=X<XT b [ k F GXtXT ; : | 1Xf.w.kXuX5XeX9XQ.6 $ 0 eXHXyX..$ W qXK , 1 3.G @ x $X7XX.s p q.L jXtXgX6.% @ i & `.LXJXtXJ x ^ [.jXgXgX",
"NXOXF ; ;  .u.# x >.1 = = 0.s.w.2X@X2.1 1 1 ~ yXVXFXrX^ y H.7X9XH.$X%Xu.Z Z ' S C z S e.%Xu 4 E.9XD.D. XfX-Xy y m.G.O.M ; <.<XJ.I tXkXtX..B / hXGX7 n G.} Y.^ D J J $XuXhX:X/ I U yX*Xa F rX@XL.7XT t ' :.2.5.gXH.7 { 8Xf   u @XHX;XQ &XrXu.> X.E.6XK.T.~.wX3XQ.6XI.u.>X<X7XY.} I.I.$X%Xe.>X%XK  .i.i.9.] ] L K ;.a.i.z 3.-Xp F '.yX4.7 H.I.a 4.jXrXX._ A %X,X2.OX7XyXyX7XZX~.R 0 @ }.uXX.B i +X*Xa 1.tXtXy 6 Y U.*X>X2.2.g OXuXFXtX2.D q., . & *.hXsXo.C : t ;XkX",
"oXNXjX%Xz v ] ] v -.f.9.- -.c W 4 & 1 >.8.J.B.K.(.5XMX7XV.d T P.*Xe.a.%Xo.@.' 9.:.S G >XgX~ U bXQ.~.!.&.h.-X`.W n.6XO.t.t.L <X$XB #X XeXMXn.r 3.qXU n G.F.Y.*X8.9.> u a p.kXrX( 7 > d./ p r.1XH.J.X.H 8.>X<XV.7Xn.Y { 7X$X[ [ n.MXwX].g 7XgXi.A m.8XQ.m.R.NXyXQ.*XX.H s 5.0XV.n [ *XrXI.I.X.$X$X/ i.s.9.9.y.y.J sX%X' H F <XOXJ.bXrXjXQ 7 Y.$X< &.FX7XI.m u.,Xp.( n.U.*X! v.bXBXyXQ O t <X*Xu $XtXtXrXqXjX+XJ.Y f Z t.1XrX5X4 W 0XuXqXQ >X1XJ % - 2 2.u.t.t.x , %.",
"# ^ 1XsX1X2.z @.k N 0.d.>.> > z p p g B.9XU.I.&XOX~ .XNXCX'.; x ' %XI.I.$X .X.$X<X! m.C.qX(.k.S.D.h 7.hX X7.0Xj.E 2XOX) &XP.6X9X'.) @X*XNXqX4.G 1X) 6 G.I.S 3.aXr.e.y 7 F 5.,X7.[.~ +X$XZ _ i.>XI.&XL.2XyX5X2X8XW.n.E C.nXbXE.F.+X=X<Xe.y.y.y.< k b O.P.T X.*X4.p.5.].h [.5X2XL.A | <XOXJ.[.&XrX>Xq.p.d.9.9.8.z w.f.sX( ! 3X6XR 9X0XwXNX8 9 *X' 1 3.1XOXW V *X*Xy.L H ' +.I U E.uXgX1.@ '.6XL.V >.i.i.3.:XwXm.G.A.V...U.@X7X#XV K hXpX[.( hXhX=X7.S M _ t.9.9.q.G ",
"w.S p / <X1Xw.= c c < Q @XZ.R.D.{.yX@XB.H.&XX./ ,Xi.*XrXjXrXN.d ! # T O.U.7X*X0X1XJ.m.B.3.1.4 m.uX:.< p.,XdX;Xn.C.7X4.F O.{ H.7X+Xr.%X/ ].:XhX1Xp.OXn G.I. .2.Q yXyX7X*X+X1.1.) @XrX#X7X*XZ  .>XI.P.7X9X#XrXrX7X9X&X0 @ V.&X| | 1 :.e./ F OX7XA.B # 6 Y T L w.< / rXjX#XyX7XL.L.I.| q.>X%X$XOXe.I.*XrX<X>X .` *Xg p i.yX0X0X3XB t / #XVX9Xd u r.H K *X&XH.P L.MXrX%Xe.X.| b b F.XXGXqX~ @ # Z :.s ; u G 1.CXA.f 9XyX&X9XL.rXuX~ & :XGX3X'.=X-X<XsX>X ._ H ] t.X.1X",
"sX>XQ / / >X1X3.L / ( R.nX~.~.ZXXXBX7X( r S G L w.w.q./ / #X9X4X9X3XOX^ P K.yXuX%Xi 7 G s.9.# M t.-.c :.>X-X5.E 7 rXuX%XI.X.V >XsXD ' q.L 4.gXa.5.*Xn n P.o.u.$XB.J.&X*XtXjX#Xn.! J.h g &X&X^ / I.A T U.*X#X+Xe.M.MX5Xh O p c v 0.p.%X*X..L.MXMX) ^ P b A K L w.8 J.rX+X7XyX#X)  .` = :.1XtXo. .$X*X4.=XuX! e 2X[.6.d 8 M.uXuXs.8.F P P rXFXe.+X` _ I.6XE.U.K.6XuXuXyX9X$XP 7 m L.1XjXGX{.! # aXdXi ( OX'.nX4Xh P 6X8XU L.#XwXqXf q ,XGX=X<.w.r.aXsX<X+.` @.| ..<X",
",X1Xa.w.G Q #X3XZ.D.Q.Q.4XM.l.bXD.~.BXyX#X~ /  .i ! ~ G t F H.K.4XFXtXrXH.6 d tXyX~ f , d.1Xo.$ z 9.c z r.kX;Xw @ / %Xe.+.$XH D aXw.J 8.H , L 5.0X@X7 6 @.| | t.V Y H.^ 4.1X7X8XJ.@XNXN.h 6X! i U.R 8 M.7X+X~ ~ Q.C.MXNX1Xp L ' 1X<X<X*XI.I.$X1Xr.L _ b b &X3X9Xf e Q G W *XyX+X%X1XD , J u.u.o.q.%X6.s 5.rX'.f 0XtXz.9 l.rXsX7.w.$XJ.P 4 '.uXtXt.C | O.I.H. .OX+X#X;XuXrX..B l k >.a.'.NXBXf &.fXQ R 7X9X8XyX{.4 3X7X@XOX .<XqXNX> < gXdXs.d./ %.3.i.u.t.@.@.` X.",
"' H H  .&X9XmXZX~.S.j.f ^ G , A Q.Q.BXVXPX5X.X2X8X4XVXFXqXuX( 7 y i r.%X&XR 7 %.wXAXMXh & V V ` z 9.t.z S ,X1X@XM : ' z ` u.` c w.hXa.y.1Xi./ 4.wX3Xy Z >X>Xy.y.H Z O.P.r.r.e.U.6XOXNXFXyXMX7X@XE.8XQ.K.7XyX#X#XY.E 8 *XjX,Xp p r X.OXK ` u.H w.1X^ O.G.P.E.bXbXyX<Xp.p @ r ) <XrXgXgXw.; r %Xu.' a.1X+Xr.tXyX! 9XjXVX8XM.5.-Xp.I.&X*XyXm.f MXlX1X/ B ..O.A _ i.0.0.d.p.rXrXU.} _ 9.L Q tX0XwX&.#.0 + P I.R '.qX(   eX<Xt.y.i.gXlXf.c 1 -XfXs.r.>Xi.y.t.i.i.t.] ` ",
"L / ..F.Q.Q.D.BXZXcXA.i q.>XM # 6 G.4XvXcXCXBXmXW.n.8XVXJXGX[.g J.^ F a T &XOXe A.!.MXGXMXZ.i e ` ] t.@.x L i.rX[ C >Xa.` `  .y.,XgXr.Q ' *XtXuX5XyXV.r H ' t.>Xy.` } O.>X,Xq.b P.W i '.rX8XMX9XW.K.K.U.$XuXFXyXI.I...V 3.sX1XF # z w.i.# ..X.].9X8X8 F.Y.b Y U.%XsXaX3.^ I W tXQ G >X1XX.r | o.@.u.1XtX*XX.H.P.W.uXgX4.%.c e.yX6X) e 7XbXn.rX:XuX3XP Y.U.O.@.o.=.=.1 , S $X&X} I ) u U 7.;.w.w.3.#X7 @ B Z $XgXjXh & tXJ x J J 6.aX,.& ;.3.aX%XrX1X<Xe.o.+.o.] S ",
") 6XbX~.S.8 5 5 9XuX0X) @XMX7X4 + 7 B.nX5XMXCXCXY.m.C.[.].uXuX3X9XnX5X4XA.h W.C.D.^.BX).mXmXBXMXm.I R T Z J N Y _ A y.w. .X.X.~ F ~ {.#Xe V J.3XwXLXuXS $ x | $X1X&X{ V :.d.e.b O.$XF a V y B.L.6XE Y ..e.%XrXtX$X) / r.1 d.sX*X&XS w.gXr I 8X3X5XBX8 9 P...Z +.V.+X,X<X@XL.^ 9.s.w.w.%XrX+.` i.o.o.r.r.u.+.| Y 7 3.;.p 9.9.F ) ~ ) 7 B P.P W hXrXrXJ.P.U.*X .:.3.9.:.z r | Y.P.j @XK.7 >.f.=.3.].BXC.4 # 7 Y OXeX<X& D >XL ' ' 3.7.d.D K G r.+X~ ].;X].W P ( X.&.",
"Q.D.S.R.R.U.H.7 W *Xe.M.D.ZXLX).D.3 7 P H.V.;XoXCXA.M.! K r.<Xe.Q.ZXZX!.ZXAXD.!.l.~.XXoXc.!.SXAXSXSXMX4X3X:X5.( } B ; & i 7X2XN.! {..XMXMXL.4 8 h qXgXe.^ { } n &XU.F.4.d.d.+.b.U.$X<Xi.X.O.( K.6X&XO.| ` L 2.>X*X$X7X*X,X;.e.6XbX3Xh p.V Y I.&X~ yXMX8 3 E.U.T &X) ;XuXm.6X%X>.0.9.:.u.O.+.L 8.9.v p 3.2.i.%X@.= =.3.e.u.a.i.w.+XrXJ.b ..C : >X7.=X%XX.N L >.aX|.=X<X<X| b T G.3.*XY.{ 0.,.6.<.M.A.cXyX/ $ 6 X.qXjXq., ,XgX>Xe.s.-XiX$X%X%Xa J.}.6.6.{.2XR.8XMXXX",
"S.bXZ.D.S.ZXAXoXV.0XN.d ! Z.CXDXVXHX{.%.9.u.i z.~.NXhXdXaX3.i.t 8 G.W.W.cXmXVX.Xi f x.BXcXz.5XwXA.wXoXwXA.BXmXcXbXmX X&.4 4 z.JXNXrX2X8XMXgXa. .c >.7.+XB m m _ F _ o.y.p.aXX.} P.>Xa.i.I.P.I.X.U.O.u.u.y.y.c < %X$X&XtXhX Xe.$XJ.tXG <.) # b +.u.$XeX5X0 d >X8.0.G ) 7Xd ^ tX<X5.OX( | t.9.;.;.c c z z ' t.8.L , , y.a.i.u.' i.,XsX>XZ O.+.S %.2.p H +.O.T OXqX:XyXbXnXyX&X} m 4.#X3X6.7.s.5.[.{ 6 M.FXGX`.7 7 &.-Xp.; b H.u.w.5.#XeXKXuXnX8X*XZXFXNXcXbX~.ZXSXIX",
"P d U m.x.mXSXCX(.JXVXD.@   + g h (.tXa.9.t.7XM.Z.h 6.iX7.r.OXW 7 7 b [ n.A.5XKX+Xi 5 C.gXf.3.y.a &.eXCXz.m.BXCXx.XXJXGX].+ O V ].<.w.rX*Xr./ T z =.f.,XX.I.+.c z ` @.` r.-X/ # B q.y.t.` _ | o.X.X.$X%X%X%X4.p z  .K F qXuXV.f L r.;.%XyXI $ y A T OXNXN.@ K _ > / +X&XU ^ +XgXgXtX*X%Xa.d.9.y.i.i.q.' S z H w.' H o.o.t.t.] u.t G e.| _ @.e.%XuX4.W J.P.P I @XFX3X2X'.%XrX .A t rXjXQ -Xd.2.&XR n 3 h 1.uX[.; * dXp.OX@ B i.d.i.V.[.0X:X7XE.C.A.HXCXD.m.x.cXvXDX",
"4.i U f 8 8 A.AXDX).).CXmXCXoXX     & D 9.] $X8X#X6.&.$.* +XyX3XW : x $ # # a }.FX4XS.d 3.,.>.u.4.6.uXMXD.5 Z.MXwXz.).pXjX~ 6 6 f <.>.1 L :.s &.H 2.gXuXJ.{ $XtXJ ` _ _ i.1Xw.: C q.y.9.o.C x o.>XX.W ( ( L.yXe.A ` | Z ( rXtX6.p c e.$X6XMXZ.  + r Y @XGX5.O Y I.*X*Xe.*XX.K +X-Xp.5.w.y.9.y.i.*X<X*X$X$Xu.%X<Xi.` Z N @.u.@.@...L e.u.@.} O.} CXNX0X#X6XP.Y Y MX#X{.1.Q OXi.u.$ V W s hX1X/ ..{ G.m.f h g #X=X=.1 1X*X@XF H 9.t.T B.Q p.4.L.S.7 }.FXR.j.v.S.oXxX",
".X3XM.4 6 Y U.N.hX}.w w cXAXDX_.DXqX.     # B { ;XjXzXkX0XyXnXmXtX/ # # k K ; * }.XXXXh #.,.c _ ` T @XwXMXy 7 7X1X5.lXlXkX.Xn b.nXkX7.& u OX;XqX2Xf h 2XL.P | %X>X$X_ o.i.>Xr.: K o.y.y.t.@.A _ %X$X6X9X2X7XFXgX*X^ C A A J.gXfXf.;. .| E 6XHXFXg + A u.sX7.4 b n | e.' <X%Xq.2.s.3.;.>.3.:.` $XrXrX$X^ J.6X7X9XrX&X$X^ O.$X+.O.$X . .%XO.} O.b M.9XFXrX*X6XY.} R rX,XdX1.! *X%X+...y 0 q ].OXb E.bXT.BXFX{.0 %.0.* ; ) *X8.J z z J.*X<.1 / E.T.g & rXnXC.m.A.oXxX",
"k.cXDXz.6 b | 0.>.zX<X7 + n.9XMXoXlXGXJXj X   Y tXuX&.;XyX4XW.mXBXLXVXh W e.>XJ r z D 3.,.#.c x m m ..<XFXz.+ ( NXN.(.pXzXgXu n =X7.).).A.Q.nXbXLX.X`.3X3X~ ; O 7 X.o.S c L e.( Z | u. .$X$XA # +.O.6X9X5XrXqXzXgXp.< = o.$Xq.hXzXaX^ b b 7 ) jXGX( $ S f.dX+X+ # A i.8.H u.>Xp.s.s.d.,X1X<XJ.( q.+X*XH.n.K.K.8X2X5XMX3XV.( ( X...u.2. .` _ } } b ^ %X<X'.( O.O.T rX,X1X;XM.6X&X$X&XnXMXh {.9XE.8 m.~.R.HXHXjXiX].+Xy : z  .%X&X^ W 5.aXq.B } Y.<X:.p 8XE.6 U :Xh.",
"/.x.DX.XE b # 0.3.;.<XrXB b I.P.h `.HXDXPXCXf   `.FXlX0X#XR.Q.l.C.BXAXHXh @ > 8.$ ; 3.zXhXw.) P T.v.^ 1.6.{.w 8 rX%Xp.7. XoXf 4 S s &.XXZXbX8X[.Z.@X6XyXMXoX.X[.m.M.u p s r.7X7X| I.*X$X%X%X| 7 b 7 I J.*X:X%.%.7.-X>XC @.o.z >.7.1XB.E R 7 e ; `.tXL = %.s.1X&X[ z w.y._ ` %Xw.r.a.s.y.>X7X7X#Xt G *X8X8XW.Q.8XMX5XyXVXNX3X#X0X*XuX<X5.^ A [ { _ x q.1X%X..X.I...%XtXrXyX6XZ.E.I 8 F.MXHXoX5XE.8 9 j.m.0 0XlXlXwXNXuXZ Z &XL.MX7Xy s zX1XY l O.tXsXa ( I.7 # 3.g.",
"8 w pXoXW b # w.r.<X<X;XX.e u ].].i 4.0XoXJXFXg   h GXjX@X$XyX@X{ Z.eXeXwX4.4.3.Y 7 f #XkXGXNX!.W.! ; * h {.XXf , #.#.1 h cXD.l.V.0Xz.4 U / p ~ D.R.R.8XmXcXSXmXBXBXHXwX'.W V.9X+.+.%X<X*X*X%XT [ Z : : < w.d.%.p 4.tX+.c v 1 1 &.[.D.~.W.M.@X[.d j =Xp % r.%X) $Xz = , # A $X<XsXaXw.S M Z J.<Xu...P.K.W.8XB.L.9X@XV.@XrXuXuX#X6X7XuXrX*X..[ @.@.] t.%X*X$X+.u.Z I 6XyXNXrXV.OX9XH.6 B '.eXyXU n 6 G.9XrX'.;XlXeXJXh 4XT.bX@Xh e.( N.:X1X&X{ 6 OXaXw.> ` | O #.g.",
"# o *.iX<X@.# V | +.) %Xi.S = % s i.'  .g `.oXkXq   & ].*X( $Xe._  .tX;X;XtX:X:Xo.b 3 @ 7.dX+XK.1.5.> F ;X5XMX9X X7.,.;.{.R.nX7XZ.GXGXQ z v G @XCXNXMX5XCXCXCX4X4XXXCXCX5XR.I i _ x Z i.i.>XrX+.K t.t.z % >.fXdXw.G ) / i.a.^ h [.mX^.~.AXmXXXCX9X`.qXqXW r e e ` a.9.] k b B Q lXdXaXa.+.A t r.6XP.H.m.R.9X( W @X&X) u W ].#X1.8 f 5XNX9XH.B | o.` C ` +.|  .<Xo.8 f 2X0XqXtX<XV.I._ @.W  XuX7XG.G.m I.*X) ) +XpX).oXl.S.!.MXp.D ..6X#X,X*XE.8 W 3.>.S ] o.] - f.",
"K % % q 7X9XB.n I.I.' S ,.s.<.4 E &X<X,X>.s r.GXjX6.= , u.C > p.Y N a.=Xs gXtXR.tXB 7 > =.< S o.>.6.(.z.4XR.R.A.NXJXoXcX4XG.m.M.tX@XwXFX<.L m.b.5XrX%Xe.u.I.OX|.e.J.&XuXHXFX0XOXT M x v J J ' L +. .t.y.H % p :XtX3.>.J / 7X8XA.S.~.l.l.VXVX4Xx.XXLXeXmXAX}.1.Z # *X7X9XQ.n O.[ ,.dXp.4.$XO.| 8.+.$XI.b 7 *XuXa / e.i.2.Z $XtX].I Y H.MXAX).'.H o.x S S S K C O.7X&Xf e N.0XFX}.7.#XK.E OXrX#XFXG.7 l } u.f.>.8.q {.CXD.U ^ ;XGXtXl.!.&.6.*XQ.T.=X+XtXOX/ / 2.;.d.",
"1Xd.) 7 m.MXrXV ..| tX1X2.~ yXL.L.J.r.1XaXs @ 9XcXuX:X& , M A o.&XS S *Xg 1.FXyXnXQ.m.d s <.K N G #XCXD.A.M.M.f z.oXPXvXcXmX8Xi F a h #X*XJ.6 n 4.W ) $X( F 4.aX( T T OX:XqXoX}.6X7X2XN.g Q F , k +.o.C t.8.- 1 ;.w.y.y.C Z yXU.8 F.R 7 U uXLX}.z.g gXFXFXjXuX@X| H.R H.U.Y r o.* 7.hX1Xu.u.o. .V O.6XX.7 ^ rX+Xq.y.,Xi.K K %X<Xm.{ Y ) eXNX5XL.~.W.nX5X2X@XX.H.6XE.W.G.C.2X.XNX9X9XU.P V OX;XqXL.b m v.rXsXd.4.h [.9X6X) a p 3.tX4XbX:X,.H.Q.K.sXgXtXjXu.%X1XD >X",
"#X4.H.n E &X<X$X$X2.3.,XyXn.m.nXW / r.s.1XtXf C.x.5XKXqXQ Z k m e.q.$X9X6X4.`.3X!.bX~.nXyXgX+X! d S.~.D.eX1X'.U a `.CXCXcXCXFX<Xp 5.h 2X9X8XY 4 D e.I.B.&Xr.q.,XJ.Z +.i.p s oXeXZ.4XmXSXmXCXuXtXK x A _ #  .<X<.a #X+X$XI 7 9X@XA # _ _ # @ `.lX~ & c >X=X`.wXnX7XI.F.F.*Xi.: r %X5.:XhX<X .@.u.H.7 ( 9XJ.y e.jXa.a.s.a.H N i.jX~.K.( ^ W 3XAX!.S.^.ZXBXMXrXL.R H.F.Y.Y.E.6X3XNXW.R &X*X7 e rXtX@XU n 9 V.7.*.g 4X8XP.) =X5.< z F ! OXhX1Xn.m.8 s 5.+X<Xe.q.%X<X<X",
".XN.P 6 $ ^ $XP.rXtX< t B.Q.n R.X./ a.a.gXGX2XC.BXD.XXDXeXNXU._ ^ i.i.r.tXuXV.d mX8XC.8XMXGXjXN.T.m.l.A.uXkX;XQ # : Z V..X(.1.kX;XyX9X8XnXBX6Xd : $XI.( &X*Xe.e.*X%XK L 2.%.}.HXcXw l.bXD.N.FXKXgX) U C.W.R.bXAXCXcXmXBXBXS.x.MX+XG c x b 6 # =XhX7.% ; %X].A.CX<XH.G.U.*XsXi.: *X*X5.5.>X%X+.o.*XT T I.+.Z N  .>Xy.,X,XL C | $XQ.W.6X( I I C.ZXC.f 0 h *X7X$XP.U.I.P.Y.R OXgXdX|.a d E.8Xn ^ jX7XR.v.v.g g. XA.D.9X*X2.-XzXhX%XN 7 Q sX1XL.Y.X.t p 2.2.*X) ^ tXeX",
"kXqX$X} b C ..n y tX1X~ 7 E.V.a L i.:.1 3.e.u 0 6X9XcXSXXXVXNXd t.$X' H > K uXV.r L w.I W 6.&.d v.Q.7X4.a |.sXdX4.C # @.jXtX5.,XnXbX~.mXwX;X3XW.m...%X%X+.&X9XrXhX>Xs g >XOXP R CXwXR.8XnXi 0 kX:X0XbX~.S.S.4XcXXXc.SXvXCX!.D.NXhX-XG B G.b.U ;XzXlX`.@ ( VX[..XsXOX8 ( r.y.%XY Y $X].6.=XrX$X| I.&XX.| +.` A @.%Xi.-X,X4.M B } n C.5X5X&XP b bXMXMXuX1X=X . .+.[ I.+.| 7 ; r.fXzXqXz.W.9XT V *X9XE.G.G.4.fXqXm.B.[.].h ;.>XuX@XJ.d |.p.2...+.,X<Xa Q 4.rX*X) V sX",
"g.7.) G.n P K : 4 W uXyXZ.V.r.=.D y.8.> p 2.=Xe @ J.yXLXoX). X&.. , $X>XF 7 e.r. .c c = & i h Z.v.B :.aXr.s 6.fXjX+XN , G :X:X}.Q.T.~.C. X XN.Q.T.H.y.y.o.P.@X#XdX<.&.3X@XP.F.n I J.rXNXuX2.S q.tX@Xm.R.9Xi @ #X#Xw f kXqX4 d =XhX=Xe.L.m.D.Z..Xh.oXCXA.5 B.rX X,XtXN F  .J X.T b e.>X5.%X7X$X....*X$X .u.` _ +...X.1XjXrXR Y P.G.v.}.jX1XX.Y G.Q.8X7XqXsX1X4.t m P.$X@.O.^ t a.NX5X4XyX5.< K G.E.F.} A 2.s.OX9 F h jXjXs ; ) MX6X!  X5.G | H S NXrXW ~ %X<Xe.r @.",
"iXfX2.6 9 2XuXi.I.I B.2X3XF 3.f.=.c :. .C K tX/ x 7 V +XhX7.lXzX6.~ rX%Xe.P 7 Q '.$Xa.y./ U n.2XE M x J 2.1X3.% %XtX#X* % 2 4.yXK.F.E.! {.eXV.m.E.9X%Xi.>Xe.F Q 6.`.N.C.6XE.R.8XI.( a &.1XsXi.' %XNXC.8 rXgXa & *XL.h dXd.e # c r.;X2XR.8 M.4.* 6.XXcXLXz.7 #XdX&.jXr.S q.t.u.t.b e.<Xe./ 7X9XM.X.rX*XK ` [ b b A / ;XkXjX&XF.{ G.F.@X5.1X>XB m R L.+Xp.-Xp.=XQ E | o.8.u.u., = R H.W 4.gX>Xy { I.P [ Y / ,X*XE p & ~ uXuX4.~ V.*X1.h ;X+XX.) u M.VX3XN.1.%X%X%XC ",
"a aX,XH.3 7 ) $X$XL.K.K.V.Q w.aX0.=.8.$X..b I.X.Z C C J ,.>.*.|.NXD.#X7.p.J.W.R.mXBXrX1X%XQ.m.9 N x v t.r.sX:X5.] >X5.,.0.x # I.*Xr o.) #XVX3X( F OX*X<Xr.p = < {.wX4XG.G.R Z.CXBX#Xp 1 ,.0.q.e.u 2XQ.f ! uX7X8 B 8X'.%.g.~ M :.s 0XbXC.+ % c -.H l.x.oXlXN.0 7.N.qXaX:.' >Xi.t.M : i.tXX.H.9X5XJ.e.%X%X%X .} @.O.+.<.s 1.$XO.} A b *X*XV.<X2.% x J =.0.d.p.<X7XP K 0.0.v 8.d.c k x S G tXMXH.K.*Xe.$XO.B >X<X&X,XS # H.NXFX#Xq.H < , kXFXQ 3XC.X M.HX0X<./ %X%Xp.",
"3.s 7XE.n 3 # x 7 [ *Xq.:.d.#.,.9.y.u.T %XH N [ } ' =.=.-.-.=.8.C ' s s A.^.^.bX0X#X'.#X+X7XT $ I.{ b H.>Xs.1X4.U.<Xd.g.g.D # M yX@X( @X2.s.sXw.> ^ +X>.;.&XR.M.@X9X9X8XmXl.8 W.uXi.f.fX;.<.Z.6XOXV Y Y a ;XrXe.B t s 6.NXBX6X3X3.i M.VX=X% * J Y H.y g JXkX&.q `.;XfX,.K @.9./ 7 b u.,X%XL F >X%Xo.o.$X&XH.G.G.Y.9X;X7.W n G.} { Z ` &X{.qX[.G.R  .9.9.9.e.3XyX:.8.J H &XyX=X1Xn.2.L ,  .MX~.W.7X].e.@.A *X@XE.<X>XS r OXMXFXiX,.G @ r.].{.2XrXE + L.GXiX,.H ( >X",
"f.;.R E.H.| A b 7 y X.i.w.0.,.=.y.t._ A u.i.] u.` 9.-.- -.0.- J $ e ~ .XD.S.D.NX;X1.=X'.y B.6XY | 6XR A i.d.p.tXtX1Xd.7.d.a.` # y FX*XF F ; ;.;.Z I g 3.p.&XMXuXi W @XyX6X@XR.H.#X=X;.3.3.4.7X2XtXW n P.+X1.g u U ! r.a.*XrX7XqX,XQ 0 <.hX7., r m n 8 4 d qXlX&.& a  XeX+Xt N I.n.b M ^ *XOXW W i.i.t.| +.&XY.P.E U.:Xf./ n.G.E.E.P P K.7X0X7X8X7X+X-Xp.g V J.tXr.&XO.8 ! 5XyX2XU./ X.B y T.T.R.VXrXe.@.A e.OX&XtX1X .7 0 N.tXdX:XtX#X  Q V.3XGX8X7 y ].lXsXr./ u.",
"g./ n E.%Xa...n 8XL./ p.d.p.s.d.2.V O.+.x 9.v ' v 8.-.v =.f.D H.oXc.~.~.Q.E.K.>XdX-XkX*XM.n.8X6XB U.@.# J 9.G %Xp.7.p.aXgXtXu.z + ; sXi.F e.1Xp.F.L.<XkX,Xr u 1.) @ i *X+X^ ..N OXjX|.].<XOX&XZ.0X7Xm.m.qX:XN.`.R.V.%Xq.z N L p.<X+X0 . %.p.I F.6 8 P.P + ~ GXFXdX0 X 6XgX>X2XD.nXH.n J.yXyX@X@X2.w.e.u.I.T } P.Y u *.p.*Xn.b.W.Q.K.K.C.2XuX*X7 ( <XGXKXNXM.y  .qXNX6XZ.s i OXU.I.^ U.8Xv.9 j.C.3X<X<X6XU.4.Q M r.i...U.OX& i tXAXvXDX&.; r r :X9XV.$ > :XJXdXaXr.",
"=.( G.Y.$Xe.U.v.E J.=Xp.d.f.>XsXtX^ ..%X] y.J c , v H -.>.,.W K.cXcXcXm.v.} ` :.7.5.tXyXbXK.L.8X( Y @.] ] 9.< r s %.;.-X1X1Xi.D # $ > t.%Xe.<XuXE.V.'.=XrXOXr W yXV.i *XrX(  ...( oXoX XrXT I [.[.nXS.v.3XjXCXD.D.[.rX1X/ : t :.:XjXlXs * Q U.W.n.b { U.| 7 j eXKXzXl.E 2.r.2XBXrXJ...Y.6XMXuXyX<XOXW ..&XH.b } z < <.=XK.G.n W.9XL.K.K.J.rX1Xp k @ i [.CXMX{.i &.{.3XuX6., M O.[ u.K.~.Q.G.Q.U.rXqX7X8X6X0X5.# S $XG.Y.tX|.g d x._.pXxX1XN $ > 6XtX* ; F lXiXf.7.",
"V.B.n.F.L.B.W.T.@ ) 1X7.,.p.p.<XhX,XF S t.t.w.J >. .X.2.5.a f S.M.;X7.t # A w.,.Q 4.[.9X8XK.R @X6X( $Xt.9.a. .r <X=X3.6.p.1X-X3.K # # +.tXq.i R.9X1.q & OXyXU.) 8XBXC.d B.n.U.6Xf }.DXlXrX^ ( 9XMXD.j.S.`.CXAXmXL.3XNXJXeX'.V @.;XtXFXLXcXD.D.x.9XT b [ $X*Xg h %.iXJXVX1.i P ^ 3.N Z n I rX;X4.3XyX@XL.9X8XH.{ a.:.W m.~.~.n.B.>X .Z X.V e.tX].2.4.t @ ) uXtX XO.O.X.$XtX7X) $XX.X.8 n.nXE.R X.<X0X0XB.M.;X-X/ Q &XT.G.! =X6Xn.! 3.%.xXJXeX4.: A #X:XQ @ +XxXg.g.",
"Q.S.m.W.Q.C.K.8XP u w.fXfX7.5.K ;.,X2.t N K <X*Xa.7X7X%X<Xf S./.R.gXg.:.Y [ >Xd.$XOX@X*XB.K.J.J.&X$X%X .` %X*XX.OXtX,Xs s :X-X6.1XB m [ ' a.T Y.7XhX7.s I U.7XB.C.4XZ.B.M.f C.bXn..XoXlX;Xd R H.nX2Xk.9 Z.@XR.mXU.7XCXoXDXyX( Y  .OXn.R.AXcXcXx.d I ..A b Z 4.+X).IX&.&.MXN.@ >.0.z b m T e.5.G z.9XMX9XnX9X&XH.s.d.B.T.~.Y.I 4.9.J `  .J L tX X:X;X;X$XN F >XhXrXu.L > OXuX+X>X&Xe...P OXJ.+ T '.|.<X&XB..X;X<XX.R T.bX;Xi M.W.>Xd.,.*  XoXtX` # e HXFXp p zXg.g.",
"T.b.b.W.Q.Q.F.&X$X> < 3.d.>.w.8.4.+X<X+X) J.NX*XX.P.$X%XOX8 S.b.M.;XkXyXQ...u.>X .' / X.^ J.I.+.X.%Xu.e.W ^ *X%XD a.1X+XV.0XgXiX/ +.b k ] 8...n Z.hXfX1.d H.9X6XB.B.L.NXVX2XD.mX8XNXkXhXlX].y 7 4XHX.Xh uX7XI #XI.V.XXoXKXHX#X^ T I.B.8 S.4XCXCX0Xg y [ A $ # X.pXkXiXj XXCX}.#.0.K m G.E.) r.=XL.L.L.L.7X7X@Xe.%X5.u m.~.&XL G 9. .I t.u.V &XGXFXoX'.Q F , , G 7.5./ ' q.:.S ' T X.&X7 % L n P <XdXr.$XU.jXFX7XL.! 8 K.FX{.d B.-X7.dX<.  -XuX{ ..4 z.VXqXD 7.7.g.",
"G.m n j.Q.U...@.o.q.p.1 #.0.< :.*X*XrXyX2XZ.L.&X+.T | i.I.8 v.G.].].wX~.Q.#X5.>Xt.9.:.8.<X+.^ T e.i.<XjXJ.U 6X&X0.=.r.yX6X3XjXhXV ^ ` O x C Z { 4 6.fX6.4 y ! B.*X%XF F 7XZ.l.D.S.[.lXzXzXeX4 7 8 {.0X! / ..B s H.7 i `.lXkXgXrXB.8X9X! 5 U @XjXJXNX@XI.O.b 7 Z %.].lX)._.DXiX7.>.I.6 m Q.V.#X'.H...J.U.#X#X4./ V %Xh f U.<X9.c W nXU V v x y ~ uXrX[.~ 4.;X<.o s 4.6X8X%X/ 4.( E y +.$Xc z { n h sX3.| 7 `.VX9X7X*X7 @ h tXMXOX%.%.dXGX>X2. XXXg T + z.kX6.>.hX-X",
"T.v.F.K.6X&XD c H t.,X,X,X1X=XS m.8X7X) r./ L %X@X+X9X7Xu 8 n X.e.%X7XR.N.p.f.0.aX%X .[ G.P.9.F I.^ 2.zX<XB.o.,.-.9.o.&XZ.z. XDX X0 Q ' = & b m H i ).oXh @ N o./ L z = z M x x , , * *.iXhXyX7 O ; N @ W yX2XcXtX;Xr V <.7. XD.Q.4XnX3X~ e t t.;XMX4XN.yXR.R 3 1 h oXvXvXDXIXxX$X$XB 6 B.BXBXXXM ^ $X/ / =X1XgX:XG y m F 7.p.G U @XgXr.p S # $ q `.0XVX9XnXHXoXI 6X~.~.cXvXoXXX~.nX&.r.+.m G.n & 7.aXK ; 1 3.;X2XnX9X) 7 P V.:Xh.o {.;XuX`.}.JXeXtX@ ; ].gX&.1.qX",
"R.n.n ( OX4./ ` ] z w.s.w.1XtXQ # I I i e e u J.U.L.MXNXl.b.m b O.%X*X~ < >.9.D a.>Xt.| Y *XsX$Xo.y.c c D N J >.8.@.H.F.f f {.lXKXFX[.)  .k + 3 W.4XvXDXCXf 7 &X,X3.9.J O O   o O 1 #.& g 5XCXFX>Xu y P H.MXBXR.qXuX&Xy   &.eXC.T.R.@XrXOXe # @ p ( nX6X6XE.8X( q.) ! N.oXJXIXxXqXrXR 7 7 K.9XHXtX) F ' q.L 2.:XsXs.M + S 0.3.a.R F 3.3.w.y.' z # y +.<XrXtXjXuX+XW n D.AXAXCX~.D.VX Xs @ 6 n.nXs %.aXuXH.( @XV.6XZ.BX#XOX7 4 [.hX.XD.MX0XN.0 #XdX|.<X& * dX-X%.2X",
"f 8XU.^ s d.<XO.t.t.9.9.D / %X*Xo. .%XrX7X8X8XR.m.E z.oXx.v.m m { u.1XaXd.f.a...t.>Xy.$XA t.i.^ C y.>.< G F S ;.( Q.Q.~.8X#XuX}.0XLXvXCXuX..7 3 n.MXeXJXGXFX'.@ &.7.p.$X&X9XCXDXrXuX,Xd m.Q.5XxXrX@XW.T.m.m.Q.D.oX{.3X9X3X0XMXS.C.#X3.e.*X7X<X;.c 7 F.8X8XR I tXw.# + 7 &.iXxXxXDXoXL.7 + @ u 0XGXjX<Xa.y.8.S > -X,Xu.Y t.0.c o.M z w.hX1X>X<X%X_ _ ] J = % t V.HXh 7 8 C.NXMX!.x..XlXGXMXT.4 ! hX* > ..n.E.MX7X@XZ.rXtXrX7Xm.h FXmXcXvXDXKX4., dX5.V.3X&.*.aXgXR ",
"K.Y.J.7.=.=.8.o.t.t.y.u.4.) V.7XrX$X@X9X9XbXmXbXZXD.q q v.9 W.8X..:.3.s.f.f.a.P.q.i. .+.[ K r.%X{ %XtX3X3X3XuX2XD.T.S.ZXBXCXlX(.4 h vXPXJXqX..l $ S D >.7.sXgXs q 3XBX~.^.~.5XeX4XyXrX@Xm.R.FXiX[.R.v.9 v.T.C.L.lXlX{.Z.9XyX9X8XN.>Xf.9. .%X1XhXy.N 7 { I.$XG d.s.t b M , 3.dXJXJXDXwXV.B @   @ ].gXgXsXi.q.8.H {.7.W T y.d.' b A N L ,X=X^ | o.] = < - c S y U mX5X&X8 @ a ~ M.[.&. XqXVXnXf t aX3.V b m X.*X<X<XQ , >.:.I.U.W 6.h j oXxXhXaX#.%.rX5 BXGX7.3.rX+.",
"G.7 = #.0.=.z o.Z k ^ *XrX9X9XC.yXR.D.C.m.l.S.D.cXVX X6.m.9 U J.L 1 - 1 0.d.w.| c :.A n I.H t.%XK.( 7XMXyX0XNXbXT.m.S.W.[.(. XlXs   0  XoXJX#Xe $ x J L a i w XX3XXXD.S.l.S.J.~ 5 A.5XNX{.a r.p.N.bXT.v.b.m.y [.:XzXgX) 8X7X*X9X5.#.0.-.z x > d.aX..B ` H y.s.#.6.*X{ k x c >.<XlXJXFXCX5X4.t O = ' q.5.5.2.e.| }.0Xd 4 s ;.OXb +...F N.@XU H.6X<X4.~ g ! J.n.F.A.0XOXV C ] i.*Xw.d.p.&.h #Xq.= 1 >XP.} c % 1 1 > , 1 =.-.x [ u >.Q i & g.lXdX7.%.5.f 4 qX-X;...I.",
"+.2.>.#.J u.O.[ Y.( T V.@XR.8X~.5X4X4X~.Q.T.C.R.g }. X(.S.R.# x 3.7.s t ;.a.p.X.w.s.I.G.&X .u.+.I.^ ( J.<Xa.e...m b m ..I < ;.1XJXs O c =X:XDXoX& O K @XXXcX!.SXcX5X.XW # b J.wXC.M.}.;X|.s & r.h n.G.T.Y.6XJ.W 5.p.-X! Y ..e.=X,X#.=.>.8.c & p e.J.T t.v v 9.0.z.R.n.r c - 1 >.2.#XoXwXwXyX<XS x z L ].tXuX7X( D.KXMXXX:X&.) K.6X*X( ( 6X8X&X7XmXBXmX~.D.S.n m.;XhX3.H _ ]  .( =.,.d.,.2 * =.c > O.P.o.c - ;.;.a g c % - x $ p D <X$XS < 7.GXGXf.6.].  1 0.p.u Y ",
":.%X<X;X$XI.E.~.6X6X( y y 7 P Y.#X[.B.C.Q.~.bX9X-X*.&.l.8 6X .9.-XhX>X^ W 5.+X@X*Xi.OXn./ c O.Y.<X6XL./ d.d.8.u.I.b k o.q.J 2.i.JXeXs S e.].oXPXqX0 & Z.MXZXnX3X].jX;X/ @.O.&XNX+Xs & % Q ].{.FXH.E v.m E &X%Xr.i.s.sX+XR &X+X*.iX-X1X<X>Xy./ u r ..` -.=.z V *X8XR.L.OX3.>.9.= S <.@X3X3XwXuX+XC : ; F OX&XR.E.l.2X2XyXkXdX~ n X.X./ y ..&X) i f h C.4XBXBXR.U s 7.aX2.C = , : #.% @ e.-X7.;.t # b L 9.c a }.0XCXmX0X X5.V.@ , J N K 9.=.=.=X<XfXaXaX>.1 0.,X0 n ",
"/ 6XbXnX6X) Y.Q.8X6X*X&XJ.+.H.F.>Xe...Y n G.8XZ.7.$.! ~.v.I 2.>.i ;XjX7XU.OX2XnX8X) OX$X>.1 Y G.N.W.bX;X,.s.q.L $XZ r %X<X:.2./ {.jXeXw d @XM.wXeX[.@ 3 S.K.U.$X1 <.eXnXG.n ( {.6.0.,.8.^ W.VXoX9X} b.n b T ^ %XX.7.sX7XK.7X:XdXiXlX3X3X;X+XrX8X$X` _ 9.-.F 8 D.U.L.V.qXjX1X>Xq.J  .tXyX2XMXeXwXW e.o.x k H.4XQ.8X'.Z.h *.zX#X8 & q.>X` V $X%X7.a.9.% O p g L.L.=X7.dX1X .c 1 #.`.R.Q.mXNXeXyX~.U.V =.=.e.Q.k.D.bXSXAXvXvXVX9Xr - = : =.=.2 - 0.q.G G :.0.' OX9Xm.",
"Q.Q.mXCXXXh ~ ( E.U.rX1X@XU.I.9.i.<X+X+.} m Q.dX*.(.[.7 ) 1 G H.V K N yXbXbXU OXVX4XR.<X<.d m G.R W w.f.,.0.-.-.C C > , d.,X$XE.m.CXKXlX! ( ..K lXwX3 + v.L.`.:X,X,X<XMXE.U.V.1.,.=X<X%X' N F 5.*XP.m G.E.$X%X<Xs.d.f.y.9.=.1 f.f.g.s > $XtXqXgXa.8.>XtX7X2XJ.7 r ' ] J 8.=XsXhX7X&X%X . .@XMXMX9X8XbX~.x.S.~.T.~.0XkXuX X XHX$XA | %X$XI.U.R.MXHXFXyX[.5   b [ uXFXJXNXwXLX_.l.S.CXQ.D.KX Xz.yXMXmX9XR.9X6XnX8 @X;XtXfXh.q MXpXA.m.3Xs * 4 + a ).(.XXD.mXmX^.c.SX",
"!.l.z.PXeX~ Z [ J.H.&X*XX.Y P M ^ | B | } m V.7.&.}.D.8 yX5.2.E 6X&X^ I C.BX6Xt {.gX4.tXjX4Xm.y o.z J s.d.aXsX<.K C e @ % ; M P.#Xh dXzX<XT | t JXlXXX3 7 &X&X;X=X|.].OX| ..u.-Xg.r.X.u.o.K K s.4.^ m m m ` a.i.,.=.-.c c t * * *.%.<.i 4 # @ W 4.t i N.L.7X7X$X_ ] ] H > : S i. .o.u.' H / OX7XR.8 D.BXQ.m.Y.G.U.].<.7XjXlXoX].[ @.A A b R U.d f NXuXyXNX*Xr x @ {.{.i ;XvXVXmX4 M.D.M.iX XM.C.5.7XQ.S.5 E OXW @ 7 h  X$.o l.XXZXAXDXKXKXNX4XmXXXLXCXXX~.~./.c.AX",
"cXl.o (. X{...b T n F.7X7XB.C.8XJ.E.Y.E.{ 7 a ,.).S.S.D.}.eX7XB.4 d U.T U L.yX#XrXf.1 ! MXnX3X=Xv v c s.2.2.tXuXuX#XB.) F > M l ; >.#.,.sX$XQ a A.HXvXw   M i.>X4.+X:X+X/ , v 9.fX>X)  .+.@. .a.+X^ B b l x :.>.#.>.>.w./ 4.#Xh &.{.FXuXV.y r ^ bX8X4X8XW.E.U.&XU.&X&X7XyXyXL.V t.8.] t.' N Z I.8XM.f ) 7XU.Y b C 7.G Y @XlXpXiX$XI.$X@.k Y I.I.4 ^ *X<X+X=Xc c # W uX+Xa 0 }.tX;X& 7 V.dXgXV.U.o.Z I 9X5 + W $XI.B.`. X&.z.z.R.2X[.lXpXpXvXc.x.AXvXvXCXk.b.T.f {.",
"mX7XoX XlXeXmX4X2XA.C.5X9XR.W.D.D.W.8X8XH.y s *.x.j.^.ZX(..XNXNX3XH.Y.....u ) [.e.aXp.n m.R.<.d.0.>.= S u.) ! ~ rX7XR.yXuX*XX.M c %.#.,.;.*XNX`.5 cXVXoX*   > 9.$X>X,X=X1Xt.8.t.<XrX#X4.K B Y $X9X7XH.T N , z 9.7.p.f.1X%XOXrXNXyX0X.XHXNXuXJ.[ Q.8X8XR.2X&X+Xr.V V / '.#XtX<X) >Xi.q.i. .K I U.D.V.u # N [ } G.t.f.3.# N 5.lXxXN.I %X$XA k N *X%XN o.>Xw.d.s.>.# # q.1Xw.p . s =XL F & & wXNX2XU.V a tX%X# T I.I.8X Xh.z.XXZ.l.d d {.(.}.cXj 4 }.lXoXvXcXS.D.V.1.",
"E J.+X:XqXXX!.ZXZXvX}.z.D.~.BXBX5X4XR.W.2X].].&.D./.S.XXJXoX2X#X7X6X6XI.+. .%XuX#X5.XXT.W.OXs d.7.d.L M $XyX'.g d H.K.L.3X#XOXR ^ 1Xd.;.g R.CXVXf i uXKXoXUX  O q.>X,X3.+Xe.X. .B.9XGXkX+XE n.8XT.bXyX<Xw.S H i.<Xr.i.>Xe.V W tXMX@Xh }.0XFX#X4 B X.X.^ e.5.6.d.;.- x v = - >.8.V.9XyXrX@XB.E K.uX2.D ' C } Y.Y.kXaXd.' ] < 1.kX.Xh q %X7XZ N F i.] v t.d.3.w.q.b b : w.:.,X:.1 Z t.s.<Xf D.CXCX0X:X2.p u.[ O.A } ~ *.q z.A.#XW l.9XeXeX X6.s O .  XoXXXAXBX4XD.4.",
"[.~ 1 s V.C.S.!.ZXJXGX.Xl.l.M.NXVXNX9X8XwXlX Xz.l.m.Q.3XjX{.&.W J.@X) K  .+.J.@X.XoXx.x.wXjXgX:X5.2.$XZ V *XNXJX#X&XF.R @X{.[.! y *XGX].f 3 z.CXhX& < :XDX_.}.@ O > w.i.'.d f ( P U ].gXjXQ.m.Q.T.n.rXhX%X/ ^ ^ ) ) 2.u.%X) V ^ X.&X*X@Xh 0XuXh A T | $X*XOX=XhXgX>X+.O.t. .Q U M.Z.3XuXNX4Xf E :X7.3.u.{ b b b 4.f.g.w.9.c 4 &XJXFX&.h *X$XZ C ] 9.` t.a.3.r.$XP.@.| i.D :.sXr.Z Z S e.m.w }.oXCXGX6.1 C b b b J.6.*.j l.f OXr.n L 7.7.6.).}.XX7 3 !.D.[.3X5X(.tX",
"eX-X,.* # 6 n n f h lXCXXX0   W '.OX&X6X X7.}.[.f 7 e 2.p.zXsXg [ e.r.G M k A ^ [.mXmXD.:X6.[.FXqX1.J.T 7 # N.NXMXU.H.U.rXGXyXP.R e rXNXM.X 0 |.fX%.@ d XXSXLXXX%   % e.rXrX@X@XI.W s 6.uX8XK.@X7XV s =X%XL.R P '.<X>X+X&XI.J.I OX$XyX7Xd h FXHX( # $ [ 7X9XrXuX0X8XW.W.8X5X4XQ.2XZ.h z.jXrXW y 3.aXw.I Q.Y.n N , 7.7.' t.t.y I oXeXlXh i K C ] ' ` _  .>XsX*XB.} O.@.+X1XJ L +X4.E 7 / L.@ & `..XqX7.6.) E 6 b.&.*.).D.8 e S q.y.c =.%.{.oXSXSXbXm.B.( `  .5.qX|.",
"q %.d.p.y 8 G.n P e h }.JXlX& + r Z I.&X1.*.&.2Xf F L > 1 d.sXrXA q.hX1Xu._ [ C _ &XnXg 7.OXf .XDXpX0X@XT + P 3Xz.d I.*X+X0X7X8X7XW '.MX8XY.; , &.oX3Xf XXvXvXPXoXh O ; W uXtXe.1X%XG g B.Q.E.1Xa.>.1 i Z.nXR.&XtXtX+X+XW y 6X6XtX~ J.MX6XM.yXFXzX&.% & S G Q %.2.) F.6XuX3XN.K.VXNX1.& 5.tX%Xx < hX*X8 v.Q.&X,Xa.#.*.X.*X%XU 7 &.lXkXqX~ C @.o.u.O.[ Z r.hXyX9Xv.m P.OXtX>X+.tXgXW.n T 7X< % # %.g.kXCXZX~.S.L. X%.x.k.I ,Xy.L W :.;.) I ) 7X5XlXhX#.c C A $XuX X",
"dXtXVXAXZXD.5XH.VX*X'.<X1.rXVXXX;Xi.x y.f.*.%.m.7 B.tX>.c c % ;X<Xy / w.>XI.I.` x x y.,Xp.1X) L.lXCXCXFXNXU 3 U.1X@XV N a F X.E.,XN ^ R.BXW.f 6XwXNX2X8 8 S.oXoXDXPX}.@ # z q.D c 8.w.OXI @ # H <.a =XuXm.m.yXC.h rXrX<.r.'.R.~.rXg 4 ! yX) u 5.jXlXpXs % = c w.:X..n.G.9XuXh 3 + {.qXh & K e.n.o.J.#XK.m 7 S  .qXjXyX[.Z.I.^ # O :.:XqXFXyXH.b ^ &XE.O.` 9.,X#X*X_ _ _ X.MXZ.n.MXMXnXf %.zX#Xg % - L.~.c.cX(.X j .XR.f @ ( H.^ p.<Xh nX4XX $ O * * %.> T { ^ L f.",
"+X[.D.ZXAXD.C.MX=XgXs h ~ [.wXVXgX5.=.-.%.j }.Z.A r 1XdX0.d.:.Q 1X<Xu.S S Z Z u.C z , q.e.) L.H.}.wXHXkXqX6X7 7 jXjXK t / / X.Z ' @.X.R A.nX6XL.jXjX*XT 6 L.wXh IXzXqXd 7 $ v v z K I.MXyXe.u P 5XBX#XyX8X7Xs.u z r NXHXeX}.i ..;X*X'.X.<X/ F t {.NXHXjX*XM A &XgX7Xm.v.Z.3X6XW.f h jXGX#X%X( C.rX.X.X2XG.( G # N uXFXyX@X@XyXB.C V 1.eXJXeX#Xe 7 { 6X$Xq.r.r.X.J._ _ _ B 3X9Xf 8 @XuX4.i &XyXuX,XG 7 9 m.wX X%.w x.MXyXJ.R T Z Y 7X7Xh 9X#Xp t  Xh L.8XY.V.OX%.%.",
"4Xf X 5 mX}.  o i ]..Xz.z.h 0 >XzXg.,.$.%.A.A. Xu.@ D p.3.p.i.N S q.w.X.%Xe.N ^ u.o.C V V ^ &XH.3.4.|.|.&.rXI : Q ,Xr.q.&XU.^ ] H +.O.} 8 B.MX7X7.=Xa. .A | &XrXs hXGXoXh ; x v x C Y R *XrX2XK.D.9X'.! MX/ s 6.o.7 V.wX.X5.F L r.tXrXu.a.w.%X^ '.0XeXNX9XY.Y.G.*X9Xv.v.K.Z.W.bXBX`.oXNXNXrXL.bXNXCXoXD.G.L.+X+.$ I V.yX2XM.6X2XF.U.7XeXpXoXoXoXd b _ X.=X=X/ O.I.+.+.o.V J.NXP.7 V 7.1XY b X.rXsXOXU...4   lXzXD.j.B.<X8XE.*X>XF.X.4.; *XuXrXH.qX9XS.Q.m.f N.5X.X",
"FXCXl.4 h jX}.h n.m.BXyX3X*XN 9.fXxXh.%.f S.f lXtXS > ;.r.r.q.` / L i.J.&X%Xi.^ u.$X&XO.I.O.X.K a.w.<.dX7.;X^ = & < %X$XU.7X$Xp.o.@.O.U.} 7 ! #X7.%.G A T # K +XD <.lXJXoXN.] -.7 b I T B.W.nXbXV.Q L y yXuX}.vXyXh ; p ;.a.2./ ;.3.L D 8.J u.&X .<.`.eXwXB.{ } ( E.E.6X9X4XA.P 8XyX1.N.uXrX) U h oXFX9XQ.@X-X%XR.l.h M.2XyXL.U.E P.@X#XqXlXoXJX3X7 # K >X,Xu.O...%X+.o.[ r +.*Xy.K w.aXu.# F 4.-Xd F.rX<.@ &.p.C.k.L.gXE.U.r.%XU.:.>.# ( *XVXQ.N.9Xm.R.2Xl.S.~.SX",
" XNXNXZ.0 #XjX0XK.R 3.p.>.>.y.] >.g.h.(.l.9 4 =XlX:XG z ' u.o.+.$Xi.<XU.{ $X<X&XX.O.| I.$XH 9.9.-.J J zXdXgXtXr.D z [ } B #XjX;X$XA b } I.T u 4.dX3.*XH.R # 2.a.$Xt 1.FXCXVXuX'.{ 6 7 E K.Q.W.C.jXs.s V y uXHXXXJX{.Q , c a.t ) r.p.=.c 8.C ` y.X.$X].{.FX].e +.H.F.Y.R ! '.W @ I >X5.4.tXsX2.r @ @ 4.uXU.rXhX>X4X9X5X2XNXFX3X9XB.P W ! g ].uXJXFX.Xi ; v @.%X&X$X$X+.+.[ # C i.i.' w.>.u.C < 2.*Xn.8 5XFXN.0 s y k.Y.gX%X~ p d 4.r.a.r 7 &X@X8X( $Xi J.nXbXQ.z.).",
"s i @X9XH.@XyX#XL >.-.-.-.- 9.9.=.*.7.5XQ.n M >  XjX*XF Z u.%Xu.I.+.o.+.T o.t.rX&X| Z A ] J >.d.t.8.c f.d.Q #X<X,XZ 7 n d g uX0XrX| A _ P.I.W %XdXgX7X8XH.r p ,X&XJ.4.;XwXwXXXBXMXm.3 6 B X.K.n .XdX0 f 4 u +XsXiXzXuXV.$X<XD N %XsXf.=.u.O._ ] Y 7XrX'.eXuXW V U.F.U.( a =X=XL K L w.q.6.p.a.e.u.# ; ` [ 4.7.z 7 H.B.OXyXwXeXNX*XOX7X@Xg d h tXeXJXqX) k k +.rX>X .$X+.K _ H H ` H =.:.&XJ.; >.~.bXD.XX XlX4.< ! 9 P 2.>X>X5.B.@X*X9X&X7 y 4.sX*XtXr 4 E B.4.,.0.",
"d.%.G X.) u 2.>.-.$.-.-.0.-.- v ,.#.(.R.bX*Xo.x D r.uXuX&X*X*Xe.` | @.>Xi.u.: K e. .o._ H t.D y.d.H , 0.d.W ! wXuXJ.P } H.I ~ rXuX7X&X....I.W K sXkXOX&XtXX.@ ) L.*Xr.=XrX#Xl.mXMXbXT.n b Z | { }.fX(.C.yXe , =.1 1XuXCXyXeX1X, D d.s.:.+.I._ H b | $X*X0XeX#X^ A B O.*X<X<X%XK K H q.e.Q 6.:X%XyX7X^ A H.;X7.q.C _ 7 4 d 0XkX;Xi.$XyXnXVXyXq s <.|.gXNX&XT t F a.u.*X%Xu.$Xu.2.Z z H $XyXnXU $XS.W.9X[.q *.hXG U C.B.p r.tX6X2XrXR.8XuX) @ / s.0.1XX.7 P B c 0.hX",
",.-., % < - - $.1 c =.=.-.$.$.=.$.,.l.w ~ <Xq.9.x x .XVX2XX.X.$X$X&X%XJ c t.t.8.c t.] o.] ] t.*X,Xr.c c a.7XZ..XmXBX7X7 K.6X7 i.qX3XL.P P I.u.z 1 w.<.G >Xe.M n 8X( w.aX,X7Xm.n XXBXW.v.} m A _ a 7.;XD.4XtX2.>.r @ N..X&.&.kX;X1 %.a.t.+.O.` o.J x = L :XFXFX%Xb k : u.<X*X$X| ( %X .@XyXqXjXOXD.MX7XM 7 {.hX%X@.x $XX.@ > D s.t.r 7 f 4XPXlX7.d.<.4.5XVXmXW $ < e.$XX.I.u. .q.p.9.O.F.}.XXm.T.XXh G 1X,X*.gX@X3 2X*Xs Q nX~.L.&.R.BX6.rXP.7 z $.%.*XX.F < z > i ",
"=.% z c = - =.D x ^ G >.,.%.%.j l.XXz.~ ,.- 9.o.} T Q 2.:.y.%X%XI.+.:.s.X.G.W.#XR tXr.S M _ | q.a.<XR.m.nX2XJ.Y.:XuX@XB.7  .w.- Q ].[.f 9 G.%X9.g S J ]  .7XV.# B ,Xc =.y.9.+.m B.2XNX~ # %X] x p %X7Xe u uXHXeX6Xm.M.6.6.q N.'.#XQ X.+.i.%Xo.K E.&X` = :.1X'.rX7XM $ k o.u.&Xm.R.tXq.2.rX0XgX5./ 2.<Xr.; N <XgX+.7 ..<Xt.J > 9.a.t.x , % >.fX7.'.tX8XR.#XuXMX[.~ u N  .I.8XnXbXMX@XK.R D Q n b $X%Xc >.hXaX].}.5 M.qX:Xn F.u.:.c | $X1X .$Xq.d.-.v -.v =.=.- 1 - ",
"w.w.s.i.o.B  .tXs.p.5.q q ).CXcXx.cXXX&.dX>Xa J._ N s w.c ' t.V OX$XF ) &XE.7X;XL.*X1X+X| T %XQ ;.) Q.bX9X7XW u i ~ NXVX! a >XJ N %XuXE.G.Y.rXsX XgXa.o.) 3XyXr ; 8.0.9.8.8.@.m } *X;X'.r | X.Z ) @XV.I y e 0XFXVX4XLXqX Xh h }.oXNX2XL.@X'.L.L.U J.$Xp , w.>X<XrXtX .x x H &XP.C.7Xh & a *XgXp.< c s.aXH , 8.aX1XC , H 8.y.0.>.i.L & ; = . %.p.V.g M.m.h g 2XuXnXMXL.y y n.R.BX.X`.B B aXaXA + D L :.c a.a.+X4.n T ,X1XT R r.3.s.D < d.0.2.=.,.9.c = $ c c s p r.",
"yXrX+X#X7XU.Q G *.1 h XXXXc.^.^.SXSXJXoXwXVXh `./ e & >Xi.L $XJ./ OXL.T.~.M.~ rX9XQ 5.jXtXy ! ;X7.g 4 M.#XgX3.;.R U ( {.uX+X<X/ x ` I.E.G.G.7XgXlX=X$XO.B.L.uX+X; 9.s.L i.u.Z 7 b +.=XhX<.@ ^ $XU.P.B.$X) # W @X@Xh `.7.iX}.MX5XXXJXCXCXCXXX4X6XC.6XFX*Xt / <Xq.'.jX$XF ` x x Z J.;Xs.3.J J 0.f.s.=.=.y.8.z c 2.t.' > , = c y.=.~ #X[.N.N.h g 1.@Xg l.XX&.q g Q C.9XNX9XV.4 4 ! 0XqXg e >.a...# v v -.z c a.tX1XA + S :.H t.w.:.s.p.1 $.- 1 =.-.;.1Xe.( W @X7X3X8X",
"yXyX3X3X:X-X6.q h XXcX!.cXCXA.A.z.(.qXNXmXBXFXzXkX<.& q.u.V 7X9X<X<XR.G.W.+XG e.7X+Xg =XyX@Xd 2XCXXXf d tXgX3.<.H.6Xd 4 M.uXtX*X_ b Y E G.P.;X-X7.2.X.U.L.V.e.gXq.c y.| | <X<X7 7 ^ :XhX5.u M } { H.$X<Xu.%XZ  . .G ;.>.6.i K.U eXCX.X.XHXNX3X&X8 R nXMXL.( J. .G %X&XX.>XK x : = >.f.0.9.v -.0.f.9.1 S K K u a g V.L.J.B.( MX9X3XMXMX5XBXMXnXMXBX4X4XCXeXjXuXW I I ) %X*X*X .# I.yXCX).q p X.y v ] o.t.> e.>X:XX.# F c v ] -.` a =XsX-X1X4.i.>X,XtX@X6X&X8XE.Y.8X",
"'.3X5X[.&.&.).z.x.!.!.ZXmXrXs >.& < r.7X#X}.lXxXjXtXW I L.y F.U %X*X( n ^ s.:.N K 1X%Xe.7XW.m.W.mXAXrXi 3.%X*X9XOXOXMXZ.z.wXjXdXP.8 { Y b | w.,.,.1XI.H.../ G y.1XG z I.I.+.+X*Xb e Q 5.=XW 6 l } +.>X>X' i.] t.y.=.d.>.L u y 7 p / a q 6.p.>.y.@.C Z &XrX*Xi.>XK +.&X^ 4.%Xw.S = c -.c > p , c L w.+XOXU.2X2X3X9X2X9XnX8X8 D.BXR.2X4XA.!.!.bXmXbXD.D.AXJXGXjXa u.W a d ! &X&X .E x.cXPXwX3X9XM.; Z T O.r N G ,XX.7 *X,Xt.v v [ K.*XuX4.#X3X7X9Xr.%XU...OX<Xe.V V ",
"4 i h z.XX!._.ZX!.Q.XXN.i %XaXf.:.c i.w.%.* 6.(.}.0X@XL.MXH.I r M  .$X| H d.8.` z ` %X$X6Xn.n Y.5X#X6.1 1 ;.+XyX) 7 9X9XR.0XGXlX9XU Y.O.A H =.,.=.,X+.A  .L a.e.].,X; ^ 9X*XQ 7X&XZ = G kXFXJ.b C ' >.9.J x ] y.d.,.,.;.) '.+X+Xc J y.J - ,.f.0.a.y.z z r.>X3.,X . .rX) a OX*X%X^ N K / z.XXXX0XOX<XrX7XE.~.nXBXjXW T I.U.n n 6XNXrX7XZ.l.l.x.z.h 5 z.oX:XiXlX{.L.9XnX4XD.l.A.8Xl.S.XXcXmXBXAXcXcXXXM.K...r K H T 7 ^ L L i.4.4 7 Q +Xd g A.z.z.( @X7X; c c >.1 # ",
"D.R.CXBXZX^.S.D.f u G :.D p r.-Xa.> L w.>.;.;X0X;X3X@XZ.8X7X/ i.` X.$X%X%X>Xi.y.' C _ [ I.@X^ x 2.>.=.d.d.3.p a u 7 B 7 7 e.gXhXuX#XJ.$Xo.v 9.d.J o.I.^ i.a.<X7Xh gXOX7 E rXuXW V i.9.= F ) +.[ x = - %.J # v 9.,.g.g.3.V t d.a.s.J t.] = ;.1X2.< p G < t S a =X*XX.7X*X$Xr.*XyXQ.8XNX9XR.mXMXuX*XOX@XH.n 7 U 3XjX<.; : Z ^ 4 + a , 8.tXyX6XJ.=XuXM.a >.%.#.7. Xm.bXnX~.ZXAXZXXXl.D.BXMXD.x.cXSXAXvXBXyXMXyX7X'.U 4 @ % @ '.uXmX@X5.:XMXMXwXuXBXjX].h * s & ; a 2X",
"AX!.cXmXXX.XA.4 7 S =.- s.<XjX:X<X5.i &XuX*XOX+XGXNX2XU w #XD y.i.$XI.V e.%X>Xd.t.` A Y ( >XJ c z i.r.$XrXR.M.6XyX$X` u.v > p ~ 5.tXX.K _ v w.a.+.B U.I.q.<XW L.wXkX+X7 4 V uXNX;X=Xa.c > , k x H c #.1 ; k = v $.-.0.y.k x - -.2 c ] t.) g Z.BX.Xg ! B B I.6XnX7X! X.rX<Xu.$XU.Y.H.5XNX&XI K ,X%X .X.U.} l # @ 7.hX<X/ ) rX'.4 * * - O $ ` z 1 gX#X5.f.aXg.g.%.6 n W.~.D.~.HXJXM.X e eXSXSXXXR.}..XNX.XD.CXAXvXBXnXkXhX& + d nXBXuX0XnX~.5XyXR.zXdX* * s ;XR.S.^.",
"bX4XA.S.8 f 9X4XrXgXp.p # 7 5.hXhXaXa.%XX.rXuX=Xp.'.yXNXrX1X1.a Z C X.*Xe.<X>X1X,XOXy | >X,XL L z t.$XX.J.&XOX%X<X%Xt K $X| Q Q < & 4.y.z ] %X6X9Xe.L T I OX&Xm [.0XFXOX# # : 5.<XuXFX#X;.J : 7 ( &X9X9XMXyX{.qX7.q s *X( ( / 3.X.) *X*X7XV.7 P.tXMXnXLXz.! K.Z.7XJ.X.%X<Xe.K @.P.b R *X$XD =.f.>X%X<X .$XV f ( [.rXuX*X! R.MXVXNX3XM.Q - % # k $ 7 & #.g.,.7.7.6 b $ k T d ~ jXNXw X 5 [.;X=X+Xu.; }.HXM.w !.ZXZXXXlXxXpXo + + 3 N.1.B.=XiX;.    (.xXDXcXc.~.~.k.",
"4 J.6XR.MX*X) yX].sXsXp.W e & $.%.1 :.i.u i #X+X1X~ Z.A.#X;XGXFXX.I T O. .i.i.+X+X<XP.A N a.w.<.o.] H | +.| K c K e.L C @.O.$XjX;XQ 2.%X .@.I.I.*Xe.u.I.I V I.U.a 1.uXNXL.y # B M.Z.eXkXsX>XU.Q.G.W.Q.D.4X[.~ <XdXgXtX7XJ.rXuXrXyX7X#X*XuX+Xe e 4 L.2XFXtXX.b ( 7X@XOXOXrX&X( ^ [ P.M / tX3.c ;.@X$XX.P.I.U.C.R.NX].~ #XJ.+ 8 C.vXHXVXkX6.0 E J.B.V.N.s q *. X(.! @ # # $ $ & s pXVXXXA.h %.>.J %XW V.VXnXf w XXyX(.h pXJXoXg 4 8 X.3.- . $.$.,.w x.cXSXvX}.M.n.E ",
"b V F I $X,XL  .1 %.d.d.t.C c f.g.>.* a u @ t e.<.3Xz.f U '.0X X3XZ.P.P.+.u.*X[.Q ) I...Z >XgX=Xo.] | u.+.t.t.y./ i.%Xo._ } ( rXKXuX+XOXO.Y O.@.%Xq. .U.H.H.@XU.u.r.].wXVXXXn.A T.5XlXlX XM.T.^.T.^.S.S.CX(.g +X6.#XnX2Xd ! ( f F.L.( ( <X<X%Xw.n.8 y }.=Xu.I.I.yX#XW d #XyX@XU.O. .F p 4.1X+XW n.nX4X8XR.K.8 8 NXuX{.Q H.F.} 6 w oXoXzXiXw j.W.MX4X5XVX.XvXLXLXoXoX4.r # ` q., g rXOX4.=.-.-.v  .( 8 6XNX X@ ! eX5X5XLXpXeXZ.n.R.NXfX$.. (.(.eXQ.S.C.BXvX}.h X.6X",
"MXW q ; & 1 D z %.#.#.< : x z 0.p.gX) @XrX#XJ.%X*XFX3X#XrX<X+XFXMX9XL.P.I.) rXyXuXV.T ..T ..7XrX$XX.( T I u.%Xt.q.q.i.@.@.O.b I 0XkXgX<X..} _ ] d.y.+.H.Y.9X*XB +.+.OX[.cXBXBXB n.7X X*.oXcXS.v.W.T.b.!.VXqX X'.1X#X*X&X) J.@XJ...| B t OXrX*XV.C.C.i &.7.t.@.O.tXuX+XW '.9X7X&X&XT $XX.a rXVX3Xm.mXnXnX6XE E m ) FXgX0X&XU.G.m 7 & <.fX:Xf v.G.8XD.l.mXVXcXA.XXCXLXVXR.7 # +.] O N F 2.,.=.] x 7 R n ( jX Xq y  X0X5XeXlXjX[.3 5 }.h.(.XXS.!.^.T.5 4 A.mX~.D.Q.5X",
"mXJXzXoX<.* , +.5XeXoX.X4XQ.6XyXqX@XB.8XVXrXX.X.( OX:X>.a.e./ J.3X3X6X5XMX*XrX7XGXuX@XH.E n.8XnXBXBXmXC.f [.rXOXe.%X .C _ O.} 7 a |.hXgX&XO.@.9.D y.$XP.G.&XrX%XI $X7XH.f XXLX;X# G <.}.5X~.8X2X^ R n.b ) :XJXoX#X|.s.>X$X&XuXhX,Xt.t.Z R 6X8XmXE.E.OX7.s.u.| # ; %XjX*Xg V.7X@XY.E.&X*X$XV.yXyX8 C.MXMXMX@X6X8 e 5.1.jXNXE.Q.C.r < 1 ,.g.C.9 m T.bXm.v.MXeXoXj l.4XMXVX.X0 # ] N # I ;XlXiX Xl.n F.6Xp iX&.'.8 c a.2.g.*.h.).l.9 j $.&.mXrX%X~ Z.l.f D.mXD.S./.bX",
"x.oXKXiX0X].; ..XXCXCXCXXXf C.nXGX[.E f 9X~ g J.d i 3.#.- y.$X7 OXOXZ.#XuXrX%XOXh uXuX9XW.m.8X8X[.nXAXAXMXrXyX9XyXtXOXF A } O._ N L ,X:X%Xu.] 8.K ] [ } E ) p.1XP T I.I.y 4 (. X* & ) 7XM.5 L.<X+.[ A b > a .XDXh %.7.p.U.T F 3.y.9.i.+.B n.T.~.nXF.) gX=X$X$Xu & N *XyX@XV.7X7XK.K.F.U.&X^ ~ <XA M ^ e.#X[.yXMX+X4.5.~ 7XyX8X6Xa.dXf.7.dXN.3 6 n Q.W.B.rXgXhX:X@ d qXpXGXkX;.>.o.# # '.lXKXJXmXW.../ s s }.MXT.@ ; & 1 h.7.oXD.5  XxXj   ; p ) D.D.4X2XCX5XR.D.E.",
"l.g 7.%.`.qXd 3 *XtXgXdX<.& @ y 6.#XB.3 @XuX7XBX@Xs *.p.> X.*X&X%X/ B N / e.2.OXu ~ rX9XU.8 V u.G r P @XuX1XOXH.7XyX0X%X[ _ @.+.@.o.>XgXgX1Xu.| $X+.Y m E / >.-.%X` A O...e q zX%.& P H.F.! ^ | 7XI.| I.OXI h VXPXpX X@X8XK.~ %.y.K u.I.{ } 7 + B.J.Q sXtXL.B.uX&XY R 9XMX2X@XrX*XI ..{ |  .L >Xu.x , u.%Xu 4 5XgX1.4.r r A t / 9.:.|.hXiXV.T.G.m G.E.*X<X,X7.lX&X& 7.kX*.=XgX>X..Y l # c w.>X%X$X/ * s 0 mXcXcXLXCX].s {.V.~.~.2XoXKXoXw @ 4 v.^.bX~ g #X#XQ p 2 ",
"m >Xf.6. XFX@X3 @ 0 &.7.hXGX1.4 g.<.V 7 B.VX5X!.lXqXkXjX&XI I.e.a.i.' @.] y.L p.J.V *XrX6XT x 9.d.] : C y.9.L | ! 5XHXrX^ k A x x C N %.3.p.*XT Y I.U.} Y y.0.0.] ` > ( 7X$XG KXlX=Xn 6 H.7XO.| n H.T &XnXK.4 ! DXJXVXA.R.6XyXtX7X@X6X6XO.I.I.[ B.&X#XgX:X9X8X.X8XP 7 n.9XbX[.2XjXtXX.+.u.o.y.a.;X=Xp = ] +.7 # qX1Xs %X+._ u.J v t.V +XsX# l G.8 b Y N 3.sX%.6.3X5.s p.r.g @XyX5X4X6 O c - =.x x >.*.`.D.^.!.c.).vXNXeXMXbXl.l.u.4.|.zXhX| n k.S.8XU ; %.3.>.a.i ",
"z <.s.].l.cXKXI 0 4.h & [.5XBXd  XqX5XB.4 [.N.7XVX0X=X,Xr.L L < s J.K.u.' u.u.i.i.y.7 C.tXjX..| a.t.] x r.-X%XO.Y v.NXJX0X~ s w f y s '.g Q 0X&XY _ @.m B G d.s.o.o.] _ @.o.t.<.lXeX} v.Y P.NXC.T E.G.K.*Xq.x b ~ wXAXSXz.Z.yXwX&XX.) *X*XP.Y.T.R.) G 3.,X<X$X&X*X6XG.F.X.+X=X`.aX-X/ $XI.u.,X8.u e.i.q.' +.M # M.AXvX<XI.n.;Xh.v C J.|.aXF 6 n Z C o.] c d.zX7.u.L ,.-X<XU.D.R.CXnX#XF :.J J ` #.~ ^.^.XXh e.P.w z.CXAXcXcXmXZ.L D * lXlXz.7 6 u u 7X4Xx.&.s <X#X",
"2.4.;X3XS.).JX].0 rXuX].d y R.R.B.2XBXnXA.7 L.( tXlX|.&.}.'.X.i.7X6X8X7X].) $XJ ' ] { E `.uX7X#X-X) +._ F #XOX( R F.W qXVXMXwXMXmXnX.XyXVXyXrXnX6XX.q.Z P ^ / / u.u.I.Y b O.L 3.5.0XE.n.} I.*X0XP.7 n.H.) @X( 7 i d }.VXVXcX5XCXwX3X( J.K.C.m.W.*X%Xy.9.:.' T [ 9X6XU.I.K L $X$XtX+X~ X.X./ q.,X1Xi.8.' +.$X+.M @ .XFXgX%X@XuXdXi.r y ,XhX) 7 l n b Z o.q.p 6.hX=Xa.w.e.7XBX9XB.{.wX2XD.nXyX3XN.W M.S.~.CXeX#X4.w. .<XFXCX5X.XGXr.=X~ j XXvXA.@ + I 7X3XiX7.s V.~.",
"1XMX4XR.D.}.iXpXi U 2XAXwX! ! Z.W.BXN.w BXM...X.#.6.lXCXwX2X..O.E.W.R.HXeX{.#X3./ V R Y.rXuX5X0X1X;XZ ..M o.7X( I.b I.I !.AXCXS.D.vXHXCX4X5XMXnXBX#XtX7X8XyX&XL.Q OX6XG.m [ S 1 [ 7XyXU b O.+.].8XJ.( y d 6X8X4X*X( I [.HXVXXXvXvXcX9XU m.D.8XC.a.s.d.a.a.q.B n U H. . .9.] C P.yXuX7X@X<X+Xs G i.t. .' Z O.$XZ $ r +XgX6.Q >XzXqX~ # / kXuXP m m n T ..K L e.=XjXsXw.u f XXyX<X& #XnXm.D.VXCXoXS.m.D.XX[.kXgX<., , K ) yX:X&.dXhX[.ZXc._.JXoXi + 8 F.2.g.hX'.K.m.",
"( W.mXR.4.&.7.IX:.  8 D.BXGX) I P L.gX7.h u S 0.=.& j oXVXLX9X@XE G.! 1.].[.rXf.{.0XB Y +.+XV.e.zXgXr. ._ @.$XX.L.U.J.V.5 x.AXcX5 w {.3XXXV.Z.8XFX3X6X~.R.MXyXnX2X3XB.R Y A r.3.n R @X&X8 b U.7X8X6X>X%XP f bXyX7X*XV # }.DXoX.XCXvXcXmXf I X.7Xf.3.%.3.gXuX2XK.W ) K c i.%XC # ! FXyX'.<XwXrXN.g OX<XI.b Y $Xu.B # > |.`.; G gXFXNXW 0 6.uXU m } O.$Xu.S , c ] r.gXkXtXV @ Q gX2.; I...V +X6.6.b.8 U *X4.6.|.zXyXd 4 y rXjX5.,XFXA.^.^.).pXpXCXj.3 n J %.-XR.l.; ",
"n n W.*X3.d.gXpX7Xw l.f ~ <.'.9Xh @ p.f.>.>   #.s.a.r 4 @XHXGXoXT F q.c w.X.uXdXq rXI._ ` u.i.| 5.jXuXW b _ ..f 8 BX9X9X8 8 [.nXuX<X3.Q #X%X! K.gX7Xb.b.m.[.0XXXnXMX3X*X&XX.rXtXG.P X.NXA.3 m.6XQ.@Xw.$XR 6 n &X0XyX$Xt i 0XjX{.;XFXLXvXMX# ; H s.d.;.p 5.rX9X9Xr.q.1X' | %X<XF e OXuX[.[.@XVXBXcX5XMX2XB.| | u.O._ : ].eXF > W wXNXNXg & <XV.8 G.Y.B ^ 1X>Xz = r Q dXaX2.; ; a 1X%X+., , D p 3.m.P > J i.r.s 7.yX9XL.U `.:X;X<.A.R.^.D.).iX).eX~.8 n / e.yX4X0 ,.",
"n F...w.0.y.$XKXAXD.W p ,.D 3Xx.jXQ & - s.%Xe p.s $X| 7 ; <.kXDXp.< / ,Xu.) '.iXs V +.A N  .+X7X5 CXLXMX4XE W.D.m.S.NXuXE.M > W %XsXaXr.$X*XI + jXMXT.b.m.'.;X`.n.[.tXtX%X*X&X8X8XF.P.8XmXA.8 } J.*X4.u Y.n 6 +.#X%XrXrXu g jX1X<.; i FXoX{.w.v D p.i. .Z A ` I.e. .<X%X..u OXtXV ; <X7X2XM.Z.8XBXCXNXwX7X&X[ Z } u.Z U yXtX) y d [.NXeX5.=X( 8 v.Y.C.! #XFXrX@XW F c >.5.<XrX*XtX;XG 2.p ; I Y.J.K : , L gX=X* ; X.$XK , ;.7.%.m.T.T.m.g.xXiXh 9 8 H.$XL.4XNXkX<.",
"8 _ o.r.g.p 7 sXcXHXrX1 = q {..X,.1X<X>.D *X6XrX,XF [ @., % 1 |.dXh 4 7XV.d g qX1X7 [ ` O.V ; F.m.f oXHXMX4Xm.W.K.f q gX<XL c _ e.:.d.tX3X6XnXD.5XHX@XE m.( <X7XG g 6.G r | { 6XK.F.} F.rXyX+.C |  .*X&XH.U.O.C p F ) uX$Xp a.s.5.=X<.O 6.jX=X/ H t.%X&XI._ x H &Xe.L a.%XT r ) u.7 ..&X@X2XB.V.N.#XtXgXuXyX9XJ.C  .V 7 L.FXtX$Xy d '.FXGX-XOXn R F.&X*X) V.9XMX0XtX1Xe.~ A.Z.J.g #X4.e.%X*Xm.5 F M M A K %XhX1X+X/ C v #.-.s.tXE.} E J.7.xXzX&.3 + $ y R 4.|.sX0X",
"@X= H >X X@XB.;.+X1.eXCXwXh O >.g.3.=Xf.#.$XT ` sX+XX.C H v = > hXVXl.x.AXz.h #XFXZ.B.T U.I.Z P.6XN < -XqX3XU 7 6 R s.1 5.a.H _  .:.p h Z.mXZXS.x.JXhXG E E L.7XsX,Xs.e.I.R { H.O.G.n H.X.q.,XH ] o.&X6XC.U $Xq.9.%Xi ( *XN 1 7.p.5.sXG S 1XqXlX#X@X( U &XrX%XL L.*Xq.s.i.$XO.} +.I.{ L.H.yX*Xp , = %.7.|.3XVXnXX.2.^ b n.qX-X*X9X/ F 3XoX).uXm A C v o.y./ V B.OXrXuXNXR.C.A.[.( / rX%XS >X4.@ : P.E 7 &X+X|.sX}.5XrXL =.d.:.V F.b Y &X7.h.xXiX( # r [ ; % * G <X",
"f.L 7 V -Xf.>.H -.x ~ uXHXvXz.w ,.q ; Q > T Y.P N.FX<XL L H Z T t.<X6XZ.9XNXXXD.DXJX#XX.I.E.n.v.4XhX%.@ R 8XCXXX# ; e. .F i.q.K q.>XOXI E Y.E.E.g |.-X}.D.ZXB.*XdX`.Z.nXyX@X+.[ E.rXi.] ] ] q.N.7 C.R.Y.E.n.U @ G #X! W tX3.s r.VX'.|.-Xa e ! @XnXuX=Xe.H.Y.6X3.F r.u.i.q.K ..{ +.@.Z H.U.<X1XV.q.'.N.z.x..XeXiX;XL.W.8 ; d.a.2.i.rXQ ^ [.(.NX# 7 I.u.y.0.L | O.} OXgX3XE.9XA.BXBX.X;X+XQ u 6Xy 7 K.T.8 N y.y.*X5X@XrX+XQ +XOX! > @ ^ <X%.&.lXzX+Xu l P.r.>.< r , ",
"O / @.^ a -Xp.> H Y P ~ jXHXNXoXdXs `.1X,X@ $X%X/ %XtXtX*X( Y U.( y T # W #XLXmXpXGXwX! y Y.6XY ..r.sX) f [.lXqXL.d V.+X%Xe.L ' P &X7X( B b M L p s ;XNX[.2X3X;XgX<X7X7X3X<X%X_ P.*Xe.^ _ x  .7X2XU y H.9XyX#X+Xd I L.V G gX4.) *X#XqXtXyXJ.V.;X'.7X7X9X8X6XrX1XS t F %X<X$XX.{ .. .M # R &X#XuX'.uXMX5XBX3Xh =X#X9X9XJ.; J ,XJ r ) <XJ.#XCXwXV.7 ..| y.a.^ b P.U.2.-X].n.6XZ.N.CXCXHXNXA.l.bXbXT n Q.F., c S q.=X5.4.tXrXOXuXuX%X7 M L r.;XIXxX:XJ.+ # +X;XtXOX, ",
") &X# I./ g jX:XZ P.Y $ D 1XgX7.oXz..X:XkXG O 9.t.S ].wXVXnXE F.OX! C.C.e i 5.+X7.jXGX0X[.d B [ H x tXMXl.w h qXD.D.9XtX>X>X .^ C @.e.I.I...^ e.;.<.W V.@XtXtX1.,X1X*X) W 2.+._ [ o.%X7X7X) M } uX*Xy 4 U *XrXtX8XR.7XtXa +X*Xf X.rXuX#X7XuXuX-X3.) B.K.6X7XtXgXs.J N K $X*X$XU.L.*X1XY 7 L.uXoXOXH.R.K.Z.eXoX).4X2XyXyXF > 8.y.V   I U.yXVXCX5X& @ 7 N X.U.G.8  .p.p.a 7 I.+.; <.6. XjXNXM.l.2X) 7 m O.t.9., O %.2.p Q %X4.r.p.5.W $ , %XuX(.IXlX1.J.+ 8 7X#XtXqX",
"Q.nXB.e *XOXq zXrX..T H , < s %.rX9XXX).dXlX% < x : ( M.D.VXnXU.+X@XR.nX9XF , >.1 G tXNXyX#X) ; c ] | yXe.q p 7XC.Z.`.gXhX=XJ.R $X..Z ..U.I.( ~ d.sXT y ..<XhXiX3.e.e.) Q <.) O.B Z ^ ( NXgXp k t <XI.y 7 r OX4.n.E.! ;XhX5.uX! ; / *X#Xj a p.p.s.1X*XV.F a 7.p.s.a.%X@.Z [ ^ I.8Xe.gX7X6 f qXNX%XY G.G.u (.KXvXA.w h tXkX3.t u.rX@XB 7 ! .XeXGX4.7 R I.&XU.6XU. .7.3.W E O.X.r.< , s ;XVX3X( @X#XM $ x y.fXd.& t 1X1Xp D 3.s p.{.0X*XO < &.lXpXKX:X+XP 6 K.[.h jX",
"x.cXwXd V.yXa %.gXe.i.y.=.c D p  .J.Z. X XqXtXs # M P.Y.P y @XFXNX9XV...<Xw.S G s.= , e.uXjXlX&.r ^ # H ] J N Y rX/ % * -XNX9Xm.mXnX4XM.T _ C H d.i.S P T I sXfX+X'.V.rXkXuX7XE.E.&XZ 7 OXhXp.c O C +.Y m b J.7XK.rX<.& s s 4.rXW @ W tX|.s < 8.8.9.w.p & % & * D G u.+.+.[ M M +.S G *XU.@ t r.uX9XU.6X$Xa {.BXmX4Xl.}.gX6.) R.1X<XOXM O ; -XpX<X( O.| X.T [ u.t.d.7.J.U.6XuXjX&X*X9XXXXXmX5XVXyX! r M % s gX/ t 5.1Xp , <.Q 7XMXA.MX:X    s f.pXzX:XW 3 v.MX&.i ",
"x.mXXX(.w *X1X* D >XgXw.c J q.q.Z b I dXzXlXHXoXE.n 6 O.%X/ s . V.*X@XF > :.w.q.8.a.K # W yXJXlX'.Z...c -.9.` b c d.2., & h nXW.A.BXVXB.P [ I.%Xs 3.^ ^ H.y a dX0X{.'.'.0X;XC.G.bXyX%XS G iXf.6.: O [ P.E.U.Y I./ 2.,X=X%.].=X=XgX2., ;.hXhX3.8.H H p.sXjXqX|.:X5.g r b @.&XI.m _ t.r U 7Xq.> $ F *XI.+.u.F V.nXyXmXZXVXlX5.[.T.g W ) @X) ; . 7.+XT b M : x C H x q.sXg 3 I rXg I.$X@XOXf U U #XyX9X7X;Xq . `.3X;.O D ,Xe.L.bX~.HX(.w qXiX& > = . iX-X1.7   2XjX1.",
"; 0XuXh 0 *X7.7.> ^ <X:X6.W H.&X$XP.^ p.aXjX[.NXBX9Xu $ # 8.s.1 O z / <Xg %Xa.a.e.e.u. .; u {.kXMX2XyX>Xp. .| z - v y.X.P T L.n.t e.+X'.B.H.K.R.%.=X@XR @X( a *XjXFXyX#X|.#XZ.G.n.&X,X4.< %.-XqX7X7 n n Y 6X^ N s.:.D gX#X%XhX>.,.f.` = ;.hXdX=XN I R.MXHXVXvXFXJXCX[.d M ..U.Y.X.%X{ 7 ( ,Xa.^ , z ] H C u B.6XuXN.5X0XqXjX2XK.wXV.Z.nX6Xu.1 %.1XI Z %X' M | o.@.w.hXr.7 #  ./ H H H i.u.O.M | E.8XCXHXFX~ z.MX<.e d nXZXS.Q.~.kXKX0 &.kXGXtXF q %. X{.R $ @ 3X}.",
"v F rXwX~ 3.aXf.K 7 A.lX:X5X9XP.Y Y.[ >.3.5.'.z.XXVXuX>XD - w.aXe.z > y.aX,Xe.L.uXyXOX+X~ ; @ ^ +X2XwXjXqX) ^ 8.-.9.t.A 6 F.6X| t t G %X<X..W L.dXa 8 4 @XgX$XY 0XrXrX1XgXtXR.Y.U.rXgXgX;.1 <XVXnXR.8 n 7 *Xa.1 >.0.* u V.i ;.,.2 -.o.C a 7.iXdX) 8 k./.x._.XX_._.AXLXNXOXy ( Y.yXU.Y.G.| >.G MX=X1 < J ` [ b O.*X5.g 1.;X#XB.P BXBX~.cX8X7X .%.gX*XZ i.>XI.} } O.w.fX5.K x ] i.4.q.S L u.U.P 7 m.8 w }.wXyX2XbXuX8Xv.b.~.S.l.(.7.&.6.% G [..XCXkX;X0XNX@Xy + 5 @X",
"N H q.i.q.p |.jXuXd w 5XHXFXrX$X` ] y.,Xd.w.y.$ W ;XGXlX5.J < q.rXi.: O v u.e.F ! #X1X|.=Xu.C x v Z N.qX:XX.e.>Xi.F $X( 7 6 A %X*X2.OXJ.U.( ^ $XfX{.M.8 P *Xi./ < :.d.D <.>XL @.P.2XeXdX-X^ U 4XuXOXy b b H 9.0.-.-.-.v = 2 =.,.$.= _ } C * %.+Xc.m.m } ( eX.XW.cXvXvXDXpXh 7 } U.7X*X%XJ.OXU Q.pX6.s Z b R # x %X,X>.1 5.OX..<X6XW.A.D.CXzXtXK.3X#XG p F Y O.G.] q.%.N.W : | G.{.rX$X&X6X6X&XJ.{.].s O y.>Xu V.;X2XT.b.~.bX+Xr.g.g.dX+X# F ..K.oXNX! wXeX1.@ $ k ",
":.w.z = c t p tXjX<XI u '.3XMXZXK.L.W +XgXgXtX].@ g &.h 0XFX) q u *X*XK Z $X*X^ t e.1X:X1X>X .@.O.} {.6.|.3XC.5X7X2X@XR.Y.8 7 ^ %XsXi.P.K.&XL / 0.4.Y.T.R ) +X#X2.;.w.3.3.<.t $ C V r.fXdXZ.j.Q.wX#X( r Z z 9.0.-.-.-.=.2 * & &.oXs , ` ` t {.XXcX8 b { ) ;X#XY.5XCXJXpXkXrXH.R | +.u.+.I.6XC.j.).GX'.V P Z x x c =.>.,.3.p # W &X$XW F w.g.g.;.>.r.) 7 E H.^ K # p &.D.C.U l.v.z.)  .X.&X6X) V y.,X7.1 * r.:.% y F.n E I 4.3.w.aXaXzXjX[./ %X9XoXlXj 0 oXGX`.4 6 ",
"< d.w.' y.t.@ t +XtX .7 g '.5XCXHX3Xa G 2.G #XjXE.; &.eXl.mXFX].0 I &XU.[ [ $X*X' e.<X1X7.,X<XB } { MX:X.XCXmXcXZXZX!.S.~.~.K.f G p.%XF.Y.$Xw.=.G u 8 n.R.7XrX#Xd.L 2.aXf.3.O.G._ [ t.f.fXC.v.E.NXrX/ = , v c -.g.* 2 1  XeXD.x.SXJXs O E.C.x.mXMXK.f V t q.$XT 6X;Xg.*.|.3X2XL.q.C C _ O.P.K.7 oXKXkX;XK C v z c < G >XhX,Xa 3 V.i.=.- - - $.q +XrXnXS.S.mX{.sXuX+X3XmXbXW.S.^.wX;X%X .X.*X/ ; = c :.,Xs s >XL B A k , < - c 9.c s q '.#Xu ) T *. X5.o (.GXLXwXX ",
"  O L 9.i.tX4.& s uXnXW.4XQ < - %.sX,.< J S K I.MX#X3XNXf 0 ~ kX1X4.| ..A b Z u.i.t I jXsX5.*XB.b 6 l.mXXXD.CXAX^.~.AXZX!.ZXVXMX~ i Q &X&XQ ,XsXFXZ.3 3 n.*X1Xa.w.p.u.>XdXp.L.T.8XG.X.d.aXZ.6 b 4.sXaX8.= v % 1 * h W.D.mXcXAXcX).).lX(.S.ZXW.f 9XBXnX#XL ` @.| r >.h.g.|.R.L.3XaX' k x @.[  .r W 5.iXdX8.] H x K ! R J.tXgX*XG.f sXf.$.G OX4XD.cXSXAXSXcXXXC.E.yX#X7XK.T.E.U.E.jXkX1XL x X.<X<Xq.F K %X<XF rXtX .N ] c - = , %X*.%.* e T x Z P %.>.<X^ U V.0XHXIX",
"VXh 0 O O S %X; > : 7 Y.9X;X,.- >.7.p.hX,X/ t # d 6X2XyXtX<.3.,XsX1Xe.M M Z ] ] ` | 7 J.gX=XN.bXQ.8 5 bXAXN.j @XR.l.XXnX4XA.A.yXVXz.i #X$Xa p 7XwXBXn.8 I G ,.aX>.i.%XQ %.p.H.9 Q.Q.7X-X:X4Xm._ 0 6.zX<./ J.@X.XCX~.S.^.Q.3 ! @X*.IXJX!.k.Q.M.d @XZ.D.qXtX| { OXe.aXg.7.) n.K.uXsXtXq.b _ C 9.9.= c =.,.a.t.C K U.E.G.n.+X-X) m.].dX7. XmX~.!.D.mX!.cXoXCXHXMXF.h 5 f L.6XR 7 x 1.=X=Xy.H N +XtX0XrX$XV Z N *X@XV./ %XtX<X*Xu u.zXxXzXe.} &XT J.aX,Xq.B { R X f xX",
"AXvXJXqXt O x v , C x $ : tXkXs '.tX0XoXjXqX) F 0 + 7 @XaX,.d.H w.1X%XK Z _ C H Z 6XH.I #XrXR.T.~.bXB.4 {.jX4.&X9XB.d ! Z.! 0 g BXlX%.q OX4.i 5 i J.H...e.G %.g.p.Q OXOX5.tX6X9 v.&XjX:X{.~.~.nX5XeXpX).A.^.ZX!.AX5X5Xd @ 7 7 ..(.lXcXD.9 ! 3XM.@X8XA.}.1XJ.U u 2.f.fXsX@XG.B.Q 6.gX<X..A x ] a.v - >.>.y.i.O.^ $XU.n.I a.aXQ @ < s.7.f x.W.J.p A { J.%X6.;.1X7XcXZX~.D.C.2XU.K G r.p.sX%Xr M ) 2.5.5.=Xa u T @.m.K.H.U.yX7X~ e ;.s.7.`.K.8X( e :XkXtXd U 8Xz.w mX",
"oX XpXdX=X< x k x x _ o.J <.,XqXg g h N.0XuXgXtX#XI B / sX,.;. .F ! L.$XI.H.O.$X{ T  .OX*XyX6Xl.b.6X%X; p -Xq.A u.<X/ K ^ V.V.h (.lX-X& ( tXrXC.<./ F M | X.4.-XjXe.OXuXyX9X9Xn G.$X-X&.M.K.K.8XM..XDXPXx.S.D._.XX`.&.OXB.F.m Z 7.lXoXmXC.+XtX[.r Y.yXp.1X9X2X].1 %.7.gXU.E.&X6.<.p.rX&XR P W *X*X2.a.i.^ J.@XP # T B r L 1X*X! Q sXrXz.l.) <.= x A _ 8.d.9.s ^ l.W.nXyX{.N.) / t.a.p.+X<X..T $X<X<.h kXjX[.R H.!.nX@XI B.M.5XZ.e.=Xs ! E.7XuX1.  &.jX1.+ H.7X@X7X",
"= * #.7.-X:XF Z ] k # I 4.w.d.-.;.p.J = K <X+X`.&X<Xa.< gXjX{.V.@X2X3X4XR.8X8XY.6X^ t t ) MX4Xf W # H %XV < w.' N  .H %XI.L.9XA.*.h.fXe.e I.*XL.lX-XQ # B U.7X<X<X<XW @X8X2X8XF.8 ~ 7.(.n. .' r.b a |.eXm.3 V.0X`.1.Q &XQ.T.O.8.S 1.z.!.mX[.G *Xq.B ^ d.aX2X2X:X0.1 d.uXH.C.uXiXa.%XrX7XA.4X2XR.vXNXuX9X9XR.6XI.A T I...^ J.8XW.f {.{.M.N.rXrXW b Y B S f.s.( K._ A ` aXhX:XG z H ,X=X<.*X7XR H.MXMXa a *X9X~.^.S.9XrX'.N.W.~.~.LXqX:X( } T 4.gXX.q 6.=XZ k M N c ",
"}.z.`. X|.[.2XW.W.L.F O = J 0.0.> a.sX>., H y.= , c ' > u tXuXZ.L.VXBXD.D.MX&X/ ] y.x , ` u.<X>Xy.t.x | ' ] t.| ) 7X*XJ.6X6Xu.aXaXzXKXpXF C x C %.7.a.r Y 6XJ.G p.>XX. .i.u.+.{ } S dXaX2.H S 5.V.0 < -X2.3 n e.FXFXD.x.Q.E.u.a.M.C.d e >X>X<.i 7 G :.c S %X-X7.s.w.( V.OX~ 6.7.rX<XOXJ.U.I.H.H.].p.tXE.bXmXcXcX!.D.9X7X>Xt.$XL.u <.&.& e U.yXGXU.V J c >.r.| B [ A _ H e.jX{.`.n y ~ ].].J.| C X.<X:X@ 9 v.Q.nX2.Q ) @XY.C.K.@X5.lXKX<.A O.T ].VXlXiX].E n } o.a.",
"MX3XuXjX|.#X2XQ.2XNX+Xt O @ > 3.q.:.w.G L ; e.+XX...{ &XOX! 3XZ.e i 2X7Xh +XgX>XS 2.a.t k k x J c a.] ] ] 8.' x B ..X.S ; # ; c >.%.&.kX<X: M A s uX{.8 8 U.*Xp :.sX%XK u.$X| ..x > 2.=X<X^ J.;XjX'.0 Q yXn   @ ~ yXNX9X8X( u Q 8XL.H.I 4.>XrXyX@X#X=X<.  & >Xs.a.>X*X6X*X].4.4.%X .+.$X[ Z T ^ G G Q U W.BXcXcXmX~.D.Z.) G L S f.f.3.; 7 B J.*X7XI / X.) <X>X4.` _ ] _ , r.FXtXQ.@XgXhX;XW Y ..I ;XjX#XW.G.E M.sXs i H.E.T F i.r.7.hX].| I.X.Q f 1XzXjXM.8 [ o.,X",
"7Xa 6.dX<.g E W.#XNXVX2Xf 7XuXtXe./ p.jXOXX.7X.X&XI.V ( <X+XrX#X'.@ @ 4.OXa 4.tXjXqXrXW : A C H y.y.z H a.y.t.+.M r c < = = > , 1 s & ~ rX) U 7 4 CXAXD.9 b <XgX7.d.3.c K  .t.i.9.> y ( 2X8X8XyXtX#X5XZ.D.ZXnX  & r t.%X2.<.B.m.MXU.6X*X) +X7XuX9X7XjXoX(.@ p 8.rX/ I.*Xe.e.1X>Xe.u.%XI.I.I...^ 7XrX}.i 5 R L.nX8X9XmXVXeXtX2.z %.,XMXW.8 8 C.M.R.L.8XE.Z.0XgX-X| A } +.L F tX7XbXNXkXsX-XOXY.W.6X`.qX*XU.U.T S 7.uXZ.P u.L - ] a.hX6.]./ $X) 1.S a s wXVXh 7 z I.",
"u.i.p.dX6.4 3 9 4XA.cXcXj.3 '.eXjXa Q *X&XH.8XR.@X7XU   e r.+XjX5XMXOXe t ..H.J.uXFX;X0XB [ O.o.9.y.> $ N ^ +... .Z t.,X,Xu.u.q.d.q. .OXVX5X8XnXT.j.!.AXZ.; p sXhXaXs.8./ o.y.d.f.C 6 9 f BXXXU ;X7X2XQ.S.~.HXlX& > _ H w.5.Z.T.&XH.L.yXr.e.q. .X.a ;XGXHX0Xg 4./ +X^ N w.>X>X<XL i.+.T P E R K.MXHXoXh # k k m X.) {. XqXkXOX^ M.C.S.ZXZX5XyX9XMX8XbXnX4Xh &.|.e.Y m O.r.& # 8 h h s ;.>X7XK.E 6X+XtXV.+ I u.D & rX*X/ 0.0.v $ >.aXsX'.'.i F p ] N d (.eX;Xg # # ",
"6 L ;.,XgXL.G.b.M.x.XXZXAXl.0 q .X0XN.d Y n F.9X9XnXbXK.n.8Xn.W.VXuXyX%X| | O.P.2.:X;XuXn.R K.*X>.a.%XW P n.6X8Xe.T Y J.$XH.J.1XsXH Y P.9XyX7XK.~.v.Z.wXgXdXp % ;.,XaXd.i.i.>.,.L { v.b.9 5X{.4 ~ NXR.v.8 f iXiX X; # ` q.%X&Xn U C.) <Xi.w.9.8.D & > r.+XuXGXGXQ r./ L a.y.:.w.a.:.) 6XK.G.K.G.C.eXpXjX%X] k b R ( p >.%.g.;.i E.~.G.8 @XtX4...yX7XB.2XyX].h #X'.6XT.Y.jX5.u n.|.4.a Q $X$X..R  .2.p.9Xy y +X<X/ 7 r :.,.0.w.> = , rXHX7X~ =X<.c / 2XN.}.kXqXN.: ",
"6 W %.7.uXM.b.b.W.bXXXXX5XHXrXh l.HXeX5Xd n n ..rX@XE.nXH.E.E.Y.lX6.5.gX%Xo.O._ r.2.tXyX3XL.L.7Xp.e.$X8XQ.m.W.VX1X6XQ.6X9XL.W 1.5.X.Y n W +XrXZ E Y.e.w.f.fXsXz @ D a.a.y.;.c >.n.E.W.~.M.s jX@XOX#X&X6XU O ,.,.-X].B @ r  .I.P.W J.) 1XaX0.9.y.3.:.O z H G  XlXzXs S w.9.9.a.t.sXOX! B.Q.W.G.8 B 5.7.qX<Xi.` # H.tX9.f.f.,.#Xl.8 m.T.8 4 A.2XK.`.@X( V ;XGXNXVX[.K.K.n.rXgXOX! 3.=X*X$X..T Z ` u.a.a L.9X*X=X7XsXG r V ;.s.,Xw.z O 4 7XwXGXjXjXr.u U V &.hXjXwX+X",
"v.6XgX7.;XM.n 6 Q.8XrX|.i u [.MXD.A.5XVXMXM.U i & i ! $X^ t ^ u 3.s 2.;X<XX.| @.X.X.tX7XyXX.^ e.,X%XI.m.T.K.J.|.%X6XK.V.<XrX0X1X].@X6 b  .a.a.t.x x , =.,.0.f.sX3.:.r.s.9.D 2.X.T.Q.D.7Xr.z 1XNX;X;X+X*X+X1 #.p.7XrXyX~ @ # | &Xi.K L p.aXd.w.>X;XuXK N  .c * >.iX-X;.z c t.>X>X/ rX&Xn.Y.E.( y H 0.d.p.gXtXe.# # 8.>.0.f.Q nX~.XXf T.Q.j.S.~.9X#XJ.H.V.#X:X].2XBXD.m.U Z.tX4.V , 4.yXyX+Xe.| b I.GX1Xl.C.<Xr.W >XgX*X) OX<X>X=XtX! 3 3 4XwXqXtX=X! 7 # N 3.:XjXeX",
"T.f zXiX X! n v.3 P 5.3.d.W f m.Q.mXvXLXHXHXwX{.+X+X&X..7X^ Q V S L OX2X7X9X6XF.&X&X~ [.*X^ J >. .*XH.n b.K.Q #./ U.I.p 1 ;.4.e.uX9XQ.Y x c v ] v v c z v -.,.aXs.s.L J :.q.@XK.T.9 w %.0.c 7 '.eX:X].@X1Xw.= F Y.V.|.hXp.; $ V 9.v z , r.jXrX3X3XMX8X7 e.aX,.$..  X1Xu._ H | u.J.6X6XH.U $X%XJ , f.dX6.5.5.>X] # N 4.<.6.j x.mXV.7XI.Y.~.Q.V.4.rXH.E.K.'. Xh 0 Q.E.L.6X7XyXr.K G a 4.;X1X1X+.m U 1.{.W.G.F D K '.gX1X5.%X&X@XrXrXMXT.m.Z..XeXqXFX*XA @.o.z 5.eX.X",
"n P tXfX*.f G.m _ c =.- p.*XW.v.9 E u s }.(.XXCXZXD.cXwXwX[.@XMXeX2XJ.P OX7X@XK.@X<X/ :.w.i.*XX.u.+.I.Z x z L r.T H y.0.c v H z H.9XHXlXiXg.1 1 = - c c = - c - ;.1 -.0.' U.~.!.8 # D c w.t.: , p.aXw.2.7.f.;X8 7 ^ >X:X:X6., = = v v x 7 P.MXyXtXuXNX'.a 6.*.iXA.2XuX1X>XX.u.u.*X( ..@.v ] t.e.> z s.#.1 9.>Xu.m _ i./ [.w @ rXQ H.P.B Z X.i.J ,XVXW.R 7.f.hXS.C.8XY.K.uXtXsXiXyXV.@ a ,X3.e.R _ o.M T <XhX1X^ u 4.,X=Xr.OXU.E.j.k.~.bXW *XjX XjX3X! ..@.` Z rXqX",
"2X@ e.zXoXS.3 O.8.] J L C R n bX<XQ & % 1 q o h ZXD.A.MXwXM.i E.JXuX9X8X2XyX9X9X..X.>Xi.1XtX*X@X+.J.H.&X` # e.rXrXe D 1X%XJ.&X6X{ ( '.5.d.f.d.6.G q ; 0 & & & % @ p a W m.j.K.nXP.T y.y.D %XrX$ @ r.q.w.=X7.<XW.F.P ;XtX6.5.2.z x = z ` A 7 I rX4.'.GXdX,.>.a nXnXNX:X:X1X>Xu.H K u.u.C C x o.u.J 8.0.9.>.8.i.<X` x t [.5XmX0 0 +XR I.u.< # K ] > u.&X/ * 6.GXVX6X7X) u r.sX:Xp.yX3X].t / *XJ.H.# t.q.z t d.sXQ z z | $X6XMXNXwXA.l.m.@Xq.K r.dX5.FXrXI $Xo.Z J.uX",
"lXG O `.CXSXA.# t.a.t.I.Y G.b I >.;.+X4.1XgXp a 8XE.) 3XHXuX0 4 q s ! @XJ.rX<X@XU.&XOXe.#X0X7XwX#X3XR Z &X$Xg XXkX3.p 2.$XP.P.P.^ K J c , %.0XoXMXVXAXmXBXVXVXCXmXZXSXcXc.l.3 I 9X$Xq.>XF y 9XW.8  .q.W +XuX@XE.bXn.! jXGX<XgX|.' z k | +.A N i.8.1 1 *.g.,XV.S.0X;X].&.a <.J K # T tX4.o.` ` 9.w.a.d.a.i.*X4.4.F @ 7 f N.tXjXq > # C 0.>.% = t.> , c s.9.O @ 5.uX>X,.1 < 4.'.].V.<X1X,X7X9X6XU.O.o.9.' K L =X1.' C _ I...J.7XwXMX@X# < c v 8.s.3.<XFXrX<XO.T y <X",
"7.gXi w cXoXGX%.0 <X7XU.E E 6X( %./ K.E ( kX%X# ' S & & 5.jXeXXX%.&.< ; & > c = H.9XyX7X~ f A.BXXX5X2Xu C V @ + >.f.0.J K C C A , D >.:.S f D.^.D.ZXZX!.!.cXCXAXcXZX_.SXSXSXoXj 6 f g Q g 5 8 ~.bX9XtX7X@X7X7XE.n.nXf i uXHXeXDX*XI # k _ ` v - s.,.$.1 ( E.&Xt < p =XgX|.].~ 7XQ.Z.KXoXN.yX5.q , 1 S V L.VXMX{.B.C.v.m.h . 7.fXQ x = c 0.c v t.a.9.- -.hXi.: z r.s.aXd.t U N.0XO.$X%X1X7X@XR.9X8X*Xy.X.H.yXGXjX6X( | o.C C _ +.i.1X:.=.=.z v c H t / uX<X4.Z A K ",
"g 7XbXl.m.}.lXxX0 h rX9Xn.3 U.yX1X9XT.v.y <XGXd , S 2.a   4 Z.BXVXHXqX5.<.p G G 5 i Z.2X2X3Xf U vXAXHXFX].p S k t 2.w. .Z | u.' <XgXdXhX0Xm.j.v.x.S.!.~.x.X 5 D.mXz.5XvXoXHXVXCXBXmXMX5X5X8Xv.T.ZXCXqXFX4X~ *XI.U U 3X~ y wXVX).FX#XR b M C v z -.f.-./ E 8 4.- -.8.r.jXjXyXZ.D.x.4 (.}.l.cXCXDX5.s Q d 5 D.CXlXW.BXK.$XsX>.2 hXzX2.c 9.9.8.z = = v - = - ] z # H 8.8.%XQ.ZXVX.XX.T J.^ F e.R &XR.uX#X8 9 C.qXlXwX[.L ] t.] _ _ , >.>.=.9.t.] J t.t.L 4.=Xr.S x x ",
"m.K.~.b.m.rXiXJXwX0 a *X&X7 8 6X$X6XE.9X) 1.kXoX) ! V.9XD.S.S.x.ZXCXDXlXKXwXnXBXz.z.h z.5XyXV.U h }.qXkXzXdXy.@.D.L.2X9X8X6X6X3XC.4XoXpX0Xm.v.G.n T.Q.D.4XMXN.o V B > :.:.q N.MXCXmX5XBXVXnXT.8 D.{.0X3XyXtXr.^ *Xg `.FX! f eXoXkX#XU.U.[ C J 8.1 D +.P.J.rX1Xs v ] 7 X.rXyXMXD.yX~ @ A.C.~.mXvXJXkXuX[.3 S.cXGXh '.%XO * >Xs ~ dXr.L i.s.i.D z z S > = c :.: + # q.u.{ 8 C.VXuXwX.X4X@XX.q.| [ Z.yXNXbXS.f q  XaXp.' C +.o.v ] i.0.0.:.K t.q./ H ] u.r.1XhXa.x M ",
"m.E S.G.^ a.dXoXkX%.& r P.F.8 7XL.U.L.&X( i .XFXZXbXbXZX~.R.8X4X#X].).&.`.2XZ.x..XHXNX0X`.h 2XyXQ q 7.iX*.gXrXR j.S.bX9X8XC.j.A.9 w (. X}.P 7 Y m m K.6X&X#X>X,XC C 8.c - >.L I ~ 7X2XA.@X#XOX7 > 2.tX#X:XzXs.) ..rXh N.7Xi q pX X(.! B.{ V G e.1.( Y.Y.U.jXkX;XD | T [ u.p.<X~ <.yX5XA.5 8 V.5XoXlXkXrX8 5 A.oX(.* p.p e 3X;X@ &.[.F c :.i.( *XK.W.9X[.].uX2XC.! @X6XU # @ Q ].FXFXuXVXrX( &XR u ;.>X&Xi.:.< > d.,Xu.K @.' ] ] t.f.aX+XH...OX*X>Xt.' t a 1.rXJ.E.",
"R.$ : ' >.#.7.:XaXhXS 7 P.O.b +.bXW.J.W U.K.n.bXSX!.!.ZXVX2X{.'.$.,.g.%.: $XI.r 4 ~ {..X0X.Xz.h 6.>.< =.6. X5XS.E.n.U.&XU.8X8XW.~.A.iXxX%XT 6 b m } P.U.X.w.d.0.i.t 2.>X%.s q.u # t @X&X;X,Xp.& O x C <Xp.*.zX'.7 I yX{.%Xq.% %.xXlXZ.K.&X*X*X#XjX( b G.n.z.eXdXOX( U.[ ' y.w.>X0 z.AXZXD.u & >.(. X7.tX8X3 ~  XlX|.3.>X4 h GX*.}.yX+Xc 1 4.E.Y.^.j.BXVXz.x.ZX!.mXXX9X*X2.% % < s &.:XuXCXcXAXoXu.< c < c -.-.H / <X1Xi.q.i.t.@.K 3.%.2XZXE.2X@Xw.<X%X#X.XXXz.Q.T.",
"zX$Xl k >X>.2 -.>.,X+X7 n v.b Y 6X8XnX@X7X6X..>.V e.p p ;.* * gX7.* g.sXt Z o.8.8.: > V U nXMXoX5XlX=X5.@XZXSXc.6X6XmXXXm.~.~.bXmXCXDXIX XS.T.G.# 7 A @.' y.w.G 8XB.q  XdXp : %XT 7 K.&X0XkXoXpX{.& % ` t.:.6.:XOX7 ..yXhXdXs , %.fXsXOXK.8XrX-XtX@XI $ : t }.xX*XB [ &X<X5.>.aXOXX j.ZXCXkX-Xs LX X6.%XE.j.A.oXlXoXCXvXl.  4 nXOX;X;XwX4XR.U.+.C.4 u +X( f U 3 X o %.qXtX|.s   O   & u R.E.jXzXfXg.#.v 9.8.p.;., N i.a.0.9.] x 9.c H b +.>XaXw.=.J ] q.|.jXMXQ.v.",
"%.aXy.= 1 >.,.=.,.d.hXL.6 m b b T e.rX@XOXi.H v = O c c 1 0.% ,.zXg.dXdX>Xz v ] x v H u.^ u ~ gXkXGX1X[.l.S.~.ZX2X5 h VXK.8 3 3 w x. XIX).S.Q.7XY.7 $ A y.9.:.;.yX*X5.sXzXr.N | P.{ n Y.*X|.jXFXjX:Xp # ! sXp.$XuX^ 7 t =XzXdX;., = N Z A | i.s.f.1X%X8.= = < f.kX) # N r.>X3.D *XY 3 l.eXiX7.s 6.zXd.t 7 n D.jXoXwXVXJXkX=XJ N V.yXwX.XLX4XA.3Xe i < G W y A.BXmXyXs @ W jXKXPXuX;X&   3 + o q *.dXa.F z o.<X<X>Xa ; K y.9.t.| J r.) 8 i q s s > M [ 4 X X .X7X .",
"2 9.0.v = z o.t.f.>.<.^ b } m O.D = c t.H -.-.] 0.- v ] z aX=XS $.,.;.0.,X=.- = ] v = v v : = = #.g.1XK.k.S.cXMXJXqX& W 7XA.k.^.n.M.}.iX{.m.T.%XbXbXH.V :.>X,X<X# a ;.* w.gX%X..n E b U.%XQ +X>X-XtX2X2XNXsX>X*Xe.X.N # s -XhX|.].~ V C H v v J -.c J y.] z , >.dX1X .z S >X1Xe.%X$X+ . %.>.-XQ . $.f.%XE E ) 3.uX1.'.GXhXlX>Xp ; t a 0 A.NX}.jXuX3., L H.8 8 bXyXGXGX#X5 y 0XuXjXFXVXXXw 0 g &.%.6.'.@XZ.d ) FXGX=Xu ! &X+XOXJ.D.ZXZX~.~.AXCXCXBX4XnX4XmX0 i s.$.",
"e > v @.P.P.U.&X1.]. X;XR b m Y.,.c % J 9.-.0.0.-.9.v v x # N M 0.d.0.f.d.3.) g N K , O = x - 2 - =.i.^ 8 f u , iXzXS ; @XMXQ.T.6X7XzXiX6.8 v.6XC.6X*X .S t / tX5.> , 8.a.2.F &X6XO.b [ %X>X8.9.d.e.U n.0X7.aX' p.,Xy.z > :.-XgXlXVX3X~ G 1 c ' e.~ g @XrXI.e ; * p.>Xt.] L <XuXV.#XF , - 1 w.i.g.#.<.( 8 7 / d.0.c O 0 (.(.z.}.:.S J >   ;.&.. tXOXW R n.9 8 3 i 6.dXjX'.4 e ~ ; `.yXyXrXjXN.MXlXCXcXMX5Xf 4 & `.FXNXNXrX2XL.C.S.cX!.!.D.DXpXoX!.VXoXeXrX[.; D h.",
"L.B.n.m.T.~.SXJXVXCXCXmX8XC.[.  - 3.G = 1 >.8.>.,.=.9.9.] H N L t.d.f.g.%.3XAXZXvXoXoXh i p 1 1 - = z z ; , = - 2 ,.w.u z.`.( [ [ w.fXg.&.7 v.E.e./ L 8.t.H N @.gX,Xw.9.y.w.^ u $X` x = v y.-.0.,.=.# # G g.s.>.;.d.aXy.v v L gXdX0XFXjX7.s ~ U 9XnXcXA.nXHXyXN.* i F u.t.v H q.W.9X<Xy.=.- = q.aXr.@X2XC.d O % s.5.z.w x.cXvXSX:Xr.) V.r & 1X&.4 }.yXZ.8 n Y.M p 3.,.g.;.W ..| q./ +Xw.L %X} b.CXVXCXcXCXJX&.o w wX.X&.h A.Q.~.~.mXnXM.0 6.lX}.0 g %.6.`.HXwX&.iX",
"nX8XW.m.j.l.h ).j z.l.x.~.mXlX*.*.1.jX%.; B.yXgXp.;.p 8.t.1XX.u.o.9.0.,.h l.c.cXAXvXvXoXwXNX.X1.` ; : < & % - v $.0.i.y 7 > z v : * *.,.5.I n R y.:.- x ] o._ x -Xd.=.1 :.8.q.r = c J x = , -.0.,.8._ C c p.%.zX<.1 >.9.t.] x S s s G r.<XrX6XC.E.9X2Xw g #XGXGXrXM.e W t.t.c > ^ i.w.q.>XQ i h 5.V.R.4XMXuX;X<.(.BXcX!.SXCXXXJXCXCXcXR.XXw M.VX(..X:XrXJ.# M t.%Xs.f.f.#., O.+.H 1Xw.3.J 7 } Q.3XMXFXeXoXKXpX X5 h h &.{.Z.l.l.R.L.&XX.p >.-X;X,.%.0 0 f D.eXlXvX",
"U.R.bXR.y t * % g [.z.M.D.M.&. XoXj |.OX7 8 yXjXjX;X4.$X: Z  .V L = p J.9Xf 3 w A.cXVXSXSXSXSXAXBXXXXX<X~ * - % 2 O R 8 @ c y.- , 2 %.*.V.T Z z -.-.-.] x x ] 9.p.d.3.;.>.w.8.z ` o.t.t.' c -.-.3.r.^ # ; ) a 3.>X6.7.2.^ Z u d 5.5.q @ U 6XQ.m.U.<X;XU 4 & h uXNXMX.Xg F i.i.W & < p W &XnXR.bXuXZ.l.f g ~ @XK.^.S.!.mXCX`.h rXvXvXSXZXmXvXX z.HX{.s :XtX7   > J :.%.g.aX; # >XC :.>.3.^ 7 7 7 F 4.sX7.&. XqXwX[.~ 1.! 2X6Xy @ L =.=.9.9.-.>.1.*.eX5XS.D.! h eXDX",
"cXj.S.9X) 8.w.%XU.7XjX1Xa g `.eXmX(.* Z.T.9 l.z.oXgX1X,X9.= = < #.p I Y.W.nX~ @ + 7 0 l.AXSXSXSX_._.ZXLXVXuX0Xd Q 9XQ.+ k v J * % 2 %.h m.P c =.c v 9.i.O.@.J - s ,XzXaXw.aXa.8.M : H  .| / 3.#.s d 7 ; a 7 ^ , I 4.0X;XB.H.L.}.qXjXdXg f T.W.{ V r.<XNX9X%Xi 0 h CXLX.X~ OX%X*X2Xd 2XR.C.6X7X<XFXNXB.! '.Q y 8 ^.S.m.M.0X:X1.d pXCXcXcXCXVX.X  4 #X5.h '.7X..O O % % 7.dXu @ >.L , 2 q 7X&X; . , O c ,.1 i h [.1XtXuX! K.9XW * : 9.v v v >.* d R.BX!.ZXMXeXz.cXDX",
"SX4X7 {.jX*XB.~.T.6 e 1 >.1 0XcX.XlXdXZ.T.6 ( sX&.pXeX6.aX0.c w.<XE.Q.~.5 e ;X<X..[ } n 9 l.c._._._._._._.PXSXvXx.x.mXnXK.&XgXjXlXqXMX~.d 8.-.-.-.t.@.} o.a.9.v = < D :.S >.:.a.tX*X&XT U.>Xf.lXnXMXmX4X9XuXyXNXMX4X.XNXCX!.^.^.c. XJXAXv.v.ZXMX| / $XA.!.CXyXO.G.8 XXCXFX9XZ.mXZX~.D.v.v.Y.OXc i MX9XF 6.uXM.l n S.T.x >.-X<X( 4.yX3Xh l.oXIXCX5X;Xs.2.j XXVX#X:.a.L W jXjX& = ,.,XaXOXm.8XsX7.= y.;.#.=.2.K.I #X<./ b P ].1X>Xo.>XtX>X9.-.5.D.~.k.k.x.5XZXmXXXCX"
};
