/* XPM */
static char *a8e66581634b4f0ea45e819c0fc7d594OYpRhhEn9Sn61uOv[] = {
/* columns rows colors chars-per-pixel */
"512 256 35 1 ",
"  c #5151B7",
". c #099903",
"X c #D9A061",
"o c #3F9C18",
"O c #5959BF",
"+ c #ECAC5E",
"@ c #F5B25C",
"# c #E2A65D",
"$ c #6464CA",
"% c #5F5FC5",
"& c #CC9864",
"* c #4A4AB0",
"= c white",
"- c #BD8F67",
"; c #1B9A0A",
": c #4D9C1D",
"> c #729E2B",
", c #679D27",
"< c #7D9E30",
"1 c #339B13",
"2 c #889F34",
"3 c #289A0F",
"4 c #ADA142",
"5 c #A2A03E",
"6 c #B8A147",
"7 c #4242A8",
"8 c #38389E",
"9 c #C3A24B",
"0 c #D9A353",
"q c #AC846A",
"w c #569D21",
"e c #CEA250",
"r c #5D9D24",
"t c #919F38",
"y c #98A03B",
/* pixels */
"+@@@0@@#@@#@ee42,,>,wr<<r,<wo,2>,roo::rrrr>>>2<2<<222<<>>>,,rrwoooo1ooooooo11133;3;3;;;;;;;.$$$.;oooww26949999645yy2y2>,wwoooo1ooooo:w,rr><<2y5569@@@@++##&&&qqqq-q-q-----&-&&--&-&&&&&&&&&&&&&&&&&&&&&&&&&&------q-qqqqqqqqqqqqq-qq-qq-qqqqqqqqqqqqqqqq==================================qqq-qq---q---&XXXX#X##+#++@@@#@@00e#@#@@@@+@+@@@@@@@@@@++++++++++++++++++++@@++####XXX&XXXXXXXXXXXX####++##+++++++++++++#X&&&&&---&&&&---qqqqqq===========qqq=============================-q-&&&&XX###X&XX&&&X&&&&----q------XXX&XX##+",
"+@@@@0##@@#09062,,rrw,<ro,<<:or,::o::o:wwr,,><<<2<<22222>>,,wrooo1oo1ooooo11113333;;;;;;;;;.$$$;11:ow<4964996645yyy2y2>ww:ooo1o1ooo::wrrr><22y55690@0#@+#XX--qqq-q-q-----&&&-&&&-&-&&&X&&&&&&&&&&&&&&&&&&&-&&----q--qq-qq-qqqqqq-q-qq-q-qqqqqqqqqqqqqqqq=================================qqq-----q-q--&&XXXX##+#++@0@eee@#0ee0##@@@+@+@+@@@@@@@@+@+@++++++++++++++++@+++#+##X#X&X&XXXXXXXXXX########+++@+@++@+@++#XX--&-&---&&&&--qqqqq==============q===============================q--&X&XXXXX&X&&#&X&&&&&&----------&XXXXX#++",
"+@0#000eeee0ee22,,w::ow:r::rw31111oooo:www,,>><<<2t222<<<<>,rwo:oooooo1o11133333;3;3;;;.....$$..1or,>49yy5545545ytt<<>w::oooo1oo11oo:wrr>><22y55ee900++++X&-qqqq-q-----&-&&&-&&&-&&&&&&&X&&&&&&&&&&&&&&&&-&&-&&---q----q-qq-qqq-qqq-q-q-qq-q-qqqqqqqqqqqqqq============================qqqq--&--------&&XXX##++@@009#e6660ee9e00@@+@+@+@+@@@+@@+@+++#+++++++#++#++++++++++###X&&&&&XXXXXXXXXXXXXX###+++@+@@@++++##&&------&--&&&&--qqqqqq============================================qq-&XX&#XX&XX&X&XXX&&-&---&----&&&XXXXXX#++",
"@00ee96969ee6t<<rr:::ooooo,:313;111o:o::wr,,,>>>><22t222<>,>rw:o1oooo1oo11333;333333;;....$$$$.31w>>yy6t,25y4y5yy22,>roooooooo1oo1o:::w>>><<yyyy6999#+++X&--qqqqqq-q----&-&&&&&&&&&&&&X&X&&X&&&&&&&&&X&&&&&&&&--------q-q-qqq-qq-q-q-q-q--qqq-qqqq-qqqqqqqqqqq========================qqqq-&&&--q-q-X&&#X##+++@@eee45556600e9e0e@@@+@+@+@@@+@++++++++#++++++++++#+++++++++##XX&&&&&&&X&XX&XXXX##X##+#+++@++++++XX&&&--------&&&&--qqqqqq==========================================q=qq=--&&XXXXX&X&X&XXX#X&----------&&&XXXXX#++",
"@@0e969944646y2<,,w:13133;,311133111:o:::w,,,>>><><<2<22<>,,>w:ooo1o1o13333;;;33;;;.$$$$...$$$;3w,>>5455>ty<tytt2<2,woo1111oo1oo1o1oowr,><<2tyyy66e0@@###Xqqqqq---q--&&&&&&&&&&&XXXX&X&X&X&X&X&X&&&&&&&&&&&&&-------q--q--q-qq-qq-qq-q--q-q---qqqqqqq-q---qqqq====================qqq=qqq--&X#X&---&&#XX####+@#0962>2<246609999e00@@@+@+@+@@+@+@++####+#+#+++++++++++++#####X&X&&&&X&XXX&XXXX###X##+#+++++++++#XX&--q--q-q----&&-qqqqqq============================================qqq=q-&&&XXXXXX&&&&XXXX&-----------&&XX###+@+",
"#0ee66554y55222<<,:11333;3;.;;;;;;313o:::ww,,>,,>>><<<<<><,,,:oo1111o1133;;.;;3;;;.$$%%$$$.$$$31:><245y,>t>ttt2t<2>,ooo111o1oooo1oooo:rr,><2t2y44900@#X--qqqqqqqq-----&&&&&&&&&XX&XXXXXXX&X&X&XX&X&&X&X&&&&&&&&&--q------q-q-qq-q----q-q--q-qqqqqqq-------qqqqqq==================qqqqqq&-XX++X#&&&#######++@#0096y>w:<2459e999000@+@+@@+@+@+++++++#+#+#+#+++++++++++#+##X#XX&X&&&&X&XXXXX#X######++#++++++##+XX&--qqqqqqqqqq-&-&-q=================================================qqqq----&XXXXX&&&&XXXX-&---q-----&&&#XX##++@",
"#44645455y<<<<>><:o3..;133;...;...;333o:wwr,,,>>>>>><><>>,wwwoo11o1o1113;....;;;;.$%%%%%$$$$$$13:22t455tr>2<tt2<<<<w:oo11oooo1o1o1o1o:wr,,,<tty64e#@++#-qqqqqqqqq-----&&&XX&&&&X##X##XX&XXXXXXXXXX&X&X&X&&&&&&&-------q---q-q-q-q-qq--q-q-q--qqqqqq-qq-----qqqqqq=================qqqqqq-&###++#X-&#+++@#++@@##0655>w:,<569e699900#@@@++@+++++@++##+#####+#++++@+++++#####XX&X&&&X&&XXX##X###+#+###++##++++#+##X&-q-qqqqqqqqq--qq-===================================================qqqqqq&&XXXXXX&&&&&X&&---q-----&--XX#X#+#@@",
"e6666452><<>>>>woo13.;333;;......;.31oo3::wwwr,,>>>>><<,,,:::oo111131133...$$$;;.$$%%%%$$$$$$$$$3w<y5tr<>,ttt22<>>>wo111111ooo1o1oooo:::w,>>2yy4e0+#XX&qqqqqqqqqq----&&&&&&X&XXXX######XXXXXXXXX&XX&XXXXXX&&&&&&----q---q----q-q-q---q--------qqqqq--------q-qqqq-q==============qqqqqq-&XX##+@@#X#+@++++@00e0ee94y2oo2<t546649ee0#@@@@+@++@+++#++#+#####+++++++++++++#+#X#XXXX&&&&XXXX#####+#+#++#+###X######XX&--qq=qqq===qq--q====================================================qqq-----&XXXXX&X&&&&&--------&&-X&X##X+#+0e",
"4666642<>,,,rroo:o3;;;;;.;.;.......;;313:::wwrr,>>>>>>>,rr::oo1o11;;;333.$$$$$$$.$$$%%%%$$$$$$$.1r<,w>r>:ww><><<>>rw:o13113111111oo:w:::w,>>t254@+&&&X-q--q-qqq-q-&--&&&X&X&&XX###+###X#XXXXXXXXXXXXXXXXXXXX&&&&&---------qqqqq-q-----------qqqqq--q------q---------q======qqqq=qqqqqq-&XXX#+@+@@+++@@++#@99e99994>,:o,>5y546669e0#@@@+++++++++++#+#+#+#+#+++++@+++++###X#XXXX&&X&XX&X##+#+#+#+#+++++XXXXX#X#XXXX-qq==qqq=====qq=====================================================q==q----&&&XXX&&X&X&&-&-------&&XX###+++@0e",
"99945t2<>rr,rw133.;;;.;;...$......;.;;31o1o1o::w,>,>>>>,,r:ooooo3133;;33.$%$$$$$$$$$$$%%%$$$$$$..ro1or>>r:;o<,,<,r::o11333313111ow:rw::w,,><229@@#&&&---q--q--qq--&-&&XX&X&X&X#X###++#+##XX##XXXXXXXXXXXXX&&X&&&--------------q---q--q-q----q--qqqqq-----&&--&-&---q====qqq---qqqqq--&&&XXX##+@@@0###@#eee996e9992>,o:o>2<y6469ee00@@@@@++++++++++#+#++###+#++++++++##+X#X#XX&&&&XXXXX##+#+#+++#++#X#XXXXXX##XXXX-q====q=====q==========================================================qq-&-&&&&X&X&&&&&-&-----&--&&X&##@+++@#e",
"e45yy22<ww,::oo3;;.;....$$$....$$....;331111o1:r:,>><>>,>,:o:oo1113;3;3;.$$%$$%$$$.$$$$$$%%$%$.;311o:o1:1;;1::,,r:o1oo113133311o1wr,rrrr><<2669#++&X-&--q---qq-----&&XX&X&XXXX######++#+##X#XXXXXXXXX#X#XXXXXXXX&&---q----q-q-------------q-qqq-qq---&X&X&&&&&&&---q====qq-&&&-q-----&-XXX###++@##0#09ee0e9666>45t>w::orr<224669e@#@@@@++++++++++++#++#++#+#++@+++###+###XXX&&&-&XXXX##+#++++++#X#X&XXX&XXXXXXX&&-q======================================================================q---&&&&&&&&&-&---------&&&&XX+#@@++@#e",
"6yt2222<,ww::3;......$$.$$$$..$$$$...;;11;131oo::w>>>>>>,::oooo33;;;3;;.$$%$%$$$$$$$$$$$%%%%%%%.;;:1:..o..;;13o,w1o13113333;31o:o:r,,,,><<224ee+#++X&----q-q-qqq---&&XXXXXXXXXX#X#++#+++#+##XXXXXXXXXXX#X#XX&X&&&&-&-------q-q-q-----------q--q-----&&&#X&X&&&&&&-qqq===--&&X&----&&X&&######@@@0#0#9e45499566ttt<wo33::wr>tt469e##@@@+@+++++++#++#+#+#####+++++++#+##XXXXX&&&&&X&##XX###+#+++##X&&-&&&&&&XX&&&&&-q========================================================================qq&&&&&&&&&-&--------&&X&&##+e@@@+@ee",
"4yy222<>,w:o33;.$$$$$$$$$$$$....$$$...;.;;3;;31oo:>>>>>>r,:ooo13;.;...;$.%%%$$$$$$$$.$%$%$%%O%%$.$oo3.$$$..;33w::o3331313;3;331o1orr,,,><<2y4546e0@###&---q--q--q--&XXXX&X&XXX##X#+++#+#+###XXXXXX#XX##X#XXXX&X&X&&&-&-q---q-q------------------&&&&####XXXX&-&&&--q===q&&X#XX&&&X&XX##++X++@#@@##eee65y44yt,2y,w<:o;;1or,>t4469e0@@@@+++##+#++++#+#+#####+#++++++###XXXX&X&X&&&XX#XX#X##++#+###XX&&--&&&&&&&&--&--========================================================================qq--&-&-&-----------&&&&XX#+@e6999e9e",
"5t22<<<>:o;;...$.$$$$$$$$$....$.........;.;;;;;31o,,>>>>rw:oo1o3;.....$$$$%$%$%$$$$$%%$%%%%OO%%%$$$;;$%$$...;;r,:1;;33333;;;;3111o::,,,>><2y45590#@@@XX&&-qq-q-q--&X&XXXXXX&#X##+#+#++++++#X#XXXX#XX#XX#XXXXX&X&&&&&&&----q-q--q------&--&--&&&&&&X#++X#XX#X&&&&&-qq==qq--X##X&#XX##+++@+@@00#09e99e4552wty<,><ro3;.;31ow,<t44690#@@++#+##+#++#+++++#######++++####XXX&X&X&&&&--&XXXX######+#####&&---&-&&&-&-&-&-q==================q=======================================================---&-&&&---------&&&&&&X++#96699546",
"y22<<>>,,:;;...$$$$%$$$$$....$$$$$$........;;;;331:w,,,,rw:oo11;;...$$$$%%%%%$$$$$%%%%%%%%%O%OO%%%$$$%$%$...;1:wow;;;3;;;;;;;;333o13ww>>>>22t55600@@+@#XX--qq----&&XXX##XXXX####+++++#+####XXXXXX###X##X#X#XX&XX&X&&X&&--q-q-q-----&&-&&&-&&&&XXXX#++X&X&#X&X&&&--qq=q=qq&X###+###+@@#@@#0e96969646645><,wr:oo::oo1..31ow>,544669##@+########+###+##+##X#X##+##+##X&XX&&&&&&&---&&##+##+++++#+#XXX&-----&&&-----qqq==================q=q==========q==============================qqq========q---&-&----------&-&&&&X#+0094459yy4",
"22<><>,,ro3.;..$$$$$$$$$.....$$$$$$$$.........;;;oo:,,,,::::1o1;...$.$$%%%$%$%%$%%%%%%%%%%OOO%O%%%$%%%%%%$$.;.313;.;;;3;;.;;3;333:31o:>>><22ty549e0@@++#X---q---&-X&XX##XXXX###+#+#+#+#+###XXX#X##X#X#X#X#XX&&&&&&X&&&&-----q---------&-&&&&&X&##++@#X&&&X&XX&&-qqqqqqqqq-&##+@++++@e96ee644664454665<<,:o113oo1:oo.;;o11rry546690#@+##+#####+##+#++###XXX###+###XXXX&&&-&&-----&&X##X###+###XX#XX&---------&qqq=====================q=q==========q==============================qqqq========--&---q--------&-&-&X&XX++09455yytt",
"2<>><,o::o3;..$$$$%$$$$$....$$$$$$$$$.$.......;;3oorr,,rrwo13113;.$$$$%%$%%$%%$%%%%O%%%%%O%OOO%%O%%%%%%%%%$$$$3...;.;;;;;.;;;;333133::r><<<ty556e0#@@###&&--q---&&XXXX######++++++++######XXXXX#####X####XXXX&&-&&&&&&&--q-q-------&&-&&&&&&&XX+++++X#X&X&X&X&--qqqqqqq-q-&#@000@+@#4664445555tt22<<w,wwoo13111oor1;;oooor<<54699e#@++########++#+#####XXX#+#+##XX&&---&-&------&XXXX####++###XXX#&&-q--qq-qqq======================qqqq=======================================qqqqqq=====qqqq--&-qqqq------&&&&XXXX#@096545yytt",
"<>,,oroo:;;$..$$%%%$$$$...$$$$$$$$$$$$$........31o:wrroo::13;;;..$.$$%%%%%%%%%%%%%%O%%%%O%OOO%OO%%%%%$%$$%$$$$.$;;;.;;;;...;;;;;;;13ow>>>22ty566e9#@@+XXX&------&&X&XX#X++++#+++++#+########X##X#####X###X#&&&&&-&--------------&-&-&&&&&&&&&X##+#+##X&#XXXX&&&-qqqqqqq---X++@e90#6444445yyyy22<,,<2>w1131;;3;o1o:o1;1,>,22y56999e#@++++#######+###+#X#XXXX#X#X#XXX&&&-&----------&X&##XXXXX#X&XX&&&-qqq===========================qqqqq=====================================qqqqqqqqqqqqqqqqq&---qqq--&----&XXXXXXX@09644455yyy",
"<>,w1ooo;;;$..$$%%$$$$$....$$$$$$$$$$$$.......;33o::wr1.;;;3..$.$$$.%$%%%%%%%%%%%%O%O%%O%OOO%OO%%%%%%$$$$$.$...;31.;;333;;..;;;3;331owr<<2ty5y66e9e#@+##XX&--q--&&XX&&XX+++++++++++#+#####X##X###########X#XX&&-----&----------&-&&&&&&&&&&&XX###+XX&#+#XXX&&&--qqq-qqq-&&#++e6999655545ytyytt<>>wrr,:o1133;3;owwo;;.3:65yt4499eee0@++#########+######XXXXXXXXXXXX&&-&-----------&-&&&&&&&&&&&&&---&-==============================qqqqqq====================================qqqqqqqqqqqqqqq-q&&------&--&-&-&&X##++@06644555yyy",
"<>w1;1:o3$.$$.$%%%%$$$....$..$$$$$$$$$........;1ooo:wo.$..$;$....$..$%%%%%%O%%%%O%O%%%%%%O%OO%O%%%%%%$$$$$.;;33;3;..3::1333;;;3;;31o::w><2ty55469ee0@+##X&&--q---&&&X&&X##++++++++++#+######X#X#X#######XX#X&X&&&--&-&-&-&---&&&&&XX&XXXX&&&X&XXXXXXXXX&X&X&&---qqqqq--&XX+@#4449e45yy552t222<<,w:wro11;1333o3::wo3..1wy5455469e9e00@++####X#######X#XXX&XXXXXXXX&&&&&--&----------&&&&&&&&&-&&----qqq=============================qqqqqq====================================qqqqqqqqqqqqq-q---&---&&-&&&---&X&XX#+@0e66444555yt",
"2rro11:o;.$$$$%%O%%$$$.$$$$$$$$$$$$$$.$$.......311:o13.$$$$$$%..;3;.$%%%%%OOOOO%%%%%%%%%O%O%O%%%%%%$$%$...1;oo3;.;.;o:oo1o33333311o::ww,<22y55449990@#+##X&---q---&&&X&X###++@+@+++++########X##X#X###X#XX###X&&-&&--&-&&---&&&XXXXX##XXX&&&&X&XXXX&&X&XXX&&&---qqq-q---X#+@04645994yt2222<<>>,,www1o1;;;31.31:1;3;..3>yy245999e0@0#@+####X####X##X#X#X&XXXXX&&&XX&&-&-&--------&-&-&&&X&&&--q-qqqqqq==============================qqqqqq======================================qqqqqqqq--q----&-&&&&&&&&&-&&&&X##+#+ee94444445y2",
">>,,:::o3$%$$%%O%%%%$$..$$$$$$$$$$$$$$$$$......3311oo;;%%%%%%%.;....$%%%%O%O%%%%%%%$%%%%%%%%%%%%%%%%$$.3o:oo::1;;..;1w::::oooooo1::r:w,><22tt599999e@+++#X&&--q--&&&&&XX##+#+++@++#+##+########X#X##X#######X#XX&&&&&&&----&&&XXXXX#X##XXX&&&X&XXXX&&X&X&&&&----q-qq-X#&#++##55546955t2<<<>>>,rwoo113;;;;3331;31;..;.11<>2yy599#0@#@@++#####X#X###X#XXX&X&&XX&&&-&-&----&-----q---------&--qqqqqq===q===============================qqqqq=====================================qqqq-q---q------&&&&&&&&X&X&&X&XX#+++@e966666645yt",
"<,:w:::o3$%%%%OO%%%%%%$$%%$%$$$$$$$$$$$.........;.;o;.$%OO%%%%$%$..$%%%%%%%%%%%%%$$$$$$$%$$$$$$%%%$$$$1r,o:o::oo;;;3o::wrrw:ow:wrrrrr,><<tyyy49eee9ee0@#XX&--------&&&&X###+#@+@++++#+##########X#X#X########XX&&X&&&&&&&&-&&XXXXX#X###XX&X&&&&&&&X&X&-&&--------q--&&##+#@@e6y52555t2<<<>>rrw::o113;311;1oo:11;....;3oo,,<y56ee@@#@+++######X#XX##X#XXXXXX&&X&&&-&--&&--------------q---qqqqq=====================================qqqqqq==================================qqqqqqqq-qq---------&-&XXXXXXX&X#XX#++@@#e9966464444t",
">:o1oo:3.%O%%$OOO%$%%%%%%%%$$$$$$$$$$$$...............$%OOO%%%%%%$$%%%%%%%%%%%%%$$%$$$$$$$....$$$$$$$;o,wrwr::oo3;31:wrrr,rrr,,>,><<<222tyy55499e9e0@@+X&X--q-q---&&&XXXX++@@@+@@+++#####X++##X#X#X#X##X##+#+##XX&&&X&&&&&&XXX&XXX##++X#X&XX&X&&&XX#&------q-------&&X##++@@652225yyt2<<>,,,rww:o1o11::1:,::rwwo;.;..;o1:,>,ty#e0@@@#@+######X###X##X#XXXXXX&X&&&&-------&----q-q--q-qqqqqqq=======================================qqqqqq================================q=qqqqqqq-q----------&-&&&XXXXX#X#X##++@#0099644454666t",
"ro313;..%%%%O%O%%%%%%$%%%%%%$$$$$$$$$$$$..$$...$.$$$$$%%OO%%%%%%%%%$%%%%%%%%%%$%$$$$$............$$$$o:,rw,rw:ooo1o:rw,,rr,,>>>><<<22<22t5564496e9ee#+XX&&---q---&&&&&XXX#+@@@@@+++######+###+#+##########++#+#XX#XX&X&&&&XX&XXXX###+#XXXXXXXXXXX&X&&&X&--qqq---q---&X#+@+@e52tttttt2<>>,,r,::o:o:oo;::wor:r,,:w133..;.;1:w:>y9#@@@@@@+####X#XX#XX##XX#XXXX&XX&X&-&---&-----q-q-q-q-qqqqqqqq=======================================qqqqqq======q=qq=====================qqqqqqqqqqq-q------------&&XXX########+#60e696455t54444t",
",:13;..$$$%%%OOO%%%%%%%%O%%%%$$$$$$$$$$$$.$$..$$$$$$$$%%OOOOO%%%%%%$$%$$%$%%%%%%$$$$$;;3.;;;;;31133..or,w,,>,::ooooo:rrwrr,,>><<<2t22225y5yy554499e0###&&&-q--q---&&&XXXX#++@@@++++#+########+#+#++++#X###++++++#XXXXXX&XX&XXXXXX##+###XXX#XX##XXXXX&X&&-----qq-q--X&XX+@0e95tt22222<<<>>,r::ooowo:1w::oowow::1;;11...33:1or<t<e++@@+++##X##X#X###X##X#XXXXXXX&&&&&----&---q-q-q-qqqqqqqqqq========================================qq=qqqq=====qqqqqq==================qqqqqqqqq-q----------------&XX#X#+##++@+09556y22<<y22y52<",
"rr33;.$$$$%%OOOOOO%O%%%%%O%%$$%%$$$$$$$$$$$$.$%$$$%%%%%O%O%O%%%%%%%$$$$$$$%%%$%$$$$$$31131333o1ww:ro1ow,>><<,rwoooooor::w,>,><<22222t22yy5tt44469900+##&&&--q----&&&&XXX#+++@@+++++#+######+##+++++###+###++++####XXXXX&X&XXXXX###++#XXXX#+#+#+XX#X#X#XXX-&-q-qq---&XXX@9e945t22222<,><>>,wo1111r::wwowoo33o:11.$$.....;..;or26ee@+++#+#######+#######XXXXXXXX&&&&&--------q-q-qqqqqqq=qqqq=====================================qqqqqqqq==q=q==qqqqqq=================qqqqqqqqqq-----------------&&&XX#++#+@@@@9222<2,:w,<<<y<<<",
"1o1;..$$$$%%OOOOOOO%%%OOOOO%%%%%$%$$$$$$$$$$$%$%%$%%$%%%OO%O%%%%%%$.;..$$$$$%%$%$$.$;3111133ooowrr,,,,,><<><>r:ooooo::wr,>>>><<2<22222225ytty546e0##+#XX&&---q---&&X&XXX#+@@@@@@+++##+####+##+#+++##++####++++++#X#XX&X&XXXXX#####++X####++++++++####XXX&&------q--&&&#09455t2<<<<<>r,,,>,::o11ow,:owwr11o1oo1;;.$$$$.$$$;33o22ee#++++######+#++##+###XXXX&X&X&&&-&-q----q-q--q-qqqq====q=================================q===qqqqqqqqqqqqqqqqqqqqqq==================qqqqqqqq--qq---q-q-----------&&XX+099665@06<><,:ww,>>,owwo",
";;...$$$$%%OOOOOOOO%%%O%O%OO%%%%%$%$%%$$$$$$$OOO%%%%%%OO%OOO%%%%%$$;3;....$$%$$$$$$$$31o1133o:wr,,,>>>><<<>>>r:ooo:o:wr>,>>,,<22<<2222tyt222y549e00#@#+&&&--q----&&&&###+++@@+@++++#+####+#+#++@++#+##+#+#+++++#+#X&X&X&XXXX#X##+++#+##+#@@+++#++#+##&XX&&---q-qq--&&X+0e65522<<>>,,wwwr,wo111oo:wo:oo:o:::oooo;.$$$$$$$$3;oor<2#@+++#+##+#++++#+#+###XXXXXXXX&&-&---qqqq-qqq-qqqqq=======================================q===qqqqqqqqqqqqqqqqqqq=====================qqqqqq--q-------q------------&&&&X9t2t299yt>>,>w:oo:w1113.",
"$$...$$$%%OOOOOOOOOOO%%%%O%O%O%%%%%$%$%%%$%$%%OO%O%O%%OOOOO%O%%%$$;1311;..$$$$$$$$.$$111o3111::,,,,,,,>><2>,rw:::o:wrr,,>>>>>,>2<<<2222ty222ty4490##@##X&---q--&&&&XX#X+++@+@@++++++#+##+##+##+#+++#++##++++++++#XX&&&&XXXXXX#X##++#+++++@+++++#++++XX&X&&&-------&&&#+@e65622<>>>rww::w,,:1oo:r,,r:o:ww::w111;;$$$$$$$.;11oow,y0e@@@@@++++#++++++####XXXX&X&X&&--qqqqqqqq-qqq-qqqqq=====================================qq==q=qqqqqqqqqqqqqqqqq===================qqqqqqqqqqq-q-----q--q----&-----&&&&X0ewoo,4>yrr>r:oo:13;....",
"$$$$$.$$%O%OOOOOOOOOO%%%OOO%%%%%%%%%%%%%$%%%$OOOOO%%%O%OO%O%O%%$;3311113;$.$%%$$$...;31o131oowr,rrrrr,>>>>>,r,w:w:::rr>,>,>,>,><<<<2<22t2<2tyt449e0#++#XX&--qq-&&&&&&X#++@@@+@+++++#+####+#+####++++###X#++@@+++#XX&&&X&XXXXXX###+++++++@+++##+#++++X&X&&&-----q---&X#@@9994222>>,rwwwo:::oo1w:w:,>><,ro::w:::;;$$$$$$$$.ooo1:,29e90#@#+++++++++##X+###XXXXXX&&---q-qqqqqqqqq-qqqqq==========================================qqqqqqqqqqqqqqqqqq=======q===========qqqqqqqqqqqqq--q----q-q--------&-&&X&&X96:oo:w:w::ooo13;.....$",
"$$$$$$$$%OOOOOOOO OOO$%%%O%O%O%O%%%%%%%%%%%%%OOOOOOO%OOOOOOO$$.;3o113333$$$$%$%$..3;33o1o1::wwr,rwwww,,,>><>>>,r>r,,r,>>,,>>>>><<<<222t2222yy5y49ee0++#X&&---q--&&&&X##++++@+@+++++#+##+#+++++#++++++#X#++@+@++#+#&&&&&X&&XXX#X#+@@++++@@@+++++++@++XXX&&&&&------&&X#+#00#t222>>,ww::ooo::oo:wwwr,>,>o1ooorw:1w3.$$$;;..3oo:wo<y69e00@@++++++++++X###X#XXX&X&&-&--qqqqqqqq-qqqqqq===========================================qqqqqqqqqqqqqqqqq=====qq==q===========qqqqqqq-qq-q-q------q----------&-&&#X##@2:oo::::o1113;.$$$$$$",
"$%%$$$$%%OOOO OOOOOOO%$%%%%%%%%%O%O%%O%%O%O%%O%OOOOOOOOOOO%%%.;1o3;3;;.$$%$$%%$.$;;311oooo:o:www:w::wr,>>><<222><>wrr>,>,,,>,,>><22222tt22t55y566ee@@+#XX&--qq--&X&&&X++@+@++++++#+##+#+++@@#@+@@++++#++++++++++#X&X&&&&XXXXX##++@@0#@@@++@++X+++@++##X&XX&&------&&XX+@@@9yt22>,,rrw:::oooo:oooowwrw:1131o,r><:31o$.;33;o:ow:r><4e990@+@@++++@++##X###X#XXX&&&&-&----qqqqqqqqqq===========================================q=qqqqqqqqqqqqqqqqq=====qqqqq===========qqqqq-q---q-q-----q-------------&&&X++#e<:o1131111133..$$$$$$",
"%%%%%%OOOOOOOOO O OOOOO%%%%%O%%O%%%O%%%OOOOOOOOOOOOOOOOOOOO%$;1oo1;..$$%%%$$.$;.;;331oooo:oo:o::::::,rw,>>><<2yyy<>,,<2>,,,<r,>>><<<<222<2tyyy5469e@@@+#X&&-q--&&&&&&X+#@++++++++++#++++@+@@@@@@@@++++++++@+++#XXX&&&XXXXX#X#+@+@0#0#@@@@@+++#@@@@@@X#XXXXX&&&-----&XX#++eyy22<<>,,rr:w::o:o:o11o1o:w:31;1wr<>><<<o;;1o:o:o:,,>>249e9e@+@##@++++###X##X#XXXX&&--&q-qqqqqqqqqqqqq==================================q=========qqqqqqqqqq-q-qqqqq======qqq===========qqqq-q-qq-q-q-------q-q--q-----&&&&&&#0965>3;3;31o1;;.$$$$$$$$",
"%%%%OOOOOO O OOOO OOOOO%$%%%OO%O%OO%OOO%OOOOOOO OOOOOOOOO%%%$.1oo1;;..$%$$.;1;;oo13oooo11oo1ooo::o::,rw,r,><<22y5t,><<>,:<>,,,,>>>>><<222222yyty460#@@++#X&--q---&&XX##++++@++++##+#+++@@@+@@@@@@@@++++++@++++#XX&XXXXXXX##+@@@@@@#0#@@@@+++@++@@@++#X####XX&&----&XX##+@92<><,>>>,rrw:::w:w:ooooooo::13;3o::y2692wo;or:wwr,>><<<4e69#0#@@@@@+++#XX#X#X#XXX&&-----qqq=qq=qqqqqq====================================qq====q==qqqqqqqq-qq-q-qqqq=======qq=========qqqqqqqqq-q--q--q-----q--q-------&&&&X#@0964233;;11113;.$$$%%%%%",
"OOOOOOO O OOOO O O O%OO%%%%OO%O%OO%O%O%OOOOOOOOOOOOOOOO%O%O%%.;oo:1;....$.;311oo1o1o:oo1ooo111ooo:o:r,r,,,,<<2<ty222>>wrr><>,,,,,>>><<2<22ttt2ttt4e#@@++#X&&qqq--q-&&##++++@+++#+++++@@@@++@@@@@@@++#++++++++#XXXXX#####@+#@@0#@#0000#@@@@+++@@+@++##++++##X&&&&&+##@#++092,wo:w,,,rrw::w:www:ooo111o331;3o,,564e4,wo:r,,y2<22tt269eeee00@@@++++XXXXXX#X#XX&&--q-qqqq===qq===q=====================================qqq=qqq==qqqqqq-q-q-q-q-qqqqqq=q=qq==========qqqqqqqq-qqq--q--q----q-q-------&-&&#+0#e94yy>r3;;33...$$%%%O%%O",
"%OOOOOOO OO OOOO  OOO%%O%%OOOOOOOOOOO%OO%OOOOOOOOOOOOOOOOO%%$$11o:oo;313$..11o:ooo1ooo131o13311oooo:r,>,,>><<22222t><r:wwwr,,,,,r,,>>>><<<2t<222254#@+###&&&qq==---&X##+++@@+++++#+++@@@@@@+@@@@++++#++++++++#XXXXX###++#0000000000@##@@@@+++@+++++#++@++##XX&&X++X0@+@+@6,o1;1owr,rrw::wwwwwwwo:o11331333or<>49#099y,>e9554y544y64000e0e##@@@++#XXXXX#XXXX&&--qqqqqq========q=============================qq======qqqqqqqqqqqqqqqqq-q-q-q-qqqqqqqqqqqq===========qqqqqqq-q--------qq-q-q-q-----&&&#@#0+94522>o1..;;..$$%%%%%%%%",
"%OOOOO OOO OO O O OO%%%OOOOOOOOOO%O%O%O%OOOOOOOOOOOO%OO%O%O%%.;3o:::o1::;;oww:::oooo1o11o113333331oo,>>>>>>>2222t,w>>rww:::,rwrrrwr,>>>>>><<<2222te+@##X&---qq===qqXXX+++@+@+++#+++@+@@##@@@+@+@@++++#####+++#####+#++#+00e00000e00000#@@@@+++++++++++@@+++#&&X+00e0@##9<,ro3;3:w:rwww:wwwwwww::o11133;3;1wwr><59@@+@4te++ee996996646e#0e00@@++##XXXXXXXXXX&&----qqqq====================================q==q=q===qqqqqqqqqqqqqqq--q-q-q-q-qqqqqqqqqqqqq==========qqqqqq-q--q-q------q-------q---&&+#e99065<rr1...$$$$$$$$%%%%%%",
"OOOOOOOO OO O O O OO%OO OO OOOOO%OOO%O%OOOOOOOOOOO%O%O%O%%%$.;;31ow,::,wr:r>,,ro:ooooo:111131;;;;11ow>><>>><tttt2>ow<,w:::ww::w::::r,,,>,,<>>22245@###XX&--qq=qq=q-&X#++++@@@+++++@@#@@#@@@@+@+@@@++#+######+####+#++++099999ee000000#0@@@@+@+++++++++@+@@++###0@669004t,,:3;.311:oo:w:::wwwww::ooo1131;.31o:r,<5e#+##@0#++@e0e000469999ee0#@#+#XXXXXXXXXXX&&&--qqq========qq================================qqqqqqqqqqqqqqq-q-q-q-q-q-q--q-qqqqqqqqqqqq===qq=======qqqq---q------q-q------q-q--&&X0e665y6e<wo;....$$$$%%$$$%%%%",
"%OOOOO OOO O O O  OOO O   O OOOOO%O%O%OO%OOOOOOO%O%O%O%%O%O%$$31::w,,,,r,>2<>,w::::::ooo1111333;.31or,<2<<<t4554y2>or,w::::w:w:ooo:,,,>>>,><<4y569@#XX&&----qqqqqq&&X##+@+@@@+@+++@@@@@#@@@@+++++++++######+##+#+++++@096966ee0000000#00#@@@++++#++++++@@+@e+##06>545442,ro;...33311o::w:::wwww:oo11113;;31o::r,<e#@+++++#++@@@@0e699e999ee0@+++XXXXXXXXXX&&&&--qqq=======================================qq==qqqqqqqqqqqqq-qqq-------q--q---qqqqqqqqqqq==qqqq=======qqqqq--------------------&-X##995y6y9ee2o...$.$$$$$%$$$$$%%",
"%OOOOOOO OO O O  O      O OOOOOOOOO%O%O%OOOOOOOOO%O%O%%%%%%%%$1wor>>>>,><<<><>w:w::::ooo111333;.;1owrw,2y5t464665y>r,rr:o:1w::o:1o::,>>,>><466e9e9#XX&------qq-q---&X###++@@@@++++@@@@#@@@+@+++++#++########+++#+++@#e0646699e0000e0000e0#@@@@@+@@++@@@@@@6e0+92,rt522>,r:o3....;;13oo:w:wwww::ooooo113..1ooo:wr>690@@#++#++++++0699eeeeee990@+@#X#X#X##XX&&&&&--q=========================================q=qqqqqqqqqqqq-q---------q-------qqqqqqqqqqqq=qq--qq==qqqqqqq--&&----&------------&&&X#ee44494542o;.$$$$$$$%%$%$%$$%%",
"OOOO O OOO O   O      O  O  OOOOOOO%OOOOOOOOOO%O%%O%%O%%%%%%%$$r,,><<>>>>>>>>,,w:::::oo31o113;.;;;rr,>,2y46666664y<<rw:::1w:o:oo1o::,<,<r>>249@@##+X&---qq--=qqqqqq-X###+@@@#@+++@@@@@#@@@@@++++++######X###++++@#@#6945y44664ee0eee000e969#@@@@@@+@+@@@@@9<594wwo>>,>rw:oo3;..$.;33o:r:w:ww:::ooo1111..;1oo:oor,<46e9e++#++++++0e09e000e9999#@@+####+++#X&&&&&--qq=========================================q=qqqqqqqqqqqqq-q-q--------q--&---qqqqqqqqqqq-q---qqqqqqqqq---&-&-&&-&---&&&-------X+e49496062<r:;.$$$$$$$$%%%%%$$%O",
"OOOOOOOO OO O          O O OOOOOOO%O%O%O%OOOOOO%O%%%%%%%%%%%$$1r,,<<2<>>>>,>,,,r:ww::oo11113;;$.;3w,,>2546666e965y<>,oo:oo:3;1o11313w2<wr,><2490+#X&&-qqqqqq===qq---X##++@@##@+@@@@@@@@#@@@+@+++++#+####+##+++@@0ee945y55>555460ee9e99e4644e#0#0#@@@0#@@064<,2w::1:,:w:ooo13133.$;;33o:wwww:rw:o:o1113.;31oooo::r<>54e@@@+++++@@##0e0e0e0666690#++++++++#&&-----qq=========================================qq=qqqqqqqqqq-q--q-------------&&&-qqqqqqqqqqqq----qqqqqqqq--&&-&&-&-&-&------------&+@@e@#+@e<>,o;.$$$$$..$%%%%%%$%%",
"O%OOOO OOO O O     O O O O O O%OOOO%OOOOOOOO%%OO%O%O%%%%%%$.$3;w,,><2<>>>,,,,rrrwww:oooooo13$$$.1owr,<<566669e9642>,,3oo11;..;113.;.r<>,,>>><t09+#X&-q=========qq-&&X##++@@@@@@@@@@@@###@@@@@@@++#++++++#+#++0#0e9664tyy<>y5566e94yt569tt,490e00e0ee00##665<,w:o1331oo:oo13;;3;11;;;;11:wwwww:w::11o13;;oooooowrr,<tty66e@+@@@@@0#0000000946600@+@@#0@++X&----qq=============================================qqqqqqqqq-qq-q-----&&-------&&&&&qqqqqqqqqqqqq-&--qqqqqq---&-&-&-&&-&-------------&##+@+++e42,,w1.$$$$....$%%%%%%%%",
"%O%OOOO   O    O O OO   O O OOOOOO%OO%O%OO%O%%%%%%%%%%%%%%$.;3or,>><<,>>>,,,,,rw:w::ooo11o3$$$%$.3r,,<y544549e64t2,r:;333;.$.;3;$..1><>>>,>,<e9@+#&&--q=========-&&XXX#+@@@@@@@@@@@@####@@@@@@@++++#+++++##++0eee665yy55>>t25y545t>,y>>>r>25264e95ee00e9e5y<,roo333331313;...$$$$..;;;1w:rrwwr:::oooo1;3o1oooowrr>>,22254#@@##0000#0#00000966690#@@#0++#X&-q-qqqq========================================q=qqqqqqqq-q-q---------&-&&------XX&&-qqqqqqqqqqq---&----qq--&&&&&-&&-&&-&------------&XX+@@+@0yy5y2o.$$%$.;3.$$%%%%%%O",
"OOOOO OOOO  O O OOOOO O  O OOOOO%OO%O%OOO%%%%%%%%%%%%$$%$$$;;:::,,,,,,rr,rr,,,r:o::oo11113;$%%%$.::>><ty5556466y2,:r:o;;..$$..;..$.wr,>><>>r49@++&&&&qq=======qqq&&XX##++@@@++#@##@@###@@@@@@#@@@++++#++#+##@#e9944y5y2y4<22554y2<<>2,,:,,,<ttyy25ee0ee65yy2w:ro33;;;;;...$$$$$$$$...3ooo:wwrw,rwwroo11:o1o1oo:r,>,r,,yy5#@@09000ee0#00##0e69669e#0##++#X&--qqqqqq================================q====qqqqqqqqqq-q-qq-q----------&-&&---&&X&&-&q-qqqqqqq-q----------&-&-&-&&-&&--------------&-&&#+@+@e5566tw..$$$;33;.$%%%%%%O",
"O%OOOOO   O  O OO%OOOOO O OOOOO%OOOO%O%O%%%O%%%%%%$..$$$$.;3o:::,,,rr:w:wwr,r:oo:oo31333;$$$$%$$.11,><<y5y54y45t>r:ro3;..$$$$$.$$$1;11:2<><44#@#X-&---q======qqqq&&XXX#+X++##@@##@@##@#@@@@@@#0@+++++++#+#+##0e944545t2y522<<y2<2>r:ooo:wrrw1>>>22eee99645t<wrr133;3;..;$$$$$$$$$$$..;33::www,ror:woooo:ooow::,>>,r,>>>2y900e9999ee0##0#000e64996000#++X&--qqqqqqqq==============================qqq===qqqqqq----qq-q--------&&&&&&&-&-&&&&#X&-&--qqqqqq-q---&&-----&&&&&&-&-&-&-&------------&&&X#+@+#46996t2:r,..o1o3.;%%%O%OO",
"OOOOOOO O O OOOO%O%%OOOOOO OOO%OO%O%O%O%%%%$%$%%$$.......131o::ow,,wrwr::wwroooo33o3;;;;.;$$%%%$;..:,,<22yy6446<>w::o1;..$$$$$$%$$..;.:r>><tye@X&-X&&-q======qqq-&XXXX#XX#X#####0#######@@@@@@00@@++++++++++#0045544ty555r2t222,r:o:ooo:o1o:111o<t4906e64452>r:o1;;.;....$$$%$$$$$$.;.333ooww::w::woo:oooowww>,>>>>>,:r<26649446460000e0eee9666e9e00@++X&&--qqqqqq=q==========================q=qqqqq==qqqqqq-q----q-------&-&--&-&&&&-&&&&XXXX-&q--qqqqqq-q&&&----&-&&&&&&&&-&--------------&&&&XXX+005yt5y4442,.,,oo3;;$%%%%%O",
"OOOOOOOO OOOOOOO%%%%%OO O OOOOOO%O%O%O%%O%%%$$$$...;.;;;;3311:w::rr>,rr::wwwooo:33333;$$$$$$%%%$$33o,>><>254ty2>,:o:o1.;.$$$$$$$$$.;.;1r><54y+#X&-XX&q=======qq-&X&X&&&XXXXXX#+00#00####@@@@+###@@@@+++++++#0065544455556t2222r31oo1o13311oo1o1o,t5t466y4y>,,::o;;;;;;..$$$%$$$$$$$$.;;;;11or,,rrrwo:o:o::>,,<,>,,rwwww>2yt44445449900e9e9e96464690@+#XX&X--qqqqqqq=======q==================qqqqqqqqqqqqqq--q--q-q---------&-&&&&&&--&-&&&##XX&&---qq--&-q--&&----&-&&-&-&-&---&--&-----------&&X+++@0465605,2wtyt5t>11;$%%%OOO",
"OOOOOO OOOOOOOO%%$%O%OOOOOOOO%O%O%O%O%%%%$$%$%$$...;;;;3;;331::wo:r,,>ww:wwwwooo331o11;$$%%%%%%%$$.31:>>>yt2y<2w:::o11;;.$%$$$%$$.;33oo>255@@X&----q-q======qq-q-&&X&&&&&&&&&++@0000000#@###@##0@@@@+@+++@#9646445yy5555y555wwo3313;1331331o;11:rw:t>,><<<<,ro:11;;....$$$$$$$$$$$$$...3o::rrr,rrrr::o::oo><,>><>ww::r:,t2ty55y5y46e#009966966644e0@@++#X+&X-&--qqq======qq=q================qqqqqqq-q--qq---------&-----&-&-&-&&&&&&&-&X&&XXXXX&--q---&&-&--&&---&-&&&&&-&&&-&--------&------&&&X&#++0y29e52,,r2>2yy::11$$%%%%O",
"OOOOOOOOO%%O%%%%$$%$%%OOOOOOO%O%O%O%%%%%%%$$$$$$$$$....;;;;31:1ooo:w:,:ww:wwwo11311oo:;.$$%$$.%%$$.3o:ww<<52:w:oooo1133;.$$%$$$$$;3o:r>>555++&X&-qqqq========q-q&&&&&&--&-&&X##@0ee00##0#00#@@@##@@@@++@#e64446655t<<2<2>,>owro3.1;3333;;;;;333rro:,,oww>>rwoooo1;;....$$$$$$$$$$$$..;331o:r,,,ww,ro:::,:<r<,><><,,>w:o,>2ttyyyyy59#0eee9646664446#@@@@++#++##---qq======qq=q================qqq-q-q--------------&---&-&-&-&&&&&&&&&-&-&&X#XXX&&&&&---X&&&&&&&-&-&&&&&-&-&-----&---&--&&-&----&&&X+#+0#5e4,4,oo22y52w:3.$$%%%O%",
"%O%OOOOOO%OO%%%%$$%%%O%OOOO%OO%OO%O%%%%%%$%$$$$$$....;.;;;;33;o131ow:wo:ww:::::ooo:1woo3$%$$$.$%%$$.3ow:>t<>o:11o:o111;;.$$%$%$$3311o,>><2+#9+---qqqq=========qq-&&-&----&&&XX++#e0000#0##0000#0#@#@@@0#ee6444y552<<<,,,r,,ww1..;.;;;;.;...$.1;o.331:3ooo1o1oo13333......$$%$$%$$$$$.;11ooo:rwwwwrwo1:,,,>22><,><,>>:wor<t2t2ttty6e#0e966664664466e@@@@0##0++XX&-qqqqqqqqq=qqqq=============qqqqq----------------&-&&&-&-&-&&&&&&&&&&&&--XX##XXX&X&&&&X&&-&&&&&&&&&&&&-&-&-&--&-------&-&--&--&-&&##+@e0494y<4w:<<>2>;;3.%%%%%%O",
"%%%OOOOO%O%%%%$$$$%$%%OOOOO%O%%%OO%%%%$%%%$%$$%$%$%$$....;;33333331oow:www:::woowwo:o1:1..$$$$%%$$$.3;1w,>wo1;;;:::oo13;$$$$$%%$;1ooo,><222e+#X&-qqq==========qq&---------&XX###+@0000000#00000#@@@@@09e0e64545yt<>>rrr::rrw1;............$$..333.......;..;;1133;.....$$$$$$$$$%$$$.;;3oo:r:::wo::1:,,<,>2>>>>22>>>rw:>><222tty990#09996466466446900e###00##+#X-qqqqqq-q-qqqqqqqq========qqqq--------------&-&-&&&&-&--&&-&&&&&&&X&&&&-&&###XXXXXXX&&XXX&&XXX&XXX&&&&&&-&-&-&---&---&--&&-&----&XX#+@@0yy1,,<y,y,,,..;;;.%%%%OO",
"O%%%OO%OOO%%%$$$$$$$$%%OOOO%%O%%%%%%%%%%%%O%%$%$%$$$$$..;..3331;;31oo1::::ww:w:owww:ooo1...$.%%$$$$$;.;33r;.;..;oo:o133;.$$$%$$$$.111wr>2<t56+XX&qqq==========q--&-qqq----&&X&XX#+@00#0#000000e#00@@@999444yyyytt2>,::w:oooo31...........$$$.$$.........;.;;;;;..;.......$$$$$%$$%$$$;3333.1oo3.3331ooo,>>>r,>>22>r,rr:<2<2<225449000999496996644699@@#0+@@@+##X-qqqq-------qqqqqq=========qqq--q----&--&-&&&-&&&&&&&&-&&-&&&&&&&&&X&&-&&&X###XXXXX&XXX&XX&X&XXXXX&&&&&&&&--&------&--&--&--&--&-X#+#90@t>w:1y45,w1ooo..3$%%%%%%",
"%%%OO%O%%%%%%$$.$$$$$%%%OO%%%%%%%%%%%O%%OO%%%%$%%$$$$$....;;;;333311oo1o:::wwwoow:o:oowo33;.$$$.$..$..;;.;$$;.$.3oo:13;;..$$$%$%$..31:w,<>244e++--qqq=========q---qqqqqq-q-&&-&XX#@@0e00000e0eeee0@@e99444t555ttt>>wo:;o;3;;$$$..........$$$$$$.........3....;.....$$..$$$$$%$%%$$%$$$.33....;...;13.3..1:,wr,,,<<,,wr><><2222t560000e0ee0ee9964469e@@@+++@+#+XX-q-q---------qqqqqqqqqqq===qqq------&-&--&&&&X&&X&&&&&&&&&&&&&&&&&XX&-&-&&X###X#XXXXXXXXXXXXXXXXX&X&&&&&&&&--&-&--&-----&-----&-&&X###04t>w1>t6t,,;,:33;.$$%%%%O",
"O%O%%OO%O%%%$$.....$$%%%%%%O%%%%%%OO%OOO%OO%%%%%$%$$$$$$...;;3333111o1o1::wwrwo:wowooooo::..$$;..;3;.1o;..;$$$$...3oo33;;.$$%$%$1o5>><:,>>2460++&---==========q--qqqqqq-q-q--&&&X+@@#e0ee0eeee99ee0065944y22252t<>>,::1;;3;;$.....$$$$....$$..........;.....$$$..$$$$$$$$$$%$$$%$$%$$$..$.....$%.1.$%%$%.3:owrrrr<>wrr><><<<22t469eee@00e0@ee999ee#+++#+###+###X&&-&&&------q-qqqqqqqqqqqqqqqq------&-&&&&&&&&XX&X&&&&&&&&&&&&&&&&&X&&&&-&&X###XXXXXXXXX#XXXX#XXX&X&&&&&&-&&&-&----&--&---&-&---&&&X+#<<<>1:::25:o1,,331.$$%%%%%",
"%%%%O%%%%%%%$$....$$$$%%%%%%%%%%%%%OOOOOOOO%%%%%%%%$$$$...;;;;33313111oo:::wwr:w:oo:oo11::o3$.;;33;;:::3$$$%$$$$$.;;;;;;...$$$%$o546#525<22t6e6##-&-qq=========qqq===qqqqqq---&XXX+@#e999eee999949ee652<<<<25t<<>>r,w:;.........3....;.3;;.......$$$..$$$$%$$$$$%$$$$$$$$$$$$$$$$$$$%$$$$.$%$$%%$$$%$%%%%%3;1:rr,,::wwo,>><<22y546690#@##0#ee09469#@+@+++###XXXX&&&X&&-&------qqqqqqqqqqqqqqq-q---&-&-&&&&X&X&XXX&&&&&&&&&&&&&&&&&X&XX&&&&&&###XXXXXXXXXXXXX#XXXXX&X&&&X&&&-&-&---&--&--&----&-&&&XX#@6yy>w2>54t:wo<<<o,.$$%%%O%",
"OOO%O%%%%%%$$....;.$$$$$$$$%%%%%%OOOO OOOO%OOOO%%%$$$$$$$$;;;;33131111111:::,,w::o:w:;11:::1;33111.31;;;%$$%%%$$$$.........$$%$;<59##+94t49440@@#XX-q===========q===qqqqqqqq-q--#X+@00e9eee669644695522><>><4t>,rwww:o33;;;.;;...;.3;1333;;;......$$$%%%%$%%%%%%%$$$$$...;;..$$..$$$$%%%%%%%%%%$%$%%%O%$$$$;1:oo:w::1o1o,r,<22ty54e0#00+@@#e0944496##@@+@++++##X#XXXX&&&-&---q--qqqqqqqqqqqqqq-----&-&&&&XXXXXXXXXX&XXXX&&&&&&&&&&&XXX&X&&&X#####XXXXXXXXXXX#X#XXXX&X&X&&&&&&&&-&&-&----------&&-&&XX#065<45>5<<rr>r<<<1.$$%%%%%",
"%OOO%%%%%%$$$$.$...;$$$$$$$%$%$%OOO  OO OOOOOOO%%%%$$$$$$..;;;;331331111ooo:,,w:o:ww:3;1::,o113::3;.13.$$$$$$$$$$$$..$...$$$$$1.>rw6#9@e00@@+@++#X&-===========qq===qq===qqqq--&&X++@+@e9996666445552><>,>,252,:rooo::o3;;11;11133;11113;;;......$$$$%%$%%%%%%%%$%$$$$...;;;;....$.$$$$%%%%%%%%$%%%%%%OO%%$.o::oo:13o1oo::,>2>tyy690@0@+++@@e46644900@@@+++@@++##XXXXX&--&-----q-qq-q-qqqqqqqqq------&&&&XX&XXXXXXXXX&&XX&&&&&&&X&XXX&XXX-X#X##XXXXXXXXXXXXXX#XXXXXX&&X&&&&&&&&&&&&--&----&-&&-&&&&X##++6t546962tw>>r<<o3.%%%%%%",
"%%%%%%%%%$$$$$...;...$$$%$$%%$%%OOO O   O OOO%%%%$%%$$$$$..;;;;33331311o:oo::r>r,r>>o1o:oooo31o11.;;33;$.$$$$$..$%%%$$.;$$$$%$31>544e44e@X&XX&XXXX-q===========qqq=======qq-q--&-&#X#++@6966664555t2<>><<<>t>:www:w:::::::o::o1111131113;;;;.....$$$$%%OOOOOO%O$%%$$$$....;;;;.;;;;;;.$$$$%%%%%O%%%%%O%OO%$;;3o:o1.1o3;3o::ww:>t59e0#+#@+@+#9664646e##+@@@+@@+#+#+##X&&&&-&-&-----qq-q--q-qq------&---&-&X&&XXXXXXXXXX&X&&&&&&&&X&XXXXXXX&&X####XXXXXXXXXXXXXX#XXX&X&X&&X&&&&&&&&-&-&--&---&-&&&&&&XX#X+99@@#066t<t><>:o.$%%%%%$",
"%%%%$%%$$......$$....$$$$$$%$%%%OOO O O OOOOOO%%%%$$$$$%$....;33333331oo:::::>>><2>rw13:o;;o:::3.;;;.:111..$.33;$%$%$%..$$$$$.11o226+440XX--&-&&&&-qq=========qqq=q======qqq---&&&##X##0996645455yy<>,>>r,,r,,wwww:,ww:wrrwr:o1$33;;;333;.;......$$%%%%$%%%OOO%%%$$$$$$$........;;;3;;.$$.%%%$$$%%%O%OOO%$$.;;;33;.$.;;;;;11::t5590#0@@+@@@0e9644666e#@@@@@@@#+##++##X&&&&&&&&------q--q-------------&&&&&&XXX#XXXXXXXXX&X&&&&X&X&XXXXXXXXXXX##XXXXXXX&XXXXXX#XXXXX&&&&&&&&&&&&&&&&&-&-&&&-&&-&-&&&&#XX#@@@@##0@94t5y2owo$$%%$$.",
"%%%%%$%$$.;;;3.......$$$$$$$$%%%OOO  O  OOOO%%%%%%$%$$$$$..;.;;33;;;3ooo::::,><2t22>,o..;;.3:o:313;.;;;;;3$$$133;$$$%%$$$$$$$:::,9e6942#X&&-&-&-&&qq==========qq===q====qqq----&&&X#++@#964454444yyt>>>>>>,,>,>,<>>>>,,w,,roo;$$$$$;;;;....$%$$$..$%%%%$%$%$%%%%$$$$%$$$$$$..$$..;;;;133;....;.$.%%%O%OOO%$%;3;3...$..;.$$;;3wt4499#@+##+@0e99944446e#@@@@@@@++###++##&XXX&&&&&----q-----q-------&--&&-&&&X&XXXXX#XXXXX&X&&&X&XXXXXXXX&XXX&X###XXXXXXXX&XXXXXX#XXX&&&&&&-&&&X&&&&&-&&&&-&----&&&&&&&&###+#+@+@++@e442<:;.$$$.3.$",
"$%$$$$$.$;;3333..;....$$$$$$%%%%OOO O  OO OOO%%%$%$$$%$$%$...;;;;;3;331o::w:r>22tt<<>o3..$3:>w:11;;;.;o;;...1313;$%$%%$%$$$$,55yt<6699##&&&------q-q==========qqqq=q====qqq-q&-&&&##++@#944444545yyyt22><,,,>2,,2<2>,>>r:rw$$%%$$$$%%.....$$%$$$$$%$%%O%%$$$%%%%$$$$$$$$$$$$$$$$$...;;311o133;..$$%%%%O%O%O%%$$...$$.$$$$%$.3r4469ee@+X#+00e9994455690#@0@@+++X##++++@##XXX&&&&&-----q-----------------&&X&XXX###XXXXX&X&X&XX&XXXXXXXX&X&X&XX#X#X&XXXXXXX&XXXXXXX&&&&&&-&&&&&&X&&&&-&-&-&-&-&&-&&&&&&X&++##@+X@@##45y<,3;$$.ooo.",
"$$$.$....113333.;....$$$$.$$$%%%%OO  O  OOOOOO%%%%$%$$$$$$...;;;;;;;31o1o:::,>22tt<2>13o..1,,<>11;3o..oo13331331;.$$$$%%%$.r,59et2tt9++##&&X&X&--qqq=========qqqqqqq=q=qqq-q---&&&##++@006454544555ytt22<>>,>><<<t222wrr:;;%%%%%%%%%%$%$$.$$%%$$$$$%%OOO%$$%%$%%$$$$$%$$%$$$$$$$$$...;311o11;;;;..$$%%%%%O%%$.$$$$$$$$$$%$$$rr546999e@+@@0eee94444569e000#+++#X#####+@++##X&&&&-&&--q-q------------&-&-&&&XXXX#XX##XXXX&XXXXXXXXXXXXXXX&X&XXX##X&XXXXXXX&XXXX#XX&X&&&&&&&-&&X&&&&&&-&&-&&-&--&&&&&&&&&X#X#++#+++@9552<w;.$$1o:r.",
";$.;1331o133333;;;..$.$$..$$$%%%%OOO   O OOOO%O%%%%$$%$$$$...;;;;..;11111o1o,><tt<<2>1;o3:r,,<>ww3:;o131;.33;3;;;.$%$%%%%.:w>e99te9e@+++##X-&-&-&--q========qqqqqqqq====qqq-----&&##+@+@066445544yy45tyyty22tt2tttyw,::;;%OOOOO%OOO%$%%%$$%%$%%%$$%OOO%O$%$$$$$%$$$$$$%%%$$$%$$$$$$..33o:oo111;.;..$$%%%O%%%%$$$$$$$$$$%%%$$3t546669ee@ee0ee95455ty569e000@++########+@+@+X#&&&&&---------------------&&XXXXX#X##XXXXXXXXX&X&XXXXXXXXXXXXXX&##XXXXX&XX&XX&XXXXXX&&&&&&&-&&&&&&&&&-&&-&&-&-&&&&&&&&&&&&&#X#@+#+#+@6t<<ww;.$:1>,>1",
"3;3o1ooo1133131;;........$$$%%%%%OOOOO  OO OOOOO%%%%$$$$$$.....;..;;;;331ooww,<ty52<r:.1,r,>y<,rwo1;133o131..;;$$$$%$%%$$%..<2@@@@0+#XX+##X&&&&X&&&qq========qqqqqqq=qq=qqqqq--&&&X#+++@@6645554444444yt2yytt222t2,w1.;;%OOOOOOOOOO% O%%O%%%%%%$%%%OOO%%%%%$$$$$$$$$$%%$%%$%%%%$$$$;33oo3oo33;..;....%$%%O%%%%$$%$%$%$$%$O.$3>4446649999e9ee6545tty5469e0@@++#####+X#+@@+++#XX&&&&-&---q--------------&X&&XXXXX####XXXXXXXXXXXXXXXXXXXXXXXX#X##XX&XX&XXXXX&XXXX&&-&&-&--&&&&&X&&&-&-&-&-&&-&&X&XXX&X&&&&X#++@0+@e5,,:ooo;;or<<2,",
"31:::o:13311111;;........$$$$%%%%OOO        O O%%%%%$%$$$$$...;.;;;;;;;;;3o:w>>yy55>,2,t:,t54yy,,11331.1oo13;;$$$$$$$%$$%$%%,,2<0+0#X##@@@XX&XXXX&-qq========qqqqqqqqqqqqqqqq--&&&X##++@0699445544544yyt22<t<>><><>13$$%OOOOOOOO O%O OOO%%%%%%%%%%O%O%OO$%$%$$$$$$$%$$%$%%%%%$%$$...;.11oo13;;.....;.$$%$%%%%$%%$$%%$%$%O%.;:,24454666tt<669455yy2<y5566e09@+++++#++#+#@++++#XXX&&&---------------&&--&&&X&XXXX##XX#X#XX#XX##XXXXX##XXXX#X####XXXXX&XX&XX&XXX&&&-&--&--&-&X&&&&&&&&-&&-&&&&&&XX#XXXX&&&&X+X+0@+#4>roooo1131><2<w",
":o::::o1;31:o:13;.........$$%%$%OO  O   OOO%O%%%%%%%%$%%$$$.$..;.....;;3;1o:wr><ty4t2>>r<<666yy<,:o3oooo::o33.$$%%%$%$$$%%%$%$.ye##X&&#@@++++##+#&--========qqqqqqqqqqqqqqqq--&-&&XXX++@@e66644454644tt2>><,,r,>rr:o;$%%OOO O OO O  * * OOOOO%%O%%OOOO%O$$$$$$$$$$$$%%%%%$%$%%%.$$$..;;1o:o;;;;.....;.$.$$%%%%$%%%%%%%%%%$or>,<555446<wwr:y56645yt<2y5545969@@0+@+++++@+@@+#+###X&&&---&&-&&&-&-&&-&&&&&&&&XXXX#X#X#X#XX####XXXXX#X##X##+######XXX&XX&XXXX&X&X&&--------&--&&&&&&&-&&&&&&X&XX##X#XXXX&&&&XX#@ee@9t::o:311,,<2<>,",
",ww:w:11131:o:13;.........$$$%%%OOO O OOOOOOO%%%%%%%%%$$$$$$$$........;;3o1:ww22ty542545ye96964<>,o3o;::::o3...$$$$$$$$$$$%%%%$.99+#X++@@#+#+@#+X&qq========qqqqqqqqqqqqqqq----&&&XX#+++@@#006466964552>,,wr,,r:wo1;.%$%%OOOO OO   * *  OOOOO%%%OOO%O%O%.$.$$$$$$$$$%$%%%%%%%$$$$$$31;;;o1o11;;.........$$$%%%%%%O%%O%%O$$3r>w<<55544<o33>244666t2<5yy445ty69e6@@++@+++@+@@@@+#X#&&&XX&&&&&&&-&-&-&-&&&&&&&XXXX######X#########X#X##XXXX####+++#XXX&XXX&XXXX&XX&&----------&-&&&&-&-&-&&&&XX#X####&XX&&&&&&#X@e@92<>o3ooo,<y2<,r",
"rw:w:13;1o:::o133.;......$$$%%%%OO OOOOOOO%%%%%O%%O%%%%%%$$$$........;;;;113oo,<2yyy5699#0e0e952<>o:oo:wwo3;3....$$$$$$$$$$%%%%$$:w2255y9##+@+X-&&-==========qqqqqqqqqqqq--q&-&&X&XX###++@#0e466996622<>,oo:ooo113;..$$%%OOOO      ****  OOOOO%%%O%%%%%%$$.$$$$$$$$$%%%%%%%%$%$.$$$$$;1;..o133.;..........$$%%%%O%OO%OOO$%;;<2<,5522,>o;;,tyyyytyt2<225<t2<45y60@@@++##@@@@@@@###+XXXXXXX&&&&-&&-&&&&&&&&&XX&X#X#############X#X##X####++####+###XXXXX&XX&XXX&&X-----q------&&&&&&-&&&&&&X&X##+###XXX&X&&&&&X#@055t>o1r,w2222<rr",
"ww::111o11o::o113;;;.;;..$$$%%%%% OOOOO O%%%%%O%%O%%O%%O%%$$.........;;;;333ooo,,t2254600##00992<<<:or:w::13;;$$.$$$$$$$$%%$%%%%%$..1rr>52e@@#Xqqqq===========qqqqqqq-q------&&&&XXX#++##@#994666654y<>,:1o133o;3;..$%%%$%%O  * ** **    OOOOOO%%%%%$$$%$$.$$$.$$$$%$%%%O%O%%%$$$$;.$....1o113;....$$.....$$$%$%%%OOO%O%%;;;>,<<,><w,ow3r,2tty22y22<y2222t<><2y4464e+++++@@@@@+##X#X#X#XX&X&&&&&&&&&X&XXX&XXX##X#+###+++##+#+#X###XX######++#+#+#X&XXXXX&XX&X&X&&&--q-----&-&-&-&&&&&&&&&XXX##++#X#XX&&XX&&&&X#+@e5<>:>><22<<>,r",
"rrrr11o:oooooo13;;;;;.;....%%%%%OOOOOOOOOO%%%%%%O%OOOO%%%$$$..........;;;;333ooo222t2t9e0#00#9652t<:rrro::111.$$$$$$.;$$$$$%$%%%%%$$o:wr,290##&--qq===========qqqqq-q-------&&X&XXXX++#+++@996644444t2w;$.;;;3;..$$$O%%OO%OO%O ***** *     O OOO%%%%$$$%$$.$$...$$$$%%%%%%%%%%%%%%$$..$;1ooo33;;;...$....;..$%$$$%O%OOOO%%3w:,>>,,o:1113o>2>>,,r>>><>>,>2<,,r>>,2>y6#++@#ee@@@@##X#XX#X###XX&&&&&X&XXXXXXXXXX###+##+#++#+##############+#+++++++#XX#XX&&&XXXXX&X&-&-&--&&&&-&&&&&-&&&&XX&X###++++###X#X&&X&&&XX#@@@42>>><<<><,,,",
",,,r::o:o:oo1113;;;;;;;;..$$%$%%%OOOOOOOO%O%%O%OO%O%O%OO%%$$$...$$$......;;;3oww2222tt9e#@##@#0e4454,,,:oo133..$$$.;13.$$$$$%%%%%%%$$3wo,tt60#-qq============qqq--------&&&X&&XXX&XX##X#+@e646644455y31$%$%$$$$$$%$%OO  OOOO O  **7**    O OOOOO%%%$$$%$$$$$$...$%$%%%%%O%O%%%$%$$$$$$;1131113;3;;....$....;.$$$$%%%%%%%%%$$;:3:o:w311.1:,rro;o:r,>>>,,,,ww,roo,,,<y00e00#e0@@+@###XXX+#+##XX&&XXXXXXXXXXX####+###+#+##+#+#+#+++##+##++#++++@@@++###X#&XXXXXXXXX&&&----&&&&&&&&&&&&&&XXXXXXX###++#+##XXX&&&&&#+@@#@95<>><2<>,<<<",
">,>,rrwww:oo11133;3;....$.$$$%%%%%%OOOOO%O%%%%%%OO%OOOO%O%%$$$$$$$$$$...;;;3;ow<<2<>2590@@@#@##0e96<<r,:o133....;3oow1;$$$%$$%%%%%%%$.3ow<26@@&-q============qq----------&&&XXXXXX##XXX#+09966666655,:.%%%$$$%%O%%O%O O  O    *******     O  OOO%%%%%$$$$%$$$..$%%%%%%%%%%%%%%$$%$%$$$;1131333;;;;...........$...$.%%%%%%%%$$.;.31w;1;.::::w:131orr>,,rrw:::oo1>w,<ty9996ee0#@+++#X#XX##+@++#XXXXXX#X#X##+####+#+#+#+++++++#++++++++++++@@@@@@@@+#X+XXX&#X#XXXXXXXX&&&&X&&&&&&&&&&&XXX&XXXXX#+#+@+++##X&X&&X##@@+@094y2<<<>,<<y<",
"2>>,,rwrw:::o1133333;...$$$%$%$%$%%%OOO%O%%O%OOO%OO%O%OO%%%$$$$$$$$$$$..;;31:wr><<<><y4e#@@@@@#00e9y>,::o133;..;;3ooo:$.$$$$$%%%%%%%$$.3w><5+#&&q============qq---------&-&&#X#X##XX###+@#e966666455,,$$$%%%%%%OO%O   OO      ***7****     OOOO%O%%%%%$$$%$$...%%%%%%%%%O%%%%$%$$$%$$$$;;113;.;;..;.........;;;;...$$%%%%%%%%$$.;;3;..$;3oo:o3;;1:r><>>,,,>r:oo1r,<<566969ee00@@@@###X##+@+####XXX#X#X###+##+##+#+++#+#+++++++++#++#++@++@+@@@@@@+###XXXX#X#XXXXXX#X&XX&#XX&&&&&&&&X&#XXXXXX##+@@++#+##&&XX+++@ee@#99yyyt>>>>tyt",
"t2>,w:,,,wooo1o1333;;....$$%%$%%$$%%%%O%OO%O%%%OOOOOO%%%%%%%$$$$$$$$...;;31ow,>>><<<<56e@@@@@@##0ee55<ro11;1;;.33o<,rr..$$$$$$$%%%%%%%%$;1o99X&qq===========qqq--&------&-&&X####X#####@+0999999645yy;$$$$%O%O%OO     OOO O* ****7**** *    OOOOO%%%$%$$$$$..$$%%%O%%%%%%O%%%%$$$$$.$$.;o11;;;...;...........;;;;;..$%%$%%%$%%$...$$$$$.;;31;;;;1ow><22<2<2,w:o:or>,2y69699669e@0#@@+##++@@++###X###X+##+#+##+#+++#+++++++++++++#++#+@+@+@#@@@@@@+++###XX#XXXX&XXX+##XXXXXXX&&&&&XXXXXXXXX###+@@@@@++#+#XXXX+@e##@0e6666y2>,2245",
"5y>>,::r:rww:o113;3;;....$$%$%$%%$%%%O%%%OOO%%%OO%O%OO%%O%%%$$$$$$$$$$.;3oo:wr,,>>><t5ee@@@@@@#0eee422o:11oo33w::52>y:33;.$$$$$$$$$%%%%$$;>5e#qqq===========qqq---&----&-&-&XX###XX#++++@#969966455y>;..$%%O%%%OOO     O * **7*7****** *  O OOOO%%%$$$$$$$.;;$$%O%%%%%%%%%%%%%$$$$$.....1;3;3;.;..;....;...;.;;;;;;.$$%$$%$%%%%%%$%%%$$$..;;.3..3ow><222<22>rw::rr,<<t44569665e90#00@@@+@@@@@#+XX#####+#+##+#++++++#++++@+#X#++++++++++@@@@@@++#+++#+X#XX###XXXXX#+++XX&XXXX&&X#XXXX#X##X#X##++@@@@+++#X#X#@@e9e#@#64999y2>>t464",
"4452<w:w:wr::o113;;;....$$$$$%%%$%%%%%%O%%%%OOO%O%%%O%O%O%%$%%%$$$$$$$;3;o:rr,>>>>>244e#@@++@@@00e94ytro1oooo::w<5yyt>333;.$$$$$$$%%%%%%$$>te&q============qqqq---&&-&--&&XX#####XX+@@@##9999964452>>13$%%%OOOOO O     ****7*****7*****     OOOO%%%%$$$$..;;3$.%%%%%%%%%O%%%%$$$.....;..;33333;.;..;;;;;;;;;;;;;;3;;.$$$$$%%%%%%%%%%%%%%$$.;;..31:o>><<2222<>>r:r>w2yt54445y4999@@eee0@@@@@@+###X##X#+#++++#++@++++++++@+@+++#++++#+@@++@+@+@++##X##X+#XX##X##XXX####XX&X+#X&&XX##++#++#XX#+++@@00#@++###+#+09900#0646445yttt664",
"455<,,:o::ow:oo3;;;..;.;.$$$%$%$%$%$%%O%%%%%O%O%%%%%OOO%O%%%%%$$$$$$$.;1;3w:rr>,>>>t55e#@@@++@@@0e96y<r:o:o:wr:,5y4tto13;...$$$$$$$$%%%%%$;13#qq==========qqqq-q--&&&-&&&XX#####XX#++@#e0eeee94y522<,:1.$%O%OOOO  ** * ****7*  ******     OOOOOO%O%%$$$$..;;.$%O%%%%%%%%%%%%%%$....;...;;31333;;;;;;1113;313331333333...$$$%%%OO%O%O%%%$$.$.;;;331:r>>><2222<>r:::>,<yy6595t499e0@#09e@e00@++++XX#X####++##+@@@++++@@+@@++++##@++@+@+@+@++++###X&&XX#X######XX#XXXXXX&&XX#XXX###+@++++####+#+@00000@@+##+++00e6ee99444465yt25466",
"555><,roooo:::1;;....;;;..$$$%$%%%$%%%%%%O%%OOOO%%%%%%O%O%%%%$$$$....;31.13ooow>>>><t400#@++@+@@@99455www:oww<><444tto1;;....$$$$$%$$%,3%%$:5<#q===========qqqq----&&&&&X&X##X###X##+@@@@@006646t2>>ow1..$%OOO    ******7*************   O   OOOO%%%$$$..;;;$$%%%%%%%%O%%%%$%$$.;.....;;;;;331o33oo11oo1111131o3;3313;;...$$%%%%%%%%%%%$$$....3331o:,>><<<t2<2>w,>w,<<544492569e#@0#e+99000@@@+##X#X##+#+++++@@@+@++@@+@@@@+#++++@#++@+++++++X&XXX##XXX++X####X&X&&&&-&&X#+#+@+@@@@@@@+++#+@@@0ee0##@@+@#@@09e69e94444444y554664",
"444y>>:o1o1o1o;3;;..;;;;;..$$$%$%%%$$%$O%%%O%O%%%%%$%%%%%%%%%%$$$.....oo.;;131o>><>>t40e0#++++++@e64<<<,::w:r><254y<>o133;;;..$$$$$$$$;9o$.o4<+&===========qqqq---&-&&&XX&XX###X###+@@+@@0eyy2,52<<,w1o;.%O      ***7*7*7**7* *******      OOO%O%O%%%$$..;;;.$%%%%%%%%%%%%%%$$$;;;;..;;;31o:1o1oo1oo3oo1111oo1oo11333;;;;;.$%%%%%O%%%%%%$$$$$;;333o:w>><222222<,,2r<<2y94t45490#@++#@@@9900#@@+##+#####+#+++@+@+++@@@+@+@@@++++++#++###+#+++XX&#+#X#XX#++@@##XXX&&X&X&&&X#+++@@@0@@@@0@++++000eeee##@0e0#0e969664455554454446665",
"445<<,,111111333;;..;;;3;;;..$$$%$%$$$%%%%%OOOOO%%%$$%$%%%%%$$$....;;;11;.;;13:,>>>>549ee@@+++++@6652<,t,:r,22y454t<r::oo1;;;..$$$$$$r>t5:.;1@+=============qqq---&&X&&XX&XXX#X##++@@+@@@96tt<:>2<>o11o;.%%O     *****7*7** * ** *****   O   OOOO%%$$.$..;;..%O%%%%%O%%%%%$$$$$;3;;.;;1oo:oooo1oo1:w:w:ooooooooo13;3;;;.;;;$.%%%%%%%%%%%%$$$..;;11oor>>>22tt2ttyy225544664t546900##X+#@999e#@@@++#####+#+#+++++@++@@+#@+@#@+@@+#+++##+##+#+XX#X&X+X&X&#+@@#@+XX##&XX#&&XX##@+@#00#@@#e0+++#ee9999eee#e9e966644444545y5555444464t",
"yy2,>wo11113333;;;.;;3333;;;;$$$%%$$$$%%%%%%O%%%O%%$$$$%%%%%$$$..;.;;3311.;1;w>><<2><y696@@+#+++#95ttt55y522y444e5<<rr,:::o11;.;$$$$$rrtt:3oo:#-q===========qqq-&&&&XXXX##XXX##X++@@@+0e4455>o:o<<<,o;;;%%OO    *****7**** *  * **7***     O OOOO%%%..;..33;;%%%%%%%%O%%%$$$$..;133;;3oowwoo:oo::ooww:w::ooooo1o33;3.;;.;;;.$$$%%%%%%%%%%%$$..;;3ooo,><<2tttttt2y2t559946e55590#0@XX##@00@#0@@@+++###+#++#+++++++@#+++@@@@@@@+@++#++#####++X#&#&#+XX###0@e@+@+#XX###X&X##++@@000000e99eee99e66999eee9966666464445555ytt55554445t",
"2<<,rwo1o113;333;;.;;;313133;.$$$$%%$$%%%%O%%%%O%O%%$$$$$%%%$$$.;.;;;313;.1:1w,<22<<>y4690#@##++#456566096596#0005t<rrr,w:roo33;$$$$$>>45rowrr##-===========qqq--&X&XXXXX###X##++@0ee9945525>o3o<<,:..;.$%O O   * ****7777*     **7* *      OOOOO%%%$$$.;;3;.%%%%%%OO%%%$$$$..;3113;33::rooowrw:w:ww,rro:o1oo113;;;;;;...;;.$%%%%O%%%%%%%%$$.$.;;111:r<2<>tttt5yyyt69e66946440e0##XX#X+++#@@@@+++++++++##++++@++@@@++#@@+++++@#++++###++++++++XXX++++#X#+@@e@+++#+#X##X###++@00e0ee999e99e66999999eee966966644554555yttty5y5yyt2",
"2<>,r:oo113133331;;;;;11111;;...$$$%%%%$%%%%%%O%O%%%$$$$%$%%$$$...;;3313;11::o<<tt22<y56e0@@##+++e#e96600#0#@e00055>,,,,,w,::oo1$$$$.;;,<>:w,t#&-q==========qqq--&XX&XXX#X#X##+@#0e9966552>,1wo,<<:1..$$$%O    ********77***   ******* *     OOOO%%$$$$$;;3..%O%%%%O%%%$$$$131oo11113:wwroo:wr,ww,,,rrr:ooo1o113;;;;;;;.....$%%%%$%%%%%%%%%$$$..31o1:,>>w,2tttyy59ee9090@e4690++#+XXX#++#@@@+@@+++++#+####+++++@@@+++++@+@#+++++#+++#++++++#X##X#+++####++eeee@@+#+##XXX+@@@0eee996696e444669e9e99eeee9e99664yy5555yyttyytyyy2t2",
"<>>,ro:o111133o113;;;33oo1o1.33...$$$$$%%$%%%%%O%%$$$$$$$%%%%$$..;.;33113oor,<<y5y245546e@++####+@@@#@@@0#0#+e906t2<>>>,>,,rw:o.$$$;13ow>rr5te@+--q==========qq--&&&&XXXX##+++@#ee99946y52>w3;;,>,111$$$$OOO  O    **7*7*7* *   **** *       OOOO%%$$$$$.;;;.%%OO%O%%%%$$$.3;3::1oo:o:r,ro::wrr,wwr,rr:roo1oo33;;;;;;.;.....$$%%%%%%%%%%$%%%%$$$.;11::o:w,><yty4990#@94@@0e0690+##XX####+++@@@@@@++++#+#+#++#++++@@@+@+@@@#+++####+###++#++#X#XX++++#####+4e960#@+++#++@@##e99e9966644444666009999eee0e9999422<t5445yyy5yyyt2222",
">>>rw::111ooooo1o133;31o1o113;;.;..$$$$$$%%%%%%%%%%$$$$$%%%%%$$...;;31o11owr,<254544469e#@+++#####X+#++@##0@@00e9y52<<>>>,,,w::1o..1o46:,625####-q==========qqqq--&&XXXX++++@@#0e99e9645y2>o3:o>o31..$$$%%OO O    **7*7*77**    ****    *   O OO%%%....;33;.$%%%%%%%%%$$$.;3;3o::o::rw>rr:::w:w,o::w:w:ooo11o3333;3;;;......$$$$%%$%%%%%%%%%$%$$.;;31:oo:o,>2ty9ee+##9+XX@#e@0e9###X#X####@e##0@#@++#+#+++++++@+@@@@@@@@@0@+###X##X#+#+++++##+X#++@+#X#X0#e99e00#0@+@+@e6e966966444544566999e9966999eeeeee9>r><yt44455yytytt222>",
">,,rrw:1111ooooo1131331ooo3333333;;$$$$$%$%%%%%%%%%%$$$$$%%%%$$$..;;311oo::w22y54544490e@@@+##X###X###@00000@0ee65y5y222<<>>,rrow;,<9y6w29@+@#+X&&============qq--&&&XX##+@+@#e099666664t2,1;;;ro1;$;%%%%%OOO     *****77*7    ***** O        OO%%$$$..;33;.$$%%%O%$%$$$...3::rwrw,,,>>>r:w:o:owoo13o111131113;33;33;..;.....$$$%$$%%%%%%%%$%$$$.3;3111ooow,<<556e##0ee+##@440##@+##X####+#ee9000@++++#+++++@+@@+@@@#@@@##@++##XXXX###+#+#+#X###+++++XX##@9e69@69e@@@@e46444455yy454444469eee966464eee90095>rr>tt6yyy5y222t222<<",
">,,:ww:o1111oooooo1131o1:::oo33111;..$$$$$%$%$%$%$$$$$$$%%$%$.$$$.;;131::::><y5445469e00+++#+X####X##+@00000e00e6454445y22<<<>>oow,9+#62596##X&X&&q=========qqqqq-&&&XX##@++@#e6666444445,,1.;;:o.$$$%%%%%OOO     ****7*77**** * **      *   OO%%$$$...;33;.$$%%%%%$$$$$.;1o:rrr,,,rr>,>rwoo31o:oo;;;313;111113;333;;........$$$$$$$%%%%%%%%$$$$..;.;311::ww>2555e9999#+0+9449@+#+#+####+@09ee900@++++#++++++@@@@@@@@@@+@@@+++#+#####+###+#+####++###X#XX+049e56694495444644yyyy554444449eee99644460#ee9592,wr<2t655t55tt<<22<<<",
",,w::w:oo1111o::ooo111::ww::o131113.....$$%$%$$$%$$.$.$$$$%$$.$..;;;;31o:ww>225644460@++++++###X####+@0e0000000e666465696tt2<<t>><#&XX+++#&--&X&&qq==========qqq--&&&X#@@##e#0e946444665<<:1...;;.$$%$%%%%OOO     * ***7*777****     O       O%%%%.$...;33..$%%$%%$$$$$..;1wr,,,rwr,,rww::1;33o13;.;.;;;;3311111133;;..;...$$$$$$$%$$%%%%%$%$$$$$....;31oowr<<y45466699@+@699e###++####@@969999e00+##+#+#+++@@@@@@@#@@@++@@@@@+@+++++++#++#+#+#++++#XXX#X@064y55944466499e552ttty54444469ee996644660@095tw::r,>>465yt4yt2<<<><<>",
",,w::ooo1113oo::::oo1o::wrrwo:oo11;;;...$$%%%%%%$%$$$$$$$%$$$.$.;313;3o:2<<t2y466466#@+++#####X#+++#+00e00@@@@@9666999e9e6552yy529@X&&#@+&----&&&-q=========qqq-q&-&&&X#@@0ee9e9555tyy<yy2o1..;.$$$%$%%%%%OOO O  *  ***7*777******* *O  * *  O%O%$...;..3;;$$%%%$%$$.$$.;o::wrwwwwwwr:oooo3;1333;.;.;.;;;33111o11133;.....$$$$$$%$$$%%%%%%%%%$$$$$...;;33::w><5556445666@996e+ee+##X###+099999@@0@+#+#+++++@+@#@@##0#@@+@@@@@@+@++@@@+@++++#++++++#X&&&&X##064554444e#9ee65ytt22y545445696696694456@@4y>::::rr><544554yt2y<><<>>",
",rw:ooo11o1ooo::::o1oo:wwwrrww::1;;;;;;.$$%%%%%%%%%$$$$$$$$$$..;;;3331,,6>645y464690+#######XX####+@@@@#@++@@@@e9e664499945yyyy550+X--X+&&-----&-qq=========q----&&&&XX###e69995ty22><<t<1:;;...$$%$%$%%%%%OOO   *** ****7777****7***    *  %O%%$....;;3;;;.$%%$$%%$$$$.;ooo:wwwr:w::11o:::o13;;;....;...;311111o1;;;....$$$$$$$$$$$%%%%%%%%%%%$$......;;31w>,56y5554596e06990@@+#@##+#++@09e9@++##+##+#++++@@#@@@@##0@@++@@@@+@@@@@@@+@@+@+++++++#XX&XX&X@099e444660ee@995yyyyyt5555544966666455y90etw::o1r>22556455455yyyt<<>>",
"rw:ooo1o1ooo::o:::ooo:w:wwrrwwwo3;.;;;;.$%%%%O%%%%%%%$$$$$$$.;.;31111,265@09464669@+####X#XX##X##+#+@@++#+++#+@@#0909e9464yyyyy54++&qq-&-q-q----qqq=======qq---&-&-&&&#++@99665y<ty>>rr,<w1..$.$$$$$$%%$%%O OO  * * *****77*77777**  O    * O%%%%...;.;;;;.$$%%%$$$$$.$$.;;o::w:oo:113o:r,r::13;.;.;.....;;;;3131333;...$$$$$$$$$$$$%%%%%%%%%%%%$$......;;;ow,y225y59e9900696e0@+@@@+#+@@@@#e90++#####+++++@+@@@@##0#0@@@+@+@+@@@@@@@@@@@@@++@+@++###XX&#+#64466466900e0994yy5yy5555444444666655yy665,ooo1o>22659e4444445522<<>,",
"ro:oooo1o:::::::o:::o:::ww,rrro13..;33;.$%%%%%OO%%%%%%$$$$....3;1o1,w>,54@@@ee9000@@#####X#####XXX##++++######@@@@@00#9ee5yytyt59+&-qqqqqqqq-qqqq========qqq-&&&&&XXXX+#+@9e44yy<<t<r:1:o1;;..$$$$$$$%$%%%O% O     * ****7*7*7*77**  O      OO%%%..;;;;;3;.$%%%$$.......;;1oo:ooo133o1:rr,>rwoo3;;;.....;...;;;333;3;.;...$$$$$$$$$%%$%%%%%%%%%%$$$$.......1or<ty4566069#e00009#@#@e#@+@@@@00e0+++####++++++@@@@##0#00@+@@@@@@@+@@@@@###@@@@@+++++++##XX##0066466690@@09e955555y555545444666664yyyyt6wrooor256699e966545yyy2,>>,",
"r:ooo111o:::o:w:o:oo:::o:wwrrww333311;..$%%%%O%OOO%O%$%$%$%.;31111o1r2<t@@@@0e90@00@++#####+#+++XXX#++##XXXXXX+@@@+@@@@e66555yty40X-qqqqqqqqqqq=q========q--&-&&XXXX##+@@@95yy2<,>,ww113;;...$$$$$%$$$%%$$OOO   * * * ***77777777** OO    *O OO%..;.;;;3;..$%%%$$...$$$$..31oooo13;1o::wr>,,,w:33;;...$$$...;;3;;.;.;;.;...$$$$$$$$$$%%%%%%%O%%%$$$$$$$....3:o,<y46e#0ee000eee0#e640e@#@0@00e#@++#####++++++@@@@#0e00#@@@0#@@@@@+@+@@@#0#@@@+++++++++##XXX#+9669960#@@0965555555555554445696645tt22<<,woow>254446999655ttt2<>,>,",
",,::o111o::w:::::oo::::::w,,,w:1331113;.$%$%%OOOOOOO%%%%OO%%$;1oooo<<>>ee#@@099e00#@++###++#++++#XXXX@XX&XXXXXX+@+++@+#4666555t5e+X-qqqqqqqqqqq=========qq--&&XXXX##++@e9454yt<>,w:oo3333..$$$$$$$$$$$%%%%OO       *  *****777777*        * OO%$....;.;;;.$%%$%$$...$$$...;1o1113;oww:o:w>>>>r:o;;;....$......;.;...;;;;...$$$$$$$$$%$$$$%%%%%%%$$$$.$$....;;1,,25400e##4@0@@@e9964690@00##e##@+###+#++++@++@@@@#00ee##@##0000@@@@+@@@##00@@+@+++#++++XXXX#9@@@+@@##@@e664555545455555444644445t2tt<<<rr:o,<<2<t69999yy<2<2<>,>,",
",w::o111o:w:::w::o1o:::ww,,,rw:13ooo13;.$$%%%O%OO%OOOO%OO%O%$$31oo,:wry666y4999ee0@@+++++++@@@++##X&XXX&&X&X&#X#+++++@e##06555569#--qqqqq===qq==========q---&&XXXXX#++0e645yty2>,:ooo33;.$.$$$$$%$$$$$$OOOO          ****77777877*  O  **    O%%$;..;;;.$.$%%%%%$$$$$$$$..;31oo3;33o:oo::r>>>ww3;;;;...............;;.;;..$.$$$$$$$$$%$$%%%%%%%$$$$...$.....;o222<2656ee40@@@099ee9960##0000#@@++####+++@++@+@@@@ee00e00eee0#@@+@+++@@@0##@@+@++++++++++#X#X&+X@++@+@0ee64454544644455455644455yy5t2<<>,,:r:,r2569996ty22<<>><,>",
"rrro1111o:ww:wwwwooo:::wr,,,ww:oo:o33;;$$$$$O%OOOOOOOOO%O%%%%$31o:o:::t65yt2y59e0##@+++@@++@0e#+++#X&X&&&&&&X&XX++++++0@0e9969@@9X-q=====================q--&&&XXXX@@0e66555t52>,:oo1o;;.$$%%$%%%%$$$$%%OO    O        *777777777****   **  O %%%....;;.$$%$%$$%%%$$$$$....111o331331oooow>>,w1o333;;;..$$.$........;..;.......$$$$$$$$$$$%%%%%$$..........;1:2><<<25t6459@ey0e0@e#e#e09900e0@@@+####++@@@+@+@@#00ee00e000e@@@+@+++@@##00@@++@++++++++++###&&&#X#++@@@#006554454664444555565555555yy22<,roo>:w<559969645t2>>>,:w",
":rww131oo:wwrwwww:wo:o:rr,,,www:wo11;3;..$$$%OO%OOOOOO%O%%%%$.;1oooo:w,,w>2y56ee00@@++++@###996@@+#X&&&&&X&&&XXXX###+##+@@0999#X#+&q=====================qq-&&&XX&X@0e964555tt2>r:o:o11..$$$%%%%%$%%%%%OO       O   ***7*777787877   * *    OO%%%....;.$$$%%%$.$$$$$$$...;;33133331333o1o:r><,ro31133;...$.........;;.;...$.......$$%$$$%%%%%%%$......$....;3:wrr>,,,,>24#9449ee0@#9e0eeee0##@++++++++@+@+@@@+@##00eee9e00@+@++++@+@@@0000@++++#++++@@@+@+X&&X&X#++@@###0644444466644445555455y555yyyt<>,o1rr,<5599964442<,,r,:o",
":w:o331oo:wrrrwwwww::wr,,,r,rrrr:o33;;;;.$$$%%OOOOOO%O%%%%%$%.;oo:o:o::w,>2y54900#@@@0@@0#9455600@+X&X&&&-&X&&XXX######++@0ee+X&X+-q======================q-&-&&&XX+#e964452222wwwo1o13.$$$$%%%%%%%%%%%OOO   O       ***7777878777*  ***     O%%$.$.$;.$$%$$%$$..$$.....;;3313311o13331133ww><2wo113;;;.$$$.........;.............$$$$$%$%%%%%$..$...$$$..;.3o1ooor,rr,549096eeeee09606990#0#@++##++@@@@@@@@+@@@0#eee9990@+++#+++++@@@#00##++++#+++++@@@@@#X&X&&#+++000#096445444666444445554544645yyy<>,roo,>2yy66964452<r::ow:",
":wooo1o::wwwrrrrrwwwwww,,>,,,rrroo13;;;...$$$%%OOOO%O%%%%%$%..1ooooo::rr,<t2y569e0#@0e960@44y55e#@+#XX&&-&&&&&&XX#X##XXX+@@#@+&&&--q====================qqq--&&&&&##@96645yy22>w:o11o13..$$%$%%%%%%%%%%OO O     *******77788787777**        OO%$$....3.$$%%%%$;....;;;;;3;3333311o1133333oo:,<>w:oo1;;;........;.....;....;.......$$$$$$%%%%%$$.$$$.$$$....;;31;1oo::rr2y9e9999996006eee4e##@@+++##++@+@+@+@@+@@@00e999e0@@@+++##+@+@#00##@++#+#+#+@@@@@@@@X&-&#+++@@0#00094544446666644545446696955yt<>>,wor>t4666655552>:::o::",
"o:111oo:ww:wr,,,rr,,rw>><>>>,,w::o1;;;;.$%%%%%O%OOO%%$$$$..$$$31o1:ow,,,><2t5669e00e99954455t5590@+###XX----&&&XXX###X#XX##+@#X&-q-q====================qqq---&&&XX+@66454t><<>rwoo1133..$$%%%%%%%OOOOOO      * ******777787877877*   *   O OO%....;11.$$$%%%..;3.;33333133313131133;;;;311:,>>:::o3;;;....$..$....$....;..$$$$...$$$$$$$%%%%$.$$$$$.$$$.$.;....;33o1o::t5y6999966000e99900@@+++###++@+@@@+@@++@@eeeeeee00@+@++++@@@@#000@@+++###++@+@@@@@++X&##++@@##00e0954555444445454454669ee9655t<>>>w:w>5546444455<r:oo1oo",
"o1111o:wwwwrr,,>,,,,,,>><><,,,ro:o133;;;$$%%%%%O%%%%$$...;3;;.133o:r,,>>,>y566449ee9665yytt5ytt6#@@++##X&&--&&&XXXXXXXXXXX#+#X&&---q===================qq--q--&&&&++0e4552t>><>,w:oo33;.$%%%%%%%%O%OOO  O       *****7*77877777777** *    O %%%.;;;31o1$$$%%$$$11o:oo:o311333133333;3;3333o:,<<,::o3;3;;..$$$$..$$$$$.....$$$$$.$.$$$$$%%$%%%$$$$$$$$$$$$....;.;;.;31o::>t46669969@09ee99e@@@+++#+###++++@+@+@@+@@0e0000###@++++#+@@@@0000#++##++++@+@@@@@@+###+++@+#0eeee4545545545455545549999e#e5y2<,>,rrw>2466445y2>>w:11111",
"ooooo:::wwwrr,,>>>,>>><><<2>,,w:oo13333..$%%$$%%%%%%$$.$.3;31333oo:,,<<<<<2y464444455yy22t2yt2t54e#+++##X&&-&&&X&&X#XXXXXXXXX-&-qq=====================q------X&X#++06452<>>,,,rr:o113..%$%%%%%%%%OOOOO O      **7*7777777878777777** O % O%$;;.111o,>3$$$%%$..o:::o:o1;3;;33113333;33;13o1:,<>rw:o33;3;..$..$$$$$$$$$.....$$$$$$$$$$$$$$$$$$%$$$$$$$$$$$$$$....;.;33o::>5yy9669649699999@@@@+#+##+++++@+@@@@@@@@@0ee00@#@@@@+++++@@@@#0#+++#+#++++@@@@@+++++##++@@@000eee6544555554yyy554569eee0@#ett<>r,rrr<y464555>>>,:o1111o",
"1oo1ooo:wrwrr,>><>>>>><><<<<,,r:oo1133....$$$$$%$$$..$$..;333311ow,><<<<22<y444445yyyt22222t5tty4#@+++##X&&&-&-&&-&XXXXXXXXX&--q=======================q-----&X&XX#0965y<>,wwww::1oo133;$$%O%%%%O%%OOO OO O*  ***7*777778787777777***O OO%%$%3oo:wor<<3$$%%%$$11:::oo1;;.;;;111133;3333;1o1:,>>rr:133;;;......$$$$$$$$$...$$$$$$$$.$$$$$$$$%$$$$$$$$$$$$$$$$$....;;3oo:,225<4696945446969e00++++##+#+++@@@@@@@@@@#0e0#@@@@@+++++++@@@@@#@@++++#+++@+@+@+++++#+#++@@00eeeee9454555y55yyy55566e00e00e955t2>rrr,,224455t,,rw:oo1111",
"ooo11o::w,,,><<<>>>>>>>>>>,>,r::31313;.;...$..$...$.$..$.;;31311o,>22t22t22ty55555tyy2<22ytyyt256@++#+##XX&---&&&-&&X&XXXXX&X-qqq=======================q--&-&X&++@e94yt<>,rwwoo11o111;;$$%O%O%O%%OOOOO O     ***777777887777877*7**  OO%%%$1:r>:,<222o$%%%%$$11oo:o3;;.$..3111o3133;3333o1:,<,rw11;33;;;.....$$$$$%$$$$$.$$$$$$$$$$$$$$$$$$%$$$$$$$$$$$$.$$$.;.;..;33o,2t225669655464666990@@+#++++++@@@000@@#@@@@@00#@@@@@+@+++++@@+#++@+#+##+++@@+@++++++++#++@@##000ee96445yyytyyy555449ee0e##09455t2,,,r,22y4yt<,,,,r:o11oo",
"o:o11oowr><2><<<>>,,,>,,>,,,ro:111313;;;...;;;;;33.;;.;.3;;;311ow><<2tt22222ty<55yytt2222yyyyt25#@+##+##X&--------&&&&X&XXXX&-qqqq======================q--&&&XX#+@e6yyt2>,r::13;3;;;...$%O%O%O%OOOOOO   O    **77*7778777777777*** O  OO%$;1w,t225ttwo.$%%%$$1:oo1;..$$$.;31oo::o11333;331r,,,rw1133;33;.....$$$$$$%%$$$$$$$$$%$$$$$$$$$$$$$$$$......$....$...;;;..31o:>tt25546522554444669@+@+++@@+@#000000@@@@@@#000#@@@@@+++++++##+#+##+##+#++@@@+++#+#++++++++#0000eeeee6455yyy55446669ee00#@@eee964t2>>,,,2yt<<>>,r::oooo1",
":ooo3o:r,><22<<<>,,>>,>,,,rrr:ooo31133;33;;;33;333333oo11333311:,<2tt22t2222t<<ttyyyt2222222t22t0+++#+####&----q---&&&&&XXX&&-qqqqq==qq=q==============q&XX#X&XX#0#e45yy2,r::113..;...;;$$%OO%OO%O%OOO  O    **7*777787877777777**   OO%$$.o1w,y2yy569o..%%%$$1333...$$$$3;1ooo::o11333;;31:,w:ww:o1313;;.....$$$$$$$$$%$$$$$$%$%%$$$%$$$$$$$$$$...;;....;.;;;3;;;;;;3;ooyyytt55y22ty4y456690@@++@@+@00e0e9e00@@@####00####@@@@+@++++###########++@@@@+++++@+++++++@##00ee0e0e944y5y546999eeee000@#06ee696t<<r,,<222<>>,w:ooo:oo",
"o:o33oo:r<>222<><>>>>r:rrwwrr:oo131113333;33;33111313o1113;331or>2tttttt2t2tt2<222tytt<2222222<t#@++#+##XXX&&&--q---&-&&XXX&--qqqqqq=qq=qqqq===========-+e+++##069e9<5tt<,:o133;...$.;..$%%O%OOOOOOOO O O     **777878877*77****  *OOO%$;1:w:r>>4469e95>o$%%$$..$..$.$$$..;oo:::::oo1;;;333oo::o:w:o111;;;.....$$$$$%$$$$$$$$%$$$$%%$%%%$%$$$.$$..;3;;;.;..3;13;33;;.;;oor<y5yty2t2t5tyy5699e0@@+@@@#09999ee9e0@@00000#0000##@@++++++##X#####+#+++@#@+@+++++@@0@@+@@@@#00000#096645y64eeee000000#@@000ee95y2<wr><<22>>>rro::::oo",
"oo1333o:w,><<<<<<><>,rwoo::wwwooo111o11333;31311oo1o1ooo13133oor<tytt22222ttt22,<<<<2tt22<222<<t4#@+#+#XX#XX&----q-&-&&&&X&&--qqq=qq==q-q-q-=========q-&&60@+@e,<y962<><>,o111;...$$$$$$$%%%OO%OOOO O       ***7*7777877*** *7** *  $.;113,,rw226ee0@e4>o;%%$$$.$$$%$$$$$.;1o:oo:w:oo13;.331oo1o:w:oo133;;.....$$$$$$%$$$$$%$$$%$%$$%%$%%$%$...$...;;;;;o;;1311113;.;.;3wrw22ttyt222tyttt666e0@@#0000e99696669e0#e0ee0000ee0#@@@@@++#+###+#####++@00#@+++@+++##@@@@+@+@0#0e0##09545556eee000000#@++@#0ee645t2>rr,<><<,,,rw:::ooo",
"1o13331o:w,<<<<><<>,r:::oooww:oo3131133333311111133o1ooo33331owr><tt2t222tttt22<>>>><<<<t222<22<5e@@+#0###X&&&----q-&-&&&--&-qqqqqqqqq-q---qq========q#+5055505<1tt6<<><r:o.;;;..$%%$$$$%%%O%O%OO     O  O  **7*7*77877**  O* ** *OO3311o:><rr,2e@@0+>e2,;$%%$$$%%%$$%$$$$.1ooo::w::o13.;;;o11o1:o:o1.;;;;....$$$$$$$$$$$$$$%$$$%$%%%%%%%%%$.;.......3313;313o1111;..;;;1o:<<tyy2tt2yyty5466eeee0099966666466490eee0e00000ee0#@@@+@@#####+####+#+@00#@@@+++@@#@#0@e@@@@#00e0#ee94444454eee0000#@@+@@#0999e64t42,,>>>>>rrrw:::o1o",
"113;;1oo:r,><><<>>,,:,:,r:w::oooooo1331333111333131o311oo1113ow,,,2t2222tt2t22<>>r>,>><><2222<2<y40+00+@+#XX&&---------&&&--qqqq==qq--q-----qq=======q-+t>r,<,31::y9t>:roo1;...$$%$%%$%%%%%%OOOO OO O  O   ***7*7777877* OOO      OO111:o1:>,,>y59e@+965,o$%%%%%%$%%$$$%$$;oooooo:::o33;;;;;313111:o;;..;.......$$$$$$$$$$$$$$%$%$%%%%%%%%%..;.......;;1oo1oo:o1o3;;...;1:,2<t2tt22tt554446600eee9e6666444696469e0e0e0000eee00@@@@@@@@+#+####X++@0e00#@@@@+@@@00#ee09@@@#ee##0e946644569ee000##@+@@#@@e666ee46tr,,,,>,rrrww:oo1o",
"333311oowww,,,,,,>r,,,:,,>w:::ooo1o313131133333;3;3o1o1ooo311:wrr:22t22t2t22>>>r,rr,,,,><<><2<><24945@9@@+XXX&&&---------q-q---qqq==q-&--&&qqq======qq&&4too11oo:<244,,w1o;;..$$$$$%$%%%OOOOOOOO       O   ****7777877**O%OOOO  *OO 1oo:131:<><5960@+#e62:.%%%%%%%$%$%$$$$;1ooooo::::13.;;331313131;;;.....$.$....$$$$$$$$%$%$$%$$%%%%%%%%%$.;;......;;3oww:wooo131o1;;;3oor2<<22<22y55444999e9e9996664469966449ee0e000000ee00####000@@+++#####+@0000#@@@+@@@0@e04094##0e0e0@#9446e99646ee0#0#@@@#@@09e4666644y,r,,,,,,,rw:::o11",
"33111ooo::wr,>><<<>,,,>>,rwooooo1o111111o1133;;;;331111111131o:or,<222222222>,w:,rw::w:,,>,,>>><22<2y6600##X&XXX&&-q----q-q---q----qqq-&&&--qqq======q--@5133;;1:><6y2>,o1..$$$$$%%%%O%OOOOOOO           ***777777787**O %%OO   *% %.ooo11:www<5960@++942,;$%%%%%%%%%$%$..31oooo:::oo113311o133331oo11;........$$$.$$$$$$$$%$%$$%$%%%%%%%%$$.;.;;...;3;1o::o:w::ooooo;1311owr<<2<222ty5546669eee9666666666666669ee00eee000ee00#00#0e00+##+++###@@00000@@@@@@@000#9090##0ee00@@04600e9699e0#0###@@#0#@95469965<>,:r,,,,,,r::::oo3",
"1o1ooo:wrr<><><22<<>>:w::,oo:ooo1133111o1o13;;;.;;33333313333o:,,>>2222>,<<>>wwrw::wooooow:r,,><22yty40#0++#+###XX&---q--q-------&X&q-&-&X&&&-qq====qq&XXw333;33ow,4<<r:13..$$$$$$%%%%OOO O  O         *  **7*77787777  O%%OO   OO%$1o:o111w,,<4540++@22>:3%%%%%$%$$$$$$..3oooo::ww:oo11oooo113311:1113.;...;3.$$..$$$$$$$$%%$$%$$$%%%%%%%%$.......;.;331o33wrr,www:1131ooo:,><<222t25544466996966666644666694699ee00e90000e0e000eee0@+#++++##++00eee00@@#0#@0e09699464699e#@@@##@@eee990#0#@#@@#00#944666964t<,rrr,,,,rr:o:oooo",
":o:o:w:::,<<<><>2<<>rrrw:ooooooo1111oo11o1333;.;..33;;311113;33:>><22t2>,ro,:rr:oo::1111ooo:,r,<ty6990@#@++X##XXXX---------&-&--&X&X&&X&&X+X&--qqqq=q-&@2,3;;;331>>2><r:13$$$$$$%$%%%OOO O             *****77777877** OO%%O     OO$.oo31o:w>><55e#+##5>r:.%%%%$$$$$$$$$;;3ooo::w:ww:ooooo:oo3331oooo:3;...;;3.$$$$$$$$$$%%%$$$$$%$%%%%%$%$$$$.....;3;3;3;.31:w,,w::1oo1ooo:wr><<<2ty5y44699999996646444446465499ee99ee00eeeee0eee000#+#+++++#+@@0e00000#0e0#@006e6996546900#@@@@#0##9e9e90e##00#eee94499649952,r,w,,,rr:wooo:::",
"::::www:::><<,>,222,rwoooo:o:ooo1111o:,r:o1;;........;;3oo33;;1owr><2t<>r:o1ooow::,,o3111o:r,>><t9e000+@+++X#&X&&&X-------&&&&&&&&XXX&XXXXXX-&--qqq--X#@y>3;;331o1>y<>,o3..$$$$$$$%%%OOOO  O O      * ******77787877** O%%OOO%OO%%O$.:o3o11o,><546#+#+4www.$%%$$.....$$..;;oo1ooo::w::oooooo3333oooooo1;;;.;;o...$$$$$$$$%$%$$%$$$$%%%%%%%$$$$$$$$..;;;;3;;:1::w,,ww:ooo1oowwr<><<<ty55466999996464664444445554699669469eee9e9900e#@##@++++++++@@eee0ee0#00e00099690999969e00###0996e999699900009e666466944665>,r,wr,,rr:::ooooo",
"wr:wwwr::ww,<<>><<>>r:ooooooo1ooo11:w:,rw:3....;....;.;13133..;3orw<22>,ro:ooo:wwr,,o:3oo:,,>>><y50++++####XX&&&&---q------&&&X&&X&XXX##+##X&&-&&-&&#+056>:;;331o::2<,oo.$$$$$$$$$$%%%OOO            *****7*777777****OOO%%%$%$.$$$133o1::w1or>,t5@@#00ww;.%%%$$..;;...$.;1oooo1oo::::oo:oo1o131oo:oo111;;;;;3.$$$$$$$$$$$%%%$$%$$$%$%%%%%$$$$$$$$...;33;o:o;ow:wr,rrrrwooowwr,><2<2y5544999e96445664555455y554y994464669ee999ee000#00@+++@@@@++#eeeee9000e9ee9ee649e6eeee000e0096666e664569e9e0e96664999465yy>r,r>,,w::::w:::ow",
",,r,rrrw:::><<<<<2>>,w:oo1ooooooo11o,>,,ro3;............;33;..;13ww><2<,::ooo1r>t>>,ooooow,,>>>>e9e++#XXX##X&&&-&----------&&XXXXXXXX#++###XX------&XX955o1.;;;3::o>1o;;$$$$$$%%%%$%%%OOOOO O     *** **7*7**77777**  OOOO$$...;1$$$3o1o::1331o:,2#@##5>1;;$%$%$..;;;;...11:ooooooo::oo:oo1o311ooo:ooo13;3;;3;$$;$$$$$$$$%%$$%$$$$$$$$%%%$$%$$$$$.$$$.;;3o3;3oorr,,,rr,ww1o:,,r,><2225444669999555466555555yyy<y4yyy94y4669699e0##@#0e0+@@+@+@@#0eee99e69999e999e66eee0#0e00#99e455y44444y5464eee9654664445y54,w,,>,>ww:ww,www::",
"r,,,,,,rrr,>>>>>><<>,ww:oooo:o::11o:,,rr::3;...........$.;;;...31:,<<<<,,:ooor<t<2<toooowr,>><<2y9e++X#XXXXX&&-&-----------&&XXXX#XX#X##XXXXX&&&--&&X@6t<o...;.;3;oro13$$$$$%%$%%%%%O%OOO OO     *  ***7*7*77* 7*** O O%%$$$..$;;oooo:13;..3;;.o:#y++e,o3.$$$%$$..;;3;.;.31ooooooooo::o133113333o::oooo1o1o3;;$$$$$$$$$%%%$%$$$$$$$$$%$%%%$$$$$$$.$$$$..3133;o:wr>>,,,,rwoo:,,,rr><2tt5y444696966445444y55tyyy<<<y2t55tyt499000@@@@009ee0#@+@+@@#0ee9e9666464669e99ee0e#0000e9994ty55tty5yy546eee9655565445yy5<>,<>>,,rrwwr,,,::",
"r,>>,>>>,,,>>>>>>><<>rr:::::w::ooo:rwrwwoo13...$..$.....$...;.;1w:,>><<>,r::w<,<2<<,,oo::r>>>2<2ty9@+XXXXXX&&&------q--q---&XXXX#6##XX#XX##XX&X&&&XX@+5211..$$$$.3oo:1$$$$%%%%O%OOOO%O%OOO  O  * ******7*7*7*** ***%O$O%%$$$$.;.;o11o;;;$$$$$...o22++2r;.$$%$$$$..;333133;ooo:1o111oooo33;33;;311ooooo:ooo111.$.$$$$$%%%$%%%$%$$$$$$$%$%%$%$$%$$%$$$$%$.313;1:::,<>>>>,>,wo:>>,,r><2yt5y544699e645444yytt22yy22<<<22y5t2256990##@###0eee0#0@@@#@#0ee999644444469e9e9ee##@0eeee95yyy5y2tt22t269ee96652<22t5tyytt22>,>,,,,,rrrr,w:",
">,>>>>>,,>>>>>>,,>><>r,rr,w,ww:::wr,ww:woo;;...$......$$$$1;3;;1w>>>>><>>,rwr<y25<>,,o:wr,,>2<2tt6e+#XXXX&&&&&-&----------&&XX#0569+########X#XX&&X@@9yy,r3.$$$$$$;13$$%$$$%%OO%OOOOO%OOO OO    *********7*7*7****OO%%.$%$$$$$;;.$$$.;;$$%%%%%..199@#2:w;.$$$$$$..;3311113oooo113131o1o13;;3;;33131111o::oooo3.$$$$$%$%%%$%$$%$%$%%$$$%%%%$$%$%%%%%%%$$.311ooo1,<<<><><>>rrw>>>,w>>tyt55444699964544644t22<22<<<<<2<<y22t6669#####0@#e999e#@@@#0ee9ee99445445549ee996e0##e4996955yyy22yyt2yy49ee9665<<2ty2yyttt22<<>,,,r,,,rrr,r",
"22<>><<<><>>,>,,,,>><>,,,>,>,rw::rrr,:::133;;...$....;.$$;.113:w>,>>>><>,,,,>22yy2>,rr::,,,><<tt46#+#XX&&&X&&&&----q-----&&XXX@02<t9@++@+9##XXX&XXX+@9y2r113;..$$$$.;$$%%%%%%OOOOOOOO%OOOO       * ***777777777*7** %$%$$$%$$$...$%%%.$$$$%$$$3,699#+0,w3;$$%%$$$;;33111o1ooo11333;1;3133;33;;.3333111o::wooo;.$$%$%%%%%%%$%$$$$%%%%%%$%$%$%%%%%%O%%$$$.;1131o:,>>><<<>>>,rw>><>r,<255t464699999964665tt222<>><>>><ttyty56600@@@#0@@#ee966ee#ee0eee999964455546669666ee0045546455y5t2ttyytty69ee#94t>>>ttytty2ty2<<<>,,,rr,,,,>2",
"2<22<2<<<><>>>,,rr>>>>>,,,,rrwwww,ww::::o13;;;;..........;3oo1:r,>>>><>>,rr>252y2<tt>o:w,,>><25559e9#XX&X&&&&&&---------&XXXe9t55ot<t64446<##XX&&X##@6ytwo13;...$$$.$$$%%$%%OOOOOO OOOOOO O      *******77777777*** O%%$.$%$$$$%$%% OOO%%OO%$;w29#@++yw1;.$$%$%%$$;3;31311311133;;;;;;111333;;.;113311::::oo;;..$$%%%$%%$%%%%%$$%$%%%%%%%$$$$%%%%%$$$$$.31111:o<<<<>>>>>>,,,><<<,,><t55546699999454464y2<<<><<><>><<>2y5490e0@@@###@064446eeee999ee9999645554496944669e006ty55t25yyt22tttty5699##e6y>>>,2<ttyttyt2<<>,,r>,<<,222",
"222222<<2<><<>,,r,>><><>,rrrw:wrr,r:o:o:ooo13;;;...$...;1o1woor,,>>>>r>>,r,<2t62222ywwrw,,>>tt56e+99#X#&&&&&&&&--------&-&X@5,312.1;;;2,<rt6#+X#XX##@e5wr::o3o;;.$%.$$%%%%%%%O     O OOO    *   * *****7777777777***  %OO%$$$;$$%%O*    O  ;;129#e@+62ro..$$%%$%$$$.;.;3331311333;;;;33111133;;;;;3o1o:ww:133..$$$%%%%$%%%%%%$$$%%%%$%$%%%%%%%%%%%$$..$.;oo::w><<2<<>>>><>><>>2<>,,<22555566999645546522<><><>,,>,<2<>2t4090@@@@@@#e94444599969eeeee9e96655556644446669e45<222<222ty22tyyty466909962<>,2<ttytttyyt22<,,r,,<<<22<",
"2t22222<<2<<<<>>,,,>>>>>,www::wr,:oooo:::::o111o:o3..;;33o:wr:w,rr,rw,>,,r><<ty54y42,w::,>>2y99@#+@e+#XXXX&&&&&&&-----&-&&##<o1.$$$.;3;3.w:6+#+@0XXX@9y<,,ww:::3;..$%$%%%%%%OOO  O   O O   *  *  *****7777787877*7*7***  OOOOO%%OOO***   O%;,<<@0ee462rr..$%%%%%$$.......;3331133;;;;3111o1333;;;;3oo:::w:o1;..;$$%%%$%%%%%%%$%$%$$%$$%%%%%%%%%%%$$.$...;3:w,,<<22<<><<<<<<>,<<>,,,,<<t55466666664464y22>>,>>>,<<,<>,>y2499###@@@@#e065445999999e96969ee9445y54445446996422<22222222tttytttty5569965<,<2<<22522ttyyt<<r,><<<222t",
"yt222<2<2<22<<<<><<<2<<,,wr:w:::w:oo:o:ww:o:o1o:w:3.;;;31:o,,,>>,:woo:>r>,:><5y5y45t2>r,>><t490#0+@+#XXXXX&&&&&&&----&&XX#@5,13$$$$...$$.3o<#@0e0XX++45<>,rro11;$$%%%%OO%%O%OO O         **** * ****7*777878777777*777****   OOOOO  **   OO;<56e#e925>,,.$$$%%$$$$$.....;;;;3133;;;;;;33oo1o133;3;11o:::r::13.33;.$%%%%%%$%%%$$$$$$$$%%%%%OO%%%$$$$$$$$.;;:>>><<<22><<2<<22>>><>>,,r><t55666666664645yt222>>>,,r,,<<,,2299e000ee@e9e645554499999e66669ee6964y5544554644y422<<<222tt2<22tt2tt22t25662>,,,,<>t<2<><t52<,,,<22<tt2t",
"tt22<22<<<><><<222t<2<<>,rw:w:o:oo::rwrwrwo::oo:r:1;;;;;oo:,,>2<>wooo:w,>w,><<t55552<,,<t25y9#0@@+####X##XXX&&&&&---&&&X##0t<3$$%%%$$$....3ot04409@@45y><,,r:;.$$$%$%%%OOOOOOO O         ***** **777*777788877877*7777777*****    ****  O%O$<5yt4e6t2>,,w..$%%%%$$$$$$$....;333;.;;;;331ooo1113;;33o::o:w:oo1o133$$$$%$%%%%%%%$$$$$$$$%%%O%%%%$%$$$$$;;3;;o,>>><<2<<2<222<<<<>><>>,>>254699996966955yyt22>>>>wwwr,r>>><t2t900ee96555yyyyy4469e9ee99990#@e9665y4644444y2<<>2><<<ttt222<<2<,2y2<<<2t<<>,,r:,,<>><>22t2<>,r>22t2222",
"><2<<<><<,,,>>><22t22<<>>,www:rr:oo:wwr,w::o:rw,roo3;33oo:,>><y5<,oo11wr,w::<<24tt<<2<><yy990+@++++##XX###XXXX&&&&&&&&&&@#42<1$%%%%%$.3$3;3o1<52900445<w>rw1o..$$%$%O%OOOOOOOOOO       * ** * ***7777777888787787777777777********* ***   %%3<1r999y<,>ww3$%%%$%$$$.$$$....;;33.;;33;33111o11333331:::::::w:o113..$.$$$%%%%%%%$$$$$$$%%%%%%O%%%$$$$$.;333;1ww,>>>><<<<<<222<<<<<2<<>,2246699996996644t22<>>>,rwwrw,,,>,<yt00669544yyytyy5y569999e9e#0#@@9664yy444555y<<<<<><<>><2tt22><><,,,>>,r,>,,,,,rw,,>>,>>>222<>>,,<<2<<<<",
">><<<>,,,>,,>>>><tttt<<>,,rrw:ww:ww:::>,,rr,,,,,r::o:ooo1r>>2y55,2wo11ooo111o,y45<<<2<<549e@@@++@++#####X#XXXXX&&&&&&&+#@42to.%%%%%%$$1;..3;3>y<ye965t,r:w:3.$$$%$%%%OOOO  OOOOO      *   ******777777788888878778787877*7******  *  **  OO%;ooree95t,,,ro;%%%%%$.$$%%%$$$.......;;;;311;3113;;;;311oo::ww::wo13;..$$$$%$%%%%%%$$$$$$%%%%%%%%%%$$.$..311333o:,,>>,,,<><<<22<<<<22<<>>>2449999999966495222<>,,rr>>>><>>><t<995555t<2ttty555466699e000##@+#964555444yyt<<22<<22>><222t2<>,rwwwr,,r:rr,ww,w:www,,,<2>>22<<,,,>><2<,",
",,222><,rw,,r,>>>2tt2<<>>,rrr>,>,,rw:w>>>,,><>>,,:o:::o,,,><2y552<ww11o1111o1><y5ttty5494e@@@@@@@+@+++##+##XXXXX&X&&#@@@4<:;$%%%%%%.;$.$$$.;3:>2>26y2<3;o3$..$%%%%%%OOOO O  O O     *      ****777778878888877788787878777***** *   * *   O%%;ow4665<,rrro.$%%$$$.%$%$%%$$.$.$....;;;;3;3313;..;3;;3oo::wwrw:o13;3....$$%$%%%%$%$%$$$%$%%%%%$%$$$.$.33311133owrrrwww>,>><><<<<<<222<>><ty5596966669996t2<2<<>>,><<<2>,>>t292252252<ttyy555446699ee0@@@@@#966455y45yt2<222<2<22<<>2222<>rwwwww:woo:::wwww,:www,,><,,,,>,,rr>,,><,",
",r,2tt>>rrrr,,,>>,>22<<>>>>><>2<<r,wrr,>><<>>>>>>,rrrr>,><<22y455>,,:o111333o:r>24y5690##000@0#e@##50@@@+e##XXXXXXX#@@4t>>o.$%%OO%%.$$$.%$$;;oo:w><2t33.1$$$$%%%%%%OOOO O         *       **7777778787878888878788888777777***   *   * *  O%%.:,,>>t>rww:o1.%%%$$$$%%%%%%$.$$$$$$..;;1;.;;.;...;3;;33oo:wwrrw:13333;;..$$%%O%%%%%$%$$$%$$%$$$$$.;;.;;;311111o:r:w:::r,>><>><22<<<<><>>>22555964646699e652><<<<>><<22>>,>><t22y<<>222t55545444990e00#@+@@@e999964455yt222222<<2<<<<<2<<<>rr:wooooo:ooowwwrwrr,,>>,,,,r>,,>,,r,,>,",
"wr>>2t2<,r,,rr,,,,,>><<<>><<>>>t<<<>,>>>><2>>>><<>,,,>><2yt22y55tt,wwo13333oowr>y6690@##0664469#49ro>@e@+5t6+#XXXX##@@2<3;.$$%O%O%O%$%%$%$$$;;1o:o<>,11$.%%%%$%%%%% O                   * **777778788888888888888888787777***O         *  O%%$..3rr<<w:::1..%%$$$$%%%%%%%$$$$$$$$..;1o;.........;3;;31o:wwwrw:o3113;;;..$$%%%%%%$$$$$$$$%$$$$$$$;;;;;3;31311o:oww:::ww>,,>>2222><><,>>><<<<4445564649965t22<<22ttyt22>,><22>>>>>>>><<t55444446#0##e0#@+@@#0e99664455yy222t22<<2<<2<<<>>rw:oooooo1o:o::::rwr,>>><>>>>><>>,>>rrw:w",
"::w,2y2<wrrrrrr,rrr>><>,<22t><tyy<<222<<22<><><<<>>><222555yyt44yy2>,,o3;3331:rty6600##e54yyy6tyy<r:>>e95>o:5++##++@4t,r1.$%%%%O%OOOO%%%%$$$$31o1.o>o.$$%%%%%%%O%%OO        *   *       **77777877888888888888787788877777**OO$  O         OO%$$.:wor>::o;..%%$$%%%%%%%%%$$$$.$$$.;1oo;;.$$$$$.....;;1o::wwwwo:oo113;;;;$$$%O%%%$$$$$$$$$%$$$..;.;;3;;33311ooo:::::w:wr,r,,,22<<>>>>r,><><>555y54545565t22222ttttytt<,r>2t>>>,>>>>><>2tty66499e0e0@@0+#+@009996645445222t222222<<<<>,rr::w:o:ooooo::wwwwrr,><<<2<<<2y2>>>>>,roo:",
"o::r,>>,wwrrrrwrrwrr>>,,><<2yy55tt<t<<<222t22<<>>><2t546999y5545522<>woo13131:r>24e9e0e6522t<>2<<>>1<<y,wwoo5@@+@@@56<w1$.%%OOO%O%O%O%O%%%%$$.;;..r11.$%%%%%%OOOOO  ********* ** *     ***7*7777878788887888888888877777*** O:$ OO O O  *  OO%%$33woo,oo3..$%%%%%%%%%%%%%$$$$$$$.3oo::1;..$$$$$.$...;1o:w:w:w:::oo13333;;$$%%%%%$$...$$$$$$$.11;;;....;;3111oooow:w:wrrrr,r,<2<>>>>wwow>>>2<2<yt5yy55yy2<<222ttyyttt<,r,<2<>,>>>>>>>>2t2y4459ee90#@#@++##@@09965yt25yt22t2<2<<<<>>>,rwwrw::o:o:ooo::rrrrr,,,<22<222tyy<<>>>r::oo",
":ooww,,:ww:wr:wrrrrrr,,r,<2<222<<tt<>>><t2tt2<<<<>24te9#9e6t46642t22<>r>33113:w,<t44665y>,><<2<><r:;;;w:::ot6eee@+64>:;.$%OOO%OO%O%OO%O%%%$%$.;..or:1$$%%%%%OO% OO ***777********     **7*777778778788888888888878*7777**** %$3OOOO O        %O%$1:,w,wo3;;$%%%%%%%%%%%%%%$$$$$$11:wro1;.$$$$$$$.$..131::::o::::ooo13133..$%%%%$$$...$$$$$..;;31;;.;$...;;3111oo:w:w:wrrr::w:,,>,>wroor,>><<<2222t55552<<<222t2t2t2,,,r,,<>>,>>>,>>><22ty44y4ee660++++###+#@99652<<t55yttt2<><2<>>,>rwwww:::::ooooww,<><<,,<<<2t245y22>>><,,ro:o",
":oo1oo:::wwww:wwrwr,rrw:rr,<>,<>><><>,><ty5t22<<<>24e0@0#ee566645t222<r:w311o:::>t254642>>>>,>><<,;;;3oo:oo>4999664>o1$%O%O%OO%OO%O%OO%%%%%%$.$..:oo..$%%%OO%OO   **777*7**********  **7777777788787888878888888777** *     %%%%%.%%OO    *  OO%%%o:,:,o3;.$$%$%%%%%%%%%%$$%$$$;1wwoo:1;..$$$$$.$$...;11o:::::::o1o31113;.%%%%%%$$.;;;.$$$.;1ooo1133;.$..;33111o:wwwwwwww:::w::,r:wr::w,,>><t2222t22ytt2<<<<<<22<t<,r,rr,,<>,,,,,>>>2<tt46944666e@0@+@++X#@@e45<<<>2tttytt2<<<><>,,rr:::ww:o::o:o::,>><2<<222tttt46664t<<2<,r:::",
":oo1ooorwrrr,w,rrr,,,rw::r,,,,>><<<<><><2tyt2<><2>te90##@@e666665t2222wr:o1o1:::,<ty45,<,,,,w,<<>w3;11oo1or>264556tr1$%OOO%OO%OO%OO%O%O%%%%%$$$..;oo3$$$%OOOO    *7*77*7********7*****777777777778788888888887877**        O%%%$..$%%%OO      OOO%$1w22r:1..$$$$%%%%%%%%%%%$$.;;3::::111.;.$$$...$.$..;311::o::o11311111..$%$$%%$$.;;;..$$.31:oooo3o1.;..;33313o:rrwwwwwrw:o::::1:o:o:or,>><222t2tttttt2<<2<<<<2<>,,r,rr,>,,,,,>,,>222tt6654yt46@##@+@++X++099y<<,><<<ttt22>,,rr,,,w:w:www::o:oow:w,<<2yyyttyttty4649e652<>,:w::",
"::ooooo:rwr,,w,,r>>,,rwoo:,r>><<<<<<<><<22222<<2<2t49e00@0e64666tt<22<<,roooo:o:,>,<<t>>owro:r>>,:331o:o3;.1otr>25:3$%%O%OO%OO%OO%OO%O%%%%$$$$$.;3;;$$%%OOO  *7**77777********7*7*777777777777878788888888888787*    OOOOO OO$$%;:$.1%%O      OOOO$;;><<w1..$$$$$$%%%%%%%%$$..331:::11311;...$;;...$$..;3o1o:::oo:11oo13.$$$%%$%%$$;;;;;..;1::oooooo3;...3331o31owwwwwwwwww:w::o:o1oo::r,,><2222t22<<2222t2222<<<<>><,,rrrr,,,,>>><222t56556yy490#@@@@+&XX+0945<<>,,,<2t2>,r:wrr,>>r:::wwwoooo::rr,,>22yy65yytt2244654452<>,,r::",
"w::ooo,,,r,>>,,,,><>,::o::,,222222<22<<<<<2222222tt549909ee966665t2<<<<,w:oooo::,r,>>w:13oo1oo::::331o:3...3w1.o13;%%%OO%O%OO%OO%O%O%%%%%%%$%$$.;;;..OOOO O  7*7*7777*7**7*777777777777777777787887887887877877*** * O%%OOOO%..31;33$$%OO       OO%.3w2y<1;;$$$$$$$%$%%%%%$$$.;3oooo11333;...$.;.;;$..;;;31o:ooo:o111o3;.$$$$%%$$$$.;3.;333:woo111o13;..;;11oo13o:w:wrw::wrwrrwrwwoooo:rr,>>><><222<<2tt2t2tt22<<2<<>rrr,>r,,><>><<2t25yy5y22y4e0#00@@#X&X#04552>,,rr<<22>,wwwwwr,,,rw:::w:::wow,,,><<2t4e65yt22t66e65t2<<>>>,:r",
">,wr,>>,,,,,r,><<22,w:::::>22ytt22<<<<<<>><22ttt25y555y9496669645yt>>r<,ro:ooo:::rrw>oo1311o331133;313;3.$$%.$$oo3%%%OOOOO%O%O%OO%O%%%%%%%%$%$..;..$%OO O  ***777777*7**7*7*7777777878777777788877888888878778**** **%O%O%OO%..;;;31$$OOOOO O  OOO$$312y>w3;.$$$$$$$%$%$%$$$..;1ooo1331333;$.$...;;..;;;3311ooo:w:oo113.$$$$%$$$$%$$;33113:wwooo11133..;;13o:::o;o:wwrw:::rr,>,,rrrwo::wr,,>>>><<2ttttyyttytt22<ytt<<,rr,>>>>>>>>><<<<<tt5<222949e960@+X&X#@94t2,,rw,<22<>>rrw::r,>,,rw:ww:ww,,,,,,,>><25ee455t225996962tt<2>>w>",
"<rr,,22<,r:wr,><2<>:>>wrww,2555t222<<<<>>><2ttyyt5t54y564y4469644tt<>,wwwww::ooo:wwooo1o11oo33;;;;;.....$$%%$%$..;%OOOOOO%O%OO%O%O%O%%$%%%%%$$..$$$%O    ***77777777*7*777*7777777877878877787878878878878787777*     %OOOO%.$$$..33.%%%OO OO O  O%$11><rwo3.....$$$$%$%$$$.311:::o313331313...;1;;;.;;;;331ooooowoooo;$$$$$$.$%$$$$.;;1oo::w:oo111;3;33;31:r,o1.3:wrrww::wr,>>,,rww:rww:r,,>><<2y555ytyyyttt22t<522<rr,,>><<2<<<<<<<<<<<,<<>><544699@+XXX#e622<<r,r,<<t<>>,rw:::r>,,w:w:w:r,r,,,,,r,>>2ee0#9e522y599e65ty<<<r,,",
"yy>,>2t<<::::r><<,>>>><,>>,<<545222<<><>,,<2ttyyy5554665yy454666yyt,,wwwwwwww::::oooo:o1111113333...$$$$$$%%%%%%$%OOOO%O%O%O%O%O%O%O%%$%%%%%$$$..$$O    ***7*77787777*777777778777788887877878878788787887877777** *   O  OO%$$$$$;$%%%OOOOOOOOOOO$%.1><:w:3;.;...$$$$$$$$.;13o::oo11133313133;331;3;;1333;11oo1ooooo3$$$$..$$$$.$$$.;331oo::::oo1o:11o1;owrrrr33;owwrw::w:r,,>>,,w::wwrwr>><22444644y5yyt2t2tttt2t2<,rr>><>t2<<<><<<<2<<,,r,>><45549@+XX#+@65<><r,r,><<>,,rrr:w:r>>r:o:::wrrr,,,,,,>>2y6e@##@4622y546665t2<>>t5",
"55y<<ttt>::rrr,<>>>>>222>>22y55t2<<<<>>>>,<2yy54544666465565y4665yy<,wwwrr,wwww:::ooooo111oo133;;.$$$$$$$$%%OO%%%%OOOOOO%O%OO%O%O%O%O%%$%%%%$$$$%%%  ***7**77778777777777777787878888878787778788787878878777**7* * *    O%O%$$.$$..%$%%OOO%OO%O%%%$$.w::133;..;;....$$$$$.;11::::o3o1o3331113133333333333;;31ooooooo;$$$$....$$$$$..;;31oo1o:o::::::113o:r,,rr33..:wrr:::rr,,,>,,:::w>rw,>>24y466645yy5yyt2tty5tyt2>rr,>>>2ttt22t<>><2<>,,r>,22<2ty40@###@@055<,,rwwr>>>rrrr:wwr,>,ro:o::wrrrrrrrr,<t2y6e0@#@e#52yyy65yyyt<,<y5",
"555y25ytwr,r,>,<>222t5yt555y55tt22<<>,><<22ty544446999e994y22552t2<>rwwrr,,,,rrww:ooooo11o1o1;;..$$$$$$$%%%%O%O%%%OOOO%O%O%O%OOO%OO%O%%%$%%$%$$$%OO *****7*777878787777777787887878888888888878878887887877* ****** **  OO%%%$$$...$$%%OOO%%OO%O%%.$.;..33;;..;3;.....$$$..31o:ww:o:3111331113133;3;33;;;;;..1ooo:o1o.$$$.;....$$$..;.;311o1o1o::www:w::o:>>>rwo;.;owr,www,,,,>>r,:ww,,rrr2ty464666445455t22ty55552<>,,>>>22t5yyty<2<<2>,,rr<5t<2t2yyee+#++@06tyrrww:wr,,,,rrrrr,,,,:o:o:o:wrwwwr>w,<tt6990@#@@@9e55664646y<2255",
"5555y552,>><<<>2tyt55554444455tt2t<<<22<t554455446990ee94y22<<2<<,,>wrrr,,t<<>>,,w:::o1oo1111...$$$$%$%%%%%%OOO%%OOOOOOOOOOOOO%%OO%OOO%%$%$%$$$$%   *7*77777778878787787777787887888887878888888878787877*7*  *   * ***OOO%$$$$$$.$$.$%%%%O%%%%O%%..$..;133;;;331;.;...;..;;oowrwrwwoo11333133;;;3;;;;;.;;.$..1oo131.$%%$$;...$$$...;;;333o111o::ww::::wwr,>>:wo;..;ow,,r>,,,,r,rr:wwr,,,,<y59646666445445t255455yt22>>,>><<t55545yt<<2<,,<<t2y2t22256@e@##+#9222,r,::rrrw,rrr,,,,,,w:oo1owwwww>>><<<2y49000#@@99959y506445ytt5y",
"y54445yy<2>t2>ttyy54654666455455t2<<<t2<t564444664669965t2<>><<>>><>,,,,>24y45<>,rw::o1ooo11..$$$$$$%%%$%%O%%%%%O%OO%OOO%OOOOOOO%OOO%O%%%%%%$$$%%  *******77887887887877878788888888888888888887888878777** *  * ****   %%%$$$$....$...$%%%..$O%%%$$$$.;o13;3;13o11;;;;;;;;;1owwwww::oo33333;;;..;;;;.........;13.;;..$$..$$$$$$.;.3;;;;;331o11o:::w::::wr,>,:oo;;.$3wr,,,,>,,rrrw::w,,rrr<25464669#664495t2y5444tt<<,>>>><2tyy66955tt<<,,<<tt554ytt46669000@94222>w::::rwwwrw,,,rrr:oooooowww>t<t2t2t460##@@@@@@99e469666445yy5",
"55464455yyyytyy555446666664446455t2<222<55666544444444ty22>>,>2y5yyyr<<<>4e496ty>,ww::oo:3;..$$$$$$%%%%%%O%%O%%O%OOOOOOOOOOOOOOOOOO%OO%%%$%$%%%O  *******7778787887877877777887888888888888888888878877*  OOO        *OOO%;;......$..$.;.$$$$.$%OO$$$;.;ooo13;33113;;;;;;;;1o::wwwwoooo1333;;;;;.;;;....;...$..3o333;.....$$$$.;.;;;31;3;3333ooo:o::::wwwww,wooo;;..;1w,r:r,,rrww::w,,r,rr>t5464690#00099445t5445t2<>,>,>><2y544696y54t<>,><y255545t44996690e9922<,w:roo:w:w::wwwwrrr:oo1.11:22y59442540@@@@@@@@#e#@###0ee495t55",
"44444455yy5y5y5445464646664466645y22ttt25496645444465545t2,,,,555y6y>2tt6600e94t2,,rww::w3.;.$$$$$%$%%%OO%O%%%%OO%O%O%OOOOO OOOOOO%OO%O%%%%%%%OOO***777*777878887887877888888788888888888888888887888777 OOO% OOOO   OOO%$;;.;...;;$$.3.$$%$$.%OO%%$;.o1o::oo3;31oo113333;3o1o::w::o:o1o33;3;;;;.;;;.;.;.....$.33o311...$$$....;.3113o;3;;311111:oo:rrr,,r>,,o:11;.;311,wwrrrrw:w:::wr>>,,<<5t5696e0@000e9655y5t5t<<>>,,>>2255466ee6445t<<<y545444yy959ee990094y2ww,rr:oooo:o:ooo:::w:oo3.11:>22y46yy54#++@+@@+@@@@+@@0ee9655y25",
"546644554555y554446999699644696444ytty5259e994469ee6664522,2tt69046455660009994y2>,,,wrw:o;.$$$%%%%%%%%O%O%%%%%%OO%O%OOOOOOOOOO%OOO%O%O%%%%%OOOO ****77777778787877877878787888888888888888888878887877  O%%%%O%%OO  OO%%$;;;.;..;....;.$$$%$%OOOO%$$1ow3::oo3;;3ooo3o1333o1ooo::::ooo1111133;;;;;.;;3;;....$..;;33113;.$.....;;133oo1o3;;331;31oo:w,,,>,,,,,:o11;;.;1or,rrwrw::o:::w,,>>rrryy466900ee00ee965t2t2<<<><>,><<5554990ee04yy222554ee6yyy4e4e909#0e522,ww:r,:ooooooo::oowoo11;;31or><yy5y2y4#@@@@@@@@@@@+@@0ee449yyy5",
"56644y5y5y4445446699999969666696455y4y555ee96456ee099644t2>44499#e0960060ee4y54yt<>>>wwwo1.;$$%%%%%%%OO%%%%%%%OO%O%O%OOOOOOOOOOO%O%O%OO%%%%%OOO  **7**7778787778777777888888787888888888888888887878787 *OO%%O%$%%%%%OO$$$;;.;;3;.......$$%%%%%%%%$;3;or1ww:o3;;;11oooo111oooooo:::o1o1111333;;333333;3.;;.....;.;3333......;;;;311oo113133333313o::w,,>>>>>>::33;;.;3ow,rrww:wo::::w,,><,rr<5549969ee@##0e65t<2><<<<<<<>><y5444e0#00e94tty5490e6e6y4y60++##@#4t<<<,:wwoo11:o:1o:o:o:131;;;3or,<<ttt25y00@@+@@+@+@@@@0ee6446542t",
"t5442yttyt46544469999999996666996644944969966646##@@#944yyy6000ee0@#@00994>yy5yy2<2<<>:r:3..$$%%O%O%OO%O%%%%%%%%O%%OO%OOOOOOOO%OOOOOOO%O%%%%OOO   ***77777777777787777787887887878888888888888878777877** O%O%$$$%%%%%$$.;;.;33313;;;....%%$%O%%%%%$.r,,::w::;;3311oo:ooo3::::o:o1o1o11113333;;3313333;;;;....;.;.3;;$.$..;;3;1oooo:o11111o3o3333::wr,,,>>>>rw:oo333;.1:rrrw::::o:::,>>><,wr<<5654496e0##@094454t2tt<2222<t554690e00ee6444556#@#ee64eee+++++#@e5<y<,,,,:11o1o:11oo:w:133;;;o:orr22yty4600#@@@+@++@00#0e9964y5y5t",
"ytt,2<2ty554444469ee9996999666699466966699696644e0+@@@e9y#@9@@0#0@@+@#952t<<<<2222<2<<,r:o;..%%%O%%O%O%%%%%%%%%O%OO%OOO%OOOOOOOO%O%O%OOO%%OOOOOO    **7777*7*7778777777888887888888888888888888878788777**OO%%%$$$.$.....;;3;3;;.;.$;.$$$;..$%%%%%$%$,>,rwwrw3313111ooo:o:::o:::o13311111333.;3;33;33;3;;;3;;.;.;.;;.$$..;31o1oo:ow:oooo1o11o1o31owrr,>><>>>>r::11;;3.1:wwrr:w:o::::,>>><wrr,<5yyt55y6ee0@@9994655yt2222<2y55449e#00e964444490@###e99e+#+@@@@@0652<<>ro131ooowwow:wwwo3;;;3o:w,,><22549#@@@+@@@+@@@@@0ee99y2ty52",
"<>>,r,<2t5y6y54499996966666969666ee99eee69999664e@++@@#@@#@++#@#@@@@@062<<>><22<<<<2<2><,::1;$%%%O%O%O%%%%%%%%%O%O%O%O%OOOO%OOOOOOOOO%O%O%O%OOO     **77******7777777787878888787888888888888888787777*7** OO%%%%$$....;3333;;.;.3o;o;$$3r$.$%%%%%$$$.>wrw>>ro1111o3oooo:o:o::::1o3133113;;;;3333;;;3;333333;;;;;;;;$$$.1oo:o:wwwrrwooooo1oo:ooo:1ww>>>>>>>>>rwwo:o11;1owrrr::::::wwr,,>>>>,::t<<tt254e00#@@09444455yy22<tty44499eee96655555e#@++++#9@+++@#@00096t22,::o1o:wwr:w:wrrwooo;;3oo:o,<<y5699e@#@@@@++#@@#00eee4655t22",
">>,r,,><254445469996666669996969e0ee0e9e999e996460#@++@@++@++#@@++++@@4y<>><222<<2<ttt22<>,oo1%%O%O%O%%O%%%%%%%%%O%OO%O%O%OO%OO%O%OO%OOO%O%OOOOO      *********77*77*77787888888888888888888888787787777** OOOO%%O$$$;3333333..33o33:3$;3rw..%%%$$%$$$;o1,>2,:11111111ooo:::o:w:113333313;;.;;3;3;;;;3;;3;;;;;;;.;..$$$$13o::wwwrrrrwww,>::rrwoo::,r,>>><>>,,,,:ooo133;1oorr:w:w:wwwr,>>r,,rw:<,r<22tt5500#@0ee96455yy52tt255566699e96666644e@@@+@++++#++@00e00@9452,:oo1owwrrrwr,ww:wooo3;:::orr2246e9e0#@00@+@@@@#e00e994542<>",
">r,>>,<<2y46944499999969999ee9ee009ee9999eee699469@@++#####++@@++#+@@0eyt2<<2tt2>2ttyyyytt>,>3$%%%%O%OO%%%%%%%%%%%%%O%%%%O%OOO%OOO%OO%O%OO%O%OOO O     *********7***7777788787888888888888888888887777*777***  OOOO%%$$;;1111o111w1o:1.1,2<:1$$.$%..$$$.1><>,rooooo1111oo::::w:woo3333;3;;....;;;;;;;;3;;3.;;3;;.....$$.331,>,,<<>,,>,,r>,rrrwwwwwwr>,>>>>,,,,w::ooo33;31o:rw:w:w:rrr,>>>>r,r:w::,><2ty60e##@@@00e666555yyy554466696996966649#@@++++#+##@@0eeee#e64y2>o11o:wwr,r,r:rwwo11;1w::ww><246660000#@@@+@##@00666645y<<<",
"r,>>,,>><ty6649999e99669699e9eeee09e9999e9009e96490@+++####+X#####@@@0e9y<<<2t222<tyyyttt5tywo$%$%%OO%%%%%%OO%%%%%%%%%%%%O%O%OOO%OOOOOOOO%O%O%OO           * *********7*77788888888888888888888887777777*7***** OOOO%$.$111w::owo13:o;31o><::ooo;...$$$;;w>t2:w::1:o31o:::::::::1o33;;;.....;...;;.;.;;;.....;;;.$..$$$$;1:,>><22<,>><,>>,>,,,wwwwrr,>,>>,,,ww:::o1o33;3oowrr::wrwwrr,,>>rwwroo:w,><2tt59#@@@++@##e604y5yyy54444464699966664ee@@@@++###+@0000e0@e66542>wo,,>,,rr,r:::::11;1ow:wr<<444669e##0#@@@@#0#000e555yt22>",
"rr,,>,,<><y4566e99999969999eeeee999999e9ee@#09996e00+++X#XXXXX###+@@@0e64yt2t2<<tttyyytttyy2w.$.;.%%%OO%%%%O%%$$%%O%%%%%%%OOOOO%OOOOOOO%OOO%OOO O           ***********7*7887888888888888888888878877777777****  OOOO%%$$;1::oowo;1;3o3ro,r::,,.;.$;%$3.;w,,<wo::oo1;31oo:::w:::1133;;;;....;..;...;;;;.;.....;;$$$...$.;oo,<<<22>><<>>>>,>,>rrw>wr,,>,>>>>rrrr::oo11;;;oo:rw,wrrrwww:,rr:o:woo::r><<2499@@@+@@+@+@@0eytyyy55544y46669966666990@++++###++00#ee@++09645><,2>,,w:wwow::woo1331>><2t5469969000@+#@@@@#000#e465t2>2>",
"wwrrr,,><2tt566999e9e9999999e9e999999e00e###@0eee6e@@+##X&&X&&&X+@@@@00995yt22<tytttyyt222yy>331;$%%%%%%O%%%%%%%%%%%%%%%%O%O%O%OOO%OOOOOO%OO%OOO   *    * *   ** *******778788888888888888888887887877777777***  OOOOO%%%$3oow::oo:o:13w,t222oo;;.$o;;..$1r>t>ooo113;;3ooo:o:w:oo333;;..;.;..;;;......;;..$$.$$.$$$$....;o1w,<22t<<>><<>>>,,>>,,rrw,,>,>>>>,>rrr:o111;;33o:::wrrw:o:::www111:11::rr><25600@+@@+++@@@@099yyy5555yy4466966669699@@@+++####++#0#e@@#+ee45222><r,www::ow::o11orw<>><t569969900#@@@@@@@@0#09559555<<r",
":wrrr,>>>2ttyy54446999999999ee9999ee00000#@@++@e960@++#X&&&&&&&#+@@@@0e9665ttty<t22<tt><>t2,w>wr;%%%$O%O%%%%%%%%$%%%%$%%%%O%OOOOOOOOOOOOOOO%OOOO  * * *  *  *  ****7*77777888888888888888888888878787877777*7**   OOOOOOO%%$33;:::wr:o3,<y2y2wo11131$;o.$$1r2,ooo33;;33o1oo:o:oo13;;;;.;.;;;;;;.........$$.$$$$.$$$$......1wr<2tyt>>><<>>>,,><r>,,w,,,,><<>,>www1111313;1oo::,wwwoooooo1113111oo:w><259##@#@@@@@+@@@@e96555555555444666966999@#@@+++####++@@@@@++++995622,>rr:rroooowoo13ow>,>>ttt96699999@@@@@##@6#0#9yt445t><,",
"w::w,,>><>2t224544446669ee999eeeeeee#0@#@@+@++@@0e+++X#&&&---XX#+@@@#009694t2<>><>,<<>>>>t2<>wrro$$$$%%%%%%$%%$$$%$%%%$%%%O%O%OOOOOO%OOOOOO%OOO  ** * * * * * * **778877888888888888888888888888878787787777****   O OOOOOO$$.3o:o:wr::r1<,ttrwo3::13o:;$$;1,o31333;;33111oo:oo133;3;.;;;;;;3;;;....$$$$.$$$$$$%$$$$$....;1:r<2tyt2<<<2<>>,,><><>w,,,,>><<<,,w:o1111113;;1o:r,rww:o1o13133;3311o:w><><6e0##@@@@@+@@@09495555555555446666e999e0@@+++++###++++@+###X+e99952,,rrr,rwo:ooo:13rw:,,,tt9e6699ee0#0@@#0#090#096495e2>>w",
":o:::,,>><<><<tt55y46490e0e0#0#0eee##@@#@+@++++@###+XXX&&&--&&##+@@@#0e96454y<>,>,,><,><22ty>:>w:;$;$%%O%%%%$$$%$$%$%$%$%%%%OO%O%O%OOO%OO%OOOOO *** **     * * ***77788888888888888888888888888878887887777777** *    OOOOO%$;;.oo;;oo::,<>221w,,>33;,:o...3oo313;;;;1o11111ooo3333;;;.;;;;3;;;......$$$%$$$$%$%$%$$$..;;31:,,22ttt>><<<,,,,<>>>>><>>>>>>>>,ww:o1o1111333o:r,>,rw:oo13333;33331oww<<<yye#0@@@@@@@##0965455555y555544449ee999e0@+++++#+#++++++#+###+@00945wrr<,,,::ooooo33wo:rw,549e66999900#@@@@#00000606y694yy,",
",::::rw:>><<<<2t55ty4660@@@@0@+@@@##@@@@+@++#X####+#X&X&&--&&X#+@@@@@#e9446e4<<rr,,,,,r<<tyt<o:rw1o;.%%%%%$$$%$$$$$$$$$$%%%O%O%OOOOOOOOOOOOOOO  ***** *** ** *****7787888888888888888888888888878788877878777****   OOOOOOOOO%%$3;331oooro>2<,r,>2wo::,wo;;oo3;13;;3;31131ooo1113;;;;;.;.;;;;;.$$$$$$$$%$$%$%%%%$$$$$...;;3or>ttt22<<><<,,,,>>>>,>>,>>>>>><wrwwr11ooo1333;o:,<<rwwoo:1333;33;331o,>>,2y40#@@#@@@@0e9945555555y5y55444669e00ee0@++++#++++++@++#####++0096<<,,<<>rw:o1o113311ow>r2496e99ee6ee##@@@0000e09964666yy2",
"2:ooo::,<<>><22ttyy556e@@+++@@++@+++@@+@@++#XXX#X#XXX&&&-&&&X###@+++@006649#046tww,rr,,,<25t,rr:o:r33%%O%%%%$$$$$$$$$$$$$%%%%%OO%OOOOOOOOOOOOO  * ****** ***** ***7778888888888888888888888888888878888877777*7*  OOOOOOOOOOO$%$$.3;1::o1rr>>2,,>>rwr,,2r3$;$.33;3;;33331oo31113;3333;;;;;;....$$$$$$$%%%%$%$%%%%$$$$$.;.;1o>>ttt22<><<>,,,>,r,r,,,,>><<<<<,,:::ooo1o1133;1o,,<,,r:oo1133333;331ow,><t440###@#@@#e664555544555555544669e##@#0##@+++++#++++++++#####+@0e96t<rtt<r:oo11113111oo:w29999696499009@@@##0eee9966664652",
"<o:oo::w>>><<<,2yy5564#@++++@+++++++##+@++#XXXX#X##X&&&&--&&X###+@++@#09900#0e5t<2wwwr,>22t5<r::31w:o;$%$%$$$$$$$$$$$..$.$%%%O%OO%OOOOOOO O O  * ** * * ** * ****7778788888888888888888888888887878878777777*7**  OOOO OOOOOOO%$$..1oo:o:3::>2<2<<w;wrw<::.$.;33;;;333;3313313333;;;33;;.;.;$$$$$$$$$$%%%%%%%%%%%$$$$....;www22t22<<<>>><,r,r>,,,r>><<2<22<>>:w:oo1o11333311ow>>rww::111313;.;31o,><4599e#@0000#009966945544yy55455456690@@##0#@++#+++++++@+++###+#++0eee4ty52<rooo11111o1oooo:>4e99696966e0#@#@##009969946444y<",
",1oo:wrw>,>,,2<<2y465e@++####++#+#++##++@+#XXXXX&XX&&&&&--&XXX#+@@@+@@##e@+@#@@6t<,>>r>><24y>too3,r:,;$33$$$.$$$....$..$$%%%%%O%OOOOOOOO     *  **** **********7*777787888888888888888888888888878878887777*7**7**  OOO OOO OO%%%%.;oooo:ow1:,2<2>>o<w<<>w;;$.3;.;;;33;;3133;3;;;3;333......$$$$$$$$$%%%%O%%%O%O%$$$$.$$.;ooo<2t22<<>>>,,r,,,,,,>><<<>2tyy<<<rr:o1o1o11111rw::,>,::oooo1133;;1;1:,<y5y5ee0#00eee00eee909444555y55555yyy9e@#@@#@@++#++++++++++++++###+@00e9y44t>w:oo111o1ooooo:>2254454yy2ye0@+@00eee9e66444y4525",
">woo::rr,>>,>,<2ttt4e##+###++#+########+##X&&&XXX&&&&&----&XX##@@+@@@@@0@@+++#@9t<rw>><<2t54y>1>1r>><ow3::wrwo33o33....$$%%%%%%%%%OOOOOO O    *** ***********7*777777778787888888888888888888888787887787777*77***      O      O%$;;3;33o:,3:oo,,<<,:>,r>,w;;.;..;3333;3;;33;;;;;;3.;$$.$$.%%%%$%$$$%%%OO%%%%%O%%$.$$$$$.;o::,<2t2<<><>>>,,,r>>>>><<y52ty2<<>,r::o1ooo11111r<>>>,r:::oo1o13;3331::,<2266e0#0e9eeeeee99e6e4yy5yyyyytttt560e#@@@+@+#+++++++++++@++#++++@00ee664y>wwr:,,o:o::::r,,>y96y5yyt4599##e#@@e00e96444yt522",
",w1or<<,<,<<trr<25490@+####X####X+##X##+##X&&&&&&&&X&&---&&XXX##+@@@@+@@@++@+@#4>rrwr,>>2tt44o1o,2<y2t,>w2<t2<<wo3113.$$%%%%%%O%OO%OOOOOO    * **** ****7**7*777*777777877788888888888888888888888887887777*7**7***       O OO OO$..;;..311;;$;;oow<<>,r>,oo;3...33113133;3;;.;;.$$$.$$$$$$$%O%%%%O%%O%O%OOOOOO%%%$$$%$$.1::,,<tt<2<<,>,>,,><<<<>>2yy5y5t22<,,rw::oooo11ooo><><2,wwow:ooo11;33oo::<55544e000eee9e9696444994455yyyy5ttt546ee@+@++#+#++++++++++@+++++++@#0e9965tt<2<<<<,::rw,r,rt56994ytyyy2299#e9@e#e0699644tt2,>",
"::wrrr,2t,rr:>y,554e@++#####X##X#XXXXXX&##XX&&&&&X&&&&--&-&&X###+@@@@@@++++0@@e2trr,,,><5ty55r>22ttytyttyt25yyt<:1oo;.$$%%%%%%%%O%OOOOOOOO   *** ******7**7*7*7777777777787788888888888888888888888878777777*7**7****** *       O%$$%$$..$.$%%$.1.o,,,rr:rr11o.;;3111333;;..;..$%%%$$%%%%%%%%%OOO%OOO%OOOOO%OOO%O%%$%%%.1,rr:r>tt222<<,>,,><<<<2yy5y56y56ttt2><w::o:oo:oooo,5ttt<>w::ww:oo1;31::>,t5y9e90eeeee99669e45490964455y5555y446ee#@++@+##+++#++++++++@++@+++@00e99664t<<><<,<w:rr><<>666ee6655y6545526ee@@#0000944y2>,:",
"::w,><2,tr,,::<2t96@0@#####X#X##X#XXXXXX&&&&&-&&&&X&&&&--&&&XX##+@##@@@+++@ee66y2,,,,,,t4545><<<y22yy5ytyyy55rto3311;.$$$%O%O%O%%OOOOOOO O    ********7*7*77*77777777877878888888888888888888888888878787777777**7******  *    O O%$$$$$$%.$%%%$.;ooo;::www:o33;1oo11133;;.$...%%%%%$%OOO%%%%%OOOOOOOO O OOOO OOO%%%%%O..,>>w>2tty22<<>,,,2<<<2ty554666644ty2><,::rrr,rr,,,><y5t2<::1o:w111311orrt55y4ee0eee9999e6e9646e09665444555tty590e@@+++##+#+#+++++#++++++#+#+@@0eee445522><2<>>rrr<2t4eeee0964449ee964e000e@@#0e64yy<,,:",
":::rr><<22,::rw<56999@++##X###X#XXX&XX&&-&-&&&-&&&&&&----&XXXX##+@@@#@@@++@04496<><>,>2245y564>5t2tt<><2<22542:o1;;3;.$$%%%O%%%OOOOO O  O    * ******7*7*77*77*77877777878888888888888888888888888888787877777*77********** *     O%%$$%$%%O%%O%%$..;.3$.;o:ooo1ooo1113;..$$$.$%%O%%%OOOOO%O%OOOO  OO O O  O OOOOOOO%O$$3r>><<2ttyt2t22>><t2<<<yyy46696646y22><,::>rr,,><,>,>555t>ww1o:o113331or>545y6600e94669e99e9966699966444555554y6e+++++####+++++++++++++++###++@@0ee9664yy>>2<>>,rr<t59e0#0000669e00e999e00@@@#0ee4452<r:",
",rr,r,54422wwr,y64000+##+##XXXX#XXX&&&&-&----&&-&-&&-&--&&X&X##@@#@@@#@@@++0e66tt><5><2t5tt444452<2y52<>>>>y2,,o1.;3;.$%%%%%OOOO%OOOO  O    * *********7*7*77787878887788888888888888888888888888887887877777777*7******** *       OO%%%%%OOOOO%%%.$%.$$.;;1;1oo::o1;;$;..$$$%$%%OOO%OO OOOOOOOOO O        O OO OOOOO%%.o:<<><<ttttty<22<2t22222t546966664622>2>,w<<t,>><>>,,555<>wwo1owo3;331o<<y44t4y009446666999e9666996666666y566e649#@####X#++#++++++++++++#+####++@e096465y<,2<>,,,>yy49e#00e00eee90#e6e0e+@@+@@00e94yt<<r",
"<,,>,,599y522,>266@09+#++##XX##XXX&&&-&----&&&-&-&&&&-&&&&X&X+++@@@@@@@@+@+@e96yyy55t><<225444444552ty<>>r,,<rrr1;....$$%%OO%O%O%OOO O O     ********7*7*7*7*7878888878888888888888888888888888888888787787877777**7***** *        OO%%OOOOOOOOOO%%%%OO%%$%$.1ooo:o3;.$%$%$%%O%%OO%OO OOOOO%OOO  O  O          O  OOO%%$r,,>><>2tttyt2<ttttt22t2254999666664452,,rwttt>>tt>,,y45y>,,::3oo33311o,25t55ty06445566666666644696e6e96699900@6e@@++#X###+++++++++++++++######@+@00044yt22<<>,>22299#@@@#000e0ee@##e#@+++++@@#0eee5t22<",
"y>>,>,<5e992445500##@++####X#XXXXXX&&---&-&-&&&&-&&-&-&&&&XXX+++@@@@@@@#@+@@099555y4t<2><55464544y4455t>2<,,,>,,13.....$%%%O%O%OOOO O O    ***************7*7778888887788888888888888888888888888878787878777777777******** *       O%O%%OOO%%O%OO%%%%%$$$$$1o1o:oo1.$$%OO%O%%O%OOOO O OOOOOOOO O               O OO%$$3::::ww>>ttttytyy545555ttt5666666666445522<<yy55455t,,25555<,:w3313;1ooo,25y52>2945555446464645444699999e9e90@@@+#@@++#XX#+#+++++@++#+++#++++####+@#0#946yt2<<><245960##@#@#00#0##@@@@@++++#++@@#0ee6t2y2",
"y<><2<55990++@+@+@+++##+##XX##XXXXX-&---&&&&&&--&-&&-&-&&&X#++++@@@@@@#@@@@#00e64455<<<2y55546444665552<<<2,,<2<w3.....$%%%O%OO%OOOOOO O    ***************77888888888888888888888888888888888888887877777877777777*7**** *     O  OO%%OO%OO%%OO%%%%%%$;;31331111oo;;.$%%O%OOOOOOOOOO  OO O O O O O    *       O OOOO$$;33331oo>2ttttyyy4464445yt4666666666655y2y22tty45445<<25645t,:o113331ooo:<t52,2t455y5tty4444445y5449e999#0e00#@+++++++#X#++++++@++@++++++#+#+X#X#+@@@#0955t2<<<ty6e9#@@@@@@#00#@@@@@@@@+++###++++@99945yt",
"t222545599e@+++++####X###+#X#XXXX&&&---&&-&&&&&&-&-&&&X&XX###++@@@@@@@@@@@#0ee664445<<<2555444446944655<<2<<222<w3;.;3.$$%%OOO%OOOO O O      **************77888888888888888888888888888888888887878787878777777*7*7********       OOO%%%%OO%%O%%%$$;.;33331;;;31133.$$$%%%OOO O OO  OO O  O O O O O    *       O OO%%$$..;..;o,,tttt555664664444444444466669445y44544444542t25669y<:>r133;.3oo::,r>w<5455yt5t2yy544555549994#@@@0##@@+#++++#+XX+++++@+@@+@+++###++##X###+@@@0654tt5y5699ee#++@@@@@@@@@@@@@@@@+++#+#++@+@9664555",
"t5y56996ee0@++#####X###X#XXXXXXX&X&&&-&-&&&&&&&-&&&&&&&XXXX#+++@@@@@@@#@@@#09944445yy<2y55544449999552t<<22<2t22,o3;13;.$%%O%OO%OOO O O    ***************777888888888888888888888888888888888888787877877878777777*7***** *      OOO%%%%%O%%%$$%$$3;.1;33313.;;3333$$%%%%OOOOOO    OOO   O O O O  O   ** *     O OO%$$$$....;1r<222t545446966666466664466654944466699444455524669ytt>r133.;3oooo:r,><t2y2tt<t2<<y55y555694e9e0@@@@@++##X#+++#####++++@+++++++###+##X####+@@@@09666y44e#0@@++@+@+@+@@@@@@@@@@++++#+##+++@0665yy5",
"t55699669e#+++##XXXXXX&XX&&XXXXXX&&&&&-&&&&&&&-&-&-&&X&XX#X+++@@@@@@@@#@@@@96644555ytyy5y5444669e9e6t2222<ttttttro13o1;.$$$OO%OOOOOO O  *   ***************7788888888888888888888888888888888888878787878877777777*7*7***** *      %%%$%%%O%%%$$$..3;33;.;;;...;31o1$$%%OOOOOOO       O  O   O O O     * *         O%%$%$$...3:,><222y4546996699666644446655599444469996945444t666t<,>r333..;31o1ooo<><<<2tt<>,>><555545545599e#@@+++##XXXX#X###X#+++@+@@+++++#+#+##XX####+@@@@#e9969e@00@+@@+++@+@+@@@@@@@@@++++#+#+###+06445y4",
"644906eee0#@@+##XXXXX&&&&&&&&&XX#X&X&-&&&&&X&&&&-&&&&X#####+++@@@@@@@@#@#e696644555yty5y5564666699652<2<2222tt22r13orr;..$$%OO%OOOOO    * *   ***********77778888888888888888888888888888888887878878787878787777*77*7**** * *    OOO%$$$%%%%$$$$$.13;3$.$%$;...;33;$$%%O%OO O O        O O   O O O   **        O O OOO%$.$.;oo,,,><2y54696996666646664665y54499444499e965445466692<,oo3333..;131311r<><<<,2>,,>>2>5545y565yy49e0@+++#XXXX&&XX#+##+#+@+@+++++##XX##XXX#X##++@@@@#09ee@@@@@++++++@+@+@+++++@@@@+##+######+@444559",
"9e4e00@@@@@@++#XXXX&&&X&&&&&XXX&X##X&&&&&&&&&&&-&&&X&X#X##++++@@#@@00@#@0e69444455y5555545466669e955222<<222yyy2<r::>o;..$$%OOOOOOO O    * * ***********77788788888888888888888888888888888887888887878787778777777*7********      OO%$%$$%%%$$%$.$.;;..$%$$%$$$.;;..%%%%OOOOOO O         O    O O     * *    O   O OOO%%$.$3o::w:>>225499e996666444666455546699646469699444666669y5oo333313;;33;;1or>,:,,,>>>>,><2t55yt<55y4665ee@++##XX&XXX#++++++@+@++#+++###XXXXXXX###++@@#@@@eee@@+@+++++++++++@+++++@@@@++#+#+#+##++044469",
"0#@e0@@@@@+####XX&&X&&&&&-&&&&X&X###X&X&&&&&&&&&&&&&XXXX#+++@+@+@@@00#00e64644455555yy5646664699e95yy2<22222yyy2<>2t>33..$$%OOOOO  O   *  *  **********7778877888888888888888888888888888888887878878787878878777777**7**** ***    OOO$$$%$$$$$%$$$$;$$$%%%$%$$...3$$$%%%%%OOOO              *    * *** *          OOOO%$%%.1oo:rrr,<t49eee9996666666645y54469ee6664669444549666696<r1333131;;;3;;1:<<r::,<,>,>,<t2t55y22<<446440e0@++#XXX&&X++++@#+@++++++#++###XXXXXXX###+@@@@@@@@@@++++#+##+++++@++++++++@@+++####+++++ee6669",
"00@@#@@+@++##X#X&&X&&&&&&&-&&XX&###+#XXXX&&&&&&&&&&&XX##+++++++@@@000000e9666449644yyyy54664699996655t222t2yy555y5<t<r131..$OOO OOO      * ********7***778888888888888888888888888888888888888888788887887878777777*7******** * *    O$$$$%$%$%$%%$$%%%%%%%OO%$$$.$.$$%%%%OOOOOO              ******** *        O    OOO%%%.$..ooo:w<t469eee999666966444y544499eeee9669996496644696y>oo3111;;;.;..or<>:oo::,,>>><<2tt5<222tyt54ee#0@@++#XXXX&X#@@@@++@++@+++++##XXX&X&XX###+++@@@@@@@+#++#+#+#+#+++@++++++++++++++++##+#+@@#90e#",
"00@@++++++++#X#&XX&&&&-&&&&&&&&XX#X+++XXXX&&&&&&&&XXXX###++++++++@+@@@@##ee9696ee965yy52y544669ee944645t2ttty4544522wrw11..$%OOOOO O   *    ****7***7*77788888888888888888888888888888888888878788888787878878777*7************ * *OOO%$%%$%%%%%%%%$%%%OOOOO%O%%%$..$$%%%%O%OO O  O         * *********  *        O OOOOO%%%%$.o:oo:,>25400e9966669945t45554999ee0e9969496ee66446695>r1o1o13;...;3r:1:3ooooow,><2<<222<<2t2ty546699900++XXX#X&#+@@@@@+@++#+++++##XXXXX&XXX##++@+@@@@+#+##+####+#+++++++++++++++++@++++#++@##0#@0",
"@@++++++++##X##X&&&&&-&&&&&&XXX&###+++++#X&&&&&&&X&XXXX#+++#++#+#++@++#@+@@@00#0e964yytt555499999e666y55tt5ty54545yt>w:o13;$%%OOOOO      * ****7***7*7777888888888888888888888888888888888888888878878878787877777****7*7***** ** * OOO%%$%$%%%O%%%%%%%OOOOOO%%%%$$$$%%%%OOO OO O   O O      * **********           OOOO%O$O%$.oooo:,,<55e0e966646464ttt44t69ee600eeee999e0e964449655r::oo1;;....rr<ro;o13ow,>>><<<2<<<<>>yt5444696e9e#+#XXX#+#+@@@@@++++++++++++XXXXX&XXX###++@#@@@@+#########++++++@+++++++#+++++#+##+@@+@0#@@",
"+@+##++++##+XXX&X&X&-&&&&&&&XXXXXX#+@@@++XXX&&&&&&XX###X#X#X#####+#X##X+++@+@@@0e644yt2ty55699e949664555t22t2>4446ytwroo13;.$%OOO O O   * * *****7*7778888888888888888888888888888888888888878788887888788787777*7*7********* * ***    OOO%%%%%OO%%%%OOOOOOOOO%%%%$$$%%%%OOOOOOOO O  O O O   * *****7*****       O O OOOOO%OO%11o113o12t59ee996664y45y55546eee990000000940e99644666y5rw:wo3;;;..;o::ro;;;311r>>><>>>><<>,>>>t49949466e@0+####+++@@@@+@+++++++++####XX&&&&XX###+@@#@@++##X###X##++++###+++###+++++#++#+#++@@+++++",
"++####++###XX&XXXXX&&&&&&&&XXXXXX#+@@@@@@#XX&&&&&&X#X##X#XXX#######XX#XX##+#++@e66645tyttty459e945yy5tyy222<t<<t5444ytw:o1...%%OOOOO       *****7**7778888888888888888888888888888888888888888878788887887878777*7***7*7******** * ***  OO OOOO%OO%O%OOO OOO%OO%%%$$%%%O%OOOOOOOOOOOOOOOOO    * **7*********    O O O OOOOOO%$311133oo<t5e9e966644555545y69e0999900ee00#0e0e9646469<2<ww,ww1;;;13oo:o.;;331o::><>,>>>>>,<><<<2t44y554+90@+####++@@@@@@@+++++++++###XX&&&&X###+#+@#@@+##X##X#X##++++####X####+#+##+##+#++++@++#++",
"+#+######X#XXXXXX&X&&&&X&X&X&&&X#@#@@@@@@###XX&&&XXXX#XXXX#XX##X#XX&X&XXXXX#++@9e4yy2<222tt55696545t2222222>>,2t46445y,:13..$$%OO O      * *******777788888888888888888888888888888888888888878887877878787777777*7********  * ***** **    OOOOOOOOOOOO OOOOO%O%%%$$$$%%OOOOOO%OOOO OOOOO O  ******7******  * *    O OOOOOO%$$;;3;;1::tty9eee96464556644669009999eee000@#0099666646rt>rr>,r:13331:w:3.;;;;11::,>>>>,,,,,,><<<<22tt55546e#+#++++@@@@@@@@@++@++++####XXX&&&XX####+@@#@++X##X#X###++##+X#X#####+#++#+###+#++++##+++",
"+#########X#XX&XXX&&&&&&X&&XX&XX#@#99e##@++###X&X&XXXXXXXXXX#XXXX&X&&&&&XXX+++@0e62<2<<<t255y4445yyt222<22>>>><2452252<o13;.%%OOOO O      * ****7*77777888888888888888888888888888888888888788878788888787877777*7******* * * ** * ** **    O  OOOOOOOOO OOO%O%OO%%$$%%O%O%%%%%%OOOOOOOOOOO   ****7**7********          OOO%%$..;;;11>2yy4999664666tyy2669e099e999ee0@#@@0#099666662>,>>>>,>roo1oww11;;;3311:r>>>,,,,,,,,,>>>>222t5554690+@++#+@@@@@@@@++++@+++###XXXXX&&XXX####+@+@++X##X#X#####+####XXXXX#+#+#+#####++++++###+",
"#X#X#X##X#XXXXXXXX&&&X&X&&XX&&&X++945e99#@@+##X#XXXXXXX##XXXXX&&X&&&&&XXXXX+++@0e4t22<<<2<tty444y<2<<<22<>>,>>2yyy222<<:o1;$%OOOO O       *******7*787888888888888888888888888888888888888888788878787877787877777********   ****** *** **    O OO%OO   OOOO%OOO%%%$%%%OOO%%%%%%%%OOOOOOOOO   ***7**7****   * **      O OOOO%%%$.;3;rr2259eee6646664y2556999y524<y00#@@@@###0e969662<><<2<>>,,,1orwo3;3333o::w>,,,>>rrw:,,>>>>222t5554460e++++@@@@@@@@@@+++++###X##XXX&&&&&X#XX#++++++###X#XXX#X#X#XXXXXX####+#+#######X#X####+#",
"##XX#X###XXXXXX&XX&X&&&&&X&&&&XX++444969###++##XX#@##+X#@#####X#XX&XX#XX+##++@+e00ty>>><<<yt454t2<><<22<<><r,,><<<22>t,:oo.$%OOOOO O    *  * ****777788788888888888888888888888888888888888888787887878787778777*77********** ** **** *** *     OOO O O OOOOO%O%O%%%$%%O%%%$%$%%O%O%OOOOOOO   ************* ** **     O OOO%%%%%$$.3:oo<6e9eee99966446669e46542<<<0##@@@#####0e96664<<222ttt<,r,wwwo3;3111:w:rr,>>>rrrr:wwr>><<222yy544466+@++@@@@@@@@@@@++++###X#XXX&&&&&&&&X##X##++###X#XX#XX###X#XXXX#X#XX#+#+#+#####X##XX###",
"##XXX#X#XXXXXXXXX&X&&&&&X&&&-&X##@940496#0#@++##@@e@9#60@+++####+X#+#++++##++@@0992t2><>><t545y<><>><<<<<<,,r,><<<,wrr::oo;$%OOOOO O    * ******7*7778888888888888888888888888888888888888888788887878777877788777*7****** ********* *         O OOO O OOOO%OOO%%%%$$%%%%%%%%%%%%%OOOOOOO    ***7*7*7**** *** ** *   O O%%%%OO%%%$;.;11o,554000096ee9969e946<2tt6600@@@@#@####e999642tyt25y55>>,>rw1.31311::r,,,>,,rwwww:wrr>><<2tt5y555466@@@+@@+@+@@@@@#++####XX&X&&X&&&&&X&&&XX#X#####XXXXX#XXXXXXXXXX##X#X#+#+###XX##XX#####",
"###X#X#XXXXXXXX&XX&&&&&&X&&&&&X##++@5044e00#@++409@66<<4e++9660++#@@@@+#+#++@@4099522>,>>><t<yy2><2<>>>>>>>,,,,>,>,www::oo;$%OOOOOO   * ***7**7777778788888888888888888888888888888888888888887878878878777777787777**7**** ********** * *      O O  OOO OOO%O%O%%%%%%%%%$%$%%%%O%O%OOOOO    ********7*********      O O%%$%%%%%%.;;.3o;1,t40@#0##00eee9964<2544200#@@@@#@##@@#ee6655y55yyyy5yt>>:w3;33111o:wr,,,>rrrwrr::w,>><2<22t5y55449ee@@+@@@+@+++++######XXX&X&&&&&&X&&&&&&XXX#XXXXXX#XXXXXXXXXXXXXXXXXX###+####X#X######",
"#X#XXXXX#XXX&XXX&&&&&&&&&X&&&&X###+#9449ee6@++@4<t>y>,,>256444666@0@90e@##0e#e465562>,,<>>><22tt2t222<,,>,,,rr>,>w:::::oo1.$%%OOOO O    ***777777777788888888888888888888888888888888888887878888788778777777777777*7****************** *  *     OO OO OOOOOOOOOOO%%O$%$%%%%%%%%%OOOOO O     ***7**7***********     OOOO%$%$$$$%..1;.33;:556#@@@@##@#@0eeee6t5944#0#0@@####@0##0e666555555yyyt2<wroo11ooo1o:wr,r,,rww:r:w:r,,,<<<<tttyy5599ee0@@@@@+@+@+++##XXXXX&&X&&&XXXX&&&&&-&&X&XXXXXXXX#XXX#XXXXXXXXXX#X#X#####X##X##X####",
"X##X#XXXXXXXXX&&&&&&&&&X&X&-&&&##++#99449e9#@+@52>>r:r,,,22544#t56#49ee9e9ee952y5yt>>,><<<<ttty5555tt<>,,,,,,,r,r:::::oooo3$%%%%OOO  * * 77777777777878888888888888888888888888888888888888787878787887777*777778877*77*7****7*7*7******  *    O   O  OOOOOOOOOO%OOOO%%%$%%%%%%%O%OOOOO O * **7**7**********   OOOOO O%O$$$.;$$.331o1:::,55e@@@@@@@@@@@0000#e9#000#@@00@@@@000##e9994555555ytt2>::o111o:o::>ww,,,rrr::www:>,,,><2222ty555996e0##@@@@++++####XXXXX&&&X&X#&XX#X&&-&&&&&&&XXXXXX#X##X#X#XXX&XXX#XX#X##X###X#X######",
"#XXXXXXXXXXXX&X&&X&&&&&&&&&&&&X##+++#0#699e#@+#6>:w::o:w,<<256965454569e0e994544t<>>><22<222ty5y5545522>>>,,,,,wroww:oooo1.$$%%%OOOO 7***7777777878878888888888888888888888888888888888878788788787877777777*77778777*7*7*7*7*7***7*********      OOOOO OOOOOOOOOOOOOO%%%%%%%%%OOOO O OO  *****7****7*****     O OOOOOO%%.;33;;11w>r1o2,55e@@#@@@+@@@@@#0##0@@@@@@@@@0@#@@@#####09996554555ytt2r:o11rr>w:w:>25>r,rrw:rrrrww,r,><22tty5y44666090#@@@+@+@####XXXX#X&&X&XXXX#X#XXX&-&&&&&X&XXX#XXX#X#X#XXXXXXX##XXX#X###X#X#X#XX###",
"X#XXXXXXXXXX&XX&&X&&&&&&&&&-&&XX#+#+99644690@+02yt,::o:w,>2>554444yy5444e9669955<>>><<2222<ty55y5545yy<>,>,,>,,rr,www:o1o1;.$%%%OOOO  *7777777787777888788888888888888888888888888888887887878787877777777**777787777777777*7*777*7*7*7*** ** **   O OOOOOOOOOOOOO OOO%%%%%%%%%OOO O O    ****7***7*******    O OOOOOO%$$$.333;o1rrr>>2yyy9#@@00@@+@+@@@@@@@@@@@@@@@#0##@@@@@@@@@e99644545yyt2>,::1o,r><wo>>25242>>,rrrrr:wwrr>22ttt55544446990#@@+@@@++#####XXXXX&XXXXXX###XX&&&-&&X&&XXXXXX#XX#X#X##XXXXXXXXXX#X##X##X#X######",
"#XXXXXXXXXXXXXXXX&X&&&&&&&X&&&&XX+++0e6544e0@@@y6ty>::::wrw><4tt22225554494995222<><<22ttt2yyy55555552<,,,rr>,r:r:rwwoo111;$$$%%%OO%OO**777777777878788888888888888888888888888888888787878787878777777777*77*77778777777*7777777777*7**77*******   O OOOOOO O OOO  OO%O%O%%%%OO  O      ***77**7******** *    OOOOOO%$$$.;;;311oor>,w29446#@0900@+@+@@+@++@++++@###0#0##@@@@@@@@0096645555ytt>::::>rw55<ee900ey4<y>rrrw:wwr,><t2yy5454446646900@+@@@@@++#++#+##XXXXX#X#####X&&X&&&-X&XXXXXXXXX#X##X#XXX###X##XXX####X#XX##X###X",
"#X##XXXXXXXXXXX&X&X&&&&&&&&&X&XXX+@+#e646ee0@@@0#eey,wwrw,,<<t2222ttt55466444tttt22<2ttttttyy5445554ytt>,,rr>,,,:,,rroo1333$$%%%%%%%OO  **7777777777887888888888888888888888888888888787878788787787777*7*7**7777877877777*777777777777*7**7******   OO OOOOO OOO   OOO%OO%O%OO O     ****7*7*7**7********   O O OOO%%%%%.;1owrwo:r2t44t444496900@@+@@+@+@+++@+@@##@@@@@@@@@@@@@@#ee966555yytt,,:o:w22445ee@0#eeee5>>rrrwww,,><25yy54446464669e#@@@+@@@@@+#++++#####X#X####XXX&&&&&&&&&&&XXXXX#XX#X#X#####X##X###X#X#X#X#X##X###",
"#XX#XXXXXXXXXXX&XX&&&&&&X&XX&&X###@@0e96990#@@@+#4<rwwwrr,,<<t222ttyyyyy46655tt2t2222ttt22y55554445555t2>,,,,>>>>,r,,:o113.$$%%%%%%%OO  **777*7**77878888888888888888888888888888887877778778787787777777**7*7*7777777777777777777777*77*77*7**** *    O OOO O OOO OOO%OOOO%OOOO O   * ****7**7***********     O OOO%%%$$$$.31113<<<544tt644559000@+@+++++#+++@@@@#@@@@@@@@@@@@@@0e0e94454tt2<,rooww>2560@@++@@@ee942>rrrwr>>>y22y54444666669e0##@+@@+@+@@+#+++####XXXX#X##XXX&&&-&-&XX&XXXX#XX#X####X##X##XX#X#X#X#X#X##X##+###",
"#X#XX##XXXXXXXXX&XXX&X&&X&XXXX####+@0e999#@@@@+094,::rwr,,,>>22yy2y5tyy2t55yyttyyt22tttt22y55544555555yt<,,r,><>>>r,w:o133.$%%%%%%$%$O O  * ****7*78888888888888888888888888888888887878778787787777777*7*7***77777777777*7777777777777777*77******  O O OOO     O    OOOOOOOO  O    ***7*7*77****7********    OOOO%%%%...o;133<:<t22444tt4yy<90000@++++++#++++@@@#@@@##+@@@@@@@@0006944442tt>r:oo:r<<49###++@0##eeee<>rr,r>>22t2694446666999ee0#@@+@@@@@+@@++++++##XXXXXXX#X&&&-&-&X&&&&XXXXXXXX##X######X#XXX#X#X#X##X####X#X#",
"#X#X#XX#XXXXXXXXX&&&&&X&&XX&XX###+++@0eee@@@+#6tr<::wwwr,<<>>22ty2t55ty24546ttty55ttty55y2ty5455t55yy5555>>r>><>,><,:w:113$$$%%%%%$$$$O* O   *****7878878788888888888888888888888777777778777877877777*77**7*7*777777777777*7777777777777777**7** *     O   O        OOOOOOO  O     *****7*****7*********    O OOOO%$$$...33;w3<>2y2tt4552<>2,r6660++++++#+#+@@@@#@@@@###@@@@@@@#00e96644t2tt<,wo1:,>y49@@0+@ee@#066952y,>><t55566994696699e9ee#0@@@+@@@@@@@@++++####XXXXXXX&&&&--&-&&XXXXX##XX#######X#XXXXXX#X#XX#X#X#X###+#X#",
"X#X#X##XXXXXXXXXXXXX&X&&XX&&##+#####@0ee#@++@642worrrr:>>2<<<2<2ttttt2<y4449655y5yyty554yytt555yt55yt5455<>><2<<>>,rw::o13;.$$%%%$$$$$%$$%O   ****788888888788888888888888888888787878787787878777777777*7***77**7*777*7**7*7777777*777777*7***7****      O            OO  O O      ****7**7*7****7********   OOOOO%%$;;1o;o::>,><22<t4ty2252,rwyye@@++++++#+@@@@#@@@@###+@@@@@@#00e9644522t2,rw,:,<<54e#00@+@0@@e466ty2><<<256469eeeeee9900e00#@@+@+@@@@@@@@@@+++###XXXX&&X&&&&-&&&&&X#XXXX###X####X#X#XXXXXXXXXXX#XXX###+#####",
"#X######X#XXXXXXXX&X&&X&X&XXX#+####++#@@+##+e65:1owww:r><><2<22tyytt22<2660e644455555444yyytyyytt5ttt5544tt2tt22<<r,rr:oo.;.$%%%$.$.$$$$.$%O O*  *788878787887888888888888888888787777777877787787777**7**7***7*7*7*7*******7*7777*77*7*7*******7****                    O     O   ****7*******7**********   OOOOO%O%%.;;1o:w:w>>,<2ty5yy2>w:1ow,55@+@+++#++++@@@@@@@@###0#@@@@#00ee9644t2<<><rw,o1o,t6e#00@@@@e@ee44422><tt596999eee0ee9000@0@@@@@@@+@@@###@@@++++##XXXX&&&&&&&-&&&&XX###X#####+#X###XXX#XXXXXXXXX#XXXX##+####X",
"X+##########X#XXXXXXXX&XXXXX#X##X####+#+#+++0t,33o:::rr,>><2<w,2252<<<<2500e096654645444t55ttttt2tttty5545y2t5y2<<,rrw:oo;.$%%$$;....;.$$.%%%   **7788878888788888888888888888878778787877787787777777*7*7**7*****************7*777*7*7***** * **77****             *   O  O      ****7***********7******    OOOOOO%O....owwwwwwww,,22>,<>rr:11o,yy@@@+++++++@@@@#@@@@#####00#@#ee999465t2<<<>>r::1:>26e#@@+@+@@6664496<<<y5y9e99e000000e000@@@@@@@@+@@@@@0###@++++#+X#&&&&&&&-&&-&&&XX#+#+#+#+#+#++#X#XXXXXX&XXXX#X#X###++#####",
"+##+X+#######X#X#XXXXXXXXXXXXXXX#XXX#+XX#+@e9,;11:oo:r,,<><2rw,>>>><<<<249000099666454445t22tttt2tttty55545545y22<>,rr::o..$%$$..;;;;;;$.$$%%OO **78787878788878888888888888888878778778787778777777777***7******************7**7**********    ***77***        O     *            *****7********7******  *  OOOO%%%%%.3:o:::w:wow,,rr>>,,<rw131,,y6@@@@++++++@@@@@#@@@@##0ee00#eee99966y22<>>>,,>r:,<46e#@+@@###@992255tt6646eee##@@@+@+@@@@@+@@@@@@@@##0000#0@@@++++###X&&&&&&&&&&&XXX+++++#+#+++++##XXXXXXXXXX##+##XXXX++##+##",
"+++#+###+######X##X#XXXX#X#XXX#XX#X##XXX#+#4yo311oooo:w,,<,rr:o,,>>>><<240000ee9e966666665yy2ttt222tyy55454445y22<<>r:::33..$$..;31333;;.;$%%OO *7778777878787888888888888888888878777877787877787777777*7** ** * *****   * ******7**** * *    *****7***     O    * *             **7*7*************** *    O OO%%%%$3:o::::owro:,,wwr>,oo1o111,,66@@@@@+++++@@@@@@@@@@@0ee0#0#eeee9946522<>>>,<rw:<<59e0@@@@###@e6<<t5566666e0@###@@@@+@++++@@@0@#@@#0000000###@@@@+++#XXX&&&&&-&&&XXX#++++#++++++++###XXXXXXXX#####XX##+@+##++",
"+++++++#+###+#X##X#X#X#X##X#XXX#X#X#X#XX##06yo33133oooww:<r:ro::w,,rr,><400#000099966666654ttttttttyty5yy444555t2<<>rr::13;1..;;o1o13333..$%%O *7777787877878878788888888888887878778778787777777777777*7*7*** * ****  * ** * ******** *    * ****7**7***      O    *      O    *********** *** ******     OOOOO%%%$.3o::o:o1w,:::o31wwoo313ooo<<tt00#@++#+++@@@@+@++@@@000e###eee96944222<>,,rrrrr>><69#@@+@#ee@@5yyyy4966ee00#@@@@++@@++++++@@0eee000eee00##0#@@@@@+##XXXX&X&&&&&X&X###+++++@+++++#+#X#X#XXXX######XX##+++++++",
"++++++++++++#+##X####X#####X##XX##X###X###095331o3oooooo:::rro::rrrrrr,><55##@@0ee9699666445tytyttyyyytty54655yy2<>>>r::1;311o:::1311333;.$%O ***7777787778787878878888888887878777777877777777777777*7*7******** *** *     *  * * *  *        ************   O  * *           *  ****7***** * * *** * *     OO%O%$333o:::ooow:1133$1o.;o.;;31ow<560@@@+++#+++@++@+++@@@0#0#0##0e96644222<<,r,rr:::w><59e@0@@##0#09645y5y46ee#0#@@@@+++@++++++@#ee0e0eee0ee0#0##0####@++XXXXXX&&&&&&XXXX#++@@@++++#++####XXXXXX###+###X+++@+++++",
"@++++++#++++++##++###X##X+#+#X#X#X#XX####+#2,111o1oooo1ooooooww:w::w:::w5ytt9#@@eee699996664545tty554y5yt5y45yy222>,r,r::::w::ooooo133;;.$$OO ****77777878777878788787878787877777777778777777777777*7******* * *   *  * * *  * *  *           ************      ** * *       * ************* **   *       OOOOOOO%$;3o:o:11:w1113$$..;$;3;;;33<<>y0@@@@++++#+++####++@00000##00995455<<2>,,wwr:::rw,<t50##@@9690096555554490999#0##@++@+@+++@00eee99e69eee00#0000#@@@++###XXXX&&&XX&X##XX#+@@+++++##+##X#XXX&X#X#X#XX#++@+@+++@",
"+@++@++++#++++++#+#######+######X#X#+####++0w111o1o1ooo1o:o:1o:::::o:o1:w225e0##0ee9999696444455yyyyt555yyt4ytt22>>,,rr:o:::::::ooo1333;$$%OO ***7*7787777787777878788878778778777777777777777777*7**7******     * * * * * * * * * *       O     * *****7*** *** *****         *********** *   *  *  *    O OOOO%O%$$%:oo:1.;;11:3$$.....%$$.31,,,260#@@++#+++#+###++++#####@000966552<<<,,rwrooo:wr,<559#ee##99e9955t6664456699e###000#+++@@@0ee99694669e0##000000#@@+#+###XXXXX&XXX#XXXX+#@@@+##+###X##XXXXXXX####X##+++@@@@+@",
"@@+@+++#+++++#+++++####+##+#+###X#######+++5o311oo11o1oo1::o1oo::o1o111:::554#0#eee9466546666655yyt<yt5yt2t5t222<>,,r::o:oo:oo:ooo1333;$$O%O    *****777878778787878777878777777777777777777*7777*7*7******       * * * * * *  * *                * ********* * ** *  *       * ** ****** * * *          O  OOOOOOO%%$$3o:;;;.;;:333$..$$%$$.311www<666@+++@+####+#++++@@#0##00e9645t2<<>>,rr::oowwrr,<<99ee0#e904454445644ty949900600#@++@@#0ee966444566e000@#00000@@+#+#+##XXX&XXXX######++#@#+###X#X#XXXXX&XX####X##++@@@+@@+",
"@+@@@+++++++++++++@@##+#+#+++++#+##++##+#+#r;333311ooo1ooowo11o1oo113111::>499###9e664455546455yyttt<t5ttt>tt2<>>:rrww:o1oooooo1ooo313%%%OOOOO  * *77777777878787777878777777777777777777*7*7777****7***7* *    *  *  * *  *  *          O O   *   * *******7* *******       ****** * * ***               O OOOO%OO%%.$33..;1.;$;$3$$.$$$%$$$1..:::>444e+@@9+#+####+++@@@@0#000e6444yy<>>>,rrww:::wr,,>2599e0#ee044445999y5ttt4699966e@@+#0@e0994444y55669e0##0#000@@++#+#+###XX#XXXX###X#+++#+####XXXXXXXXXXXXXXX####+@++@@@@@@",
"@@@@+@++++++++++@@+@+##++@+++++++##++++#@00>;;;3;3311o11o::11311o1o333;331,<260eee965ytty556455y5y2t22yyyt2<2<>,,rr:::o1111111ooo1133;$%OOOOO%OO ** 7*7777777777878777787777777777777777*7*7*7*7*7******          *  * * * * *   * *      O         ** *******7***** * *    * * * **  ** *  *            O OOOO O OO%.;33.$$.$.$.$$%$.$$%%%$%$$.333>2e6<<6@@+#####+#+++@@@0000ee4645y2<<>>,,rw::wwrr,>>>5649900e955yy99e65tttttt5456e0@@#96e96664455t554669e#0#0####@++++#####XX###XXX##++++++#+##XXXXXXXXXXXXXX#XXX##+++@@@@@@@",
"@@@@@+@+++++++@@@@@@+++++@@@@@@++++++++++6t3;;;;;;;311oooo11;;31311333333:w<2600ee665yy2y55445yttyyytyy5<>22<>>,,w:oo:o1;.33331o1111;;%%OOOOOO%O  *****77777788778777777777777777777*7*7*7*7*7*******            *        *             O         *  *  ***************     *******  * *** * *            OOOOOO O O%O$..$$$..$%$$%%$3.$%$%$$$$;;;3:r<:<y>55++#####+++@@@#0eeee664545t2>>>,,rwrrr,rr,,><t446ee0e6455566645tt2<22yy660#@@@e2t44455yyyyt554660###@@#@@@@++++##XXX#X#####+#+++++++####XX&X&X&X&XXXXX#X####+++@@@0##",
"@#@@@@@@++++@+@@@@#0@++@@@@@@+@+@+#0@@@+@6o:3;.;..;331133113;;;;;3o31o333:t<t6eee9445yt2tty445yttyt2tytt2<t22>>ww::1o:11;.;.;;331113;;$OO  OO%%%OO  O 7*77777778777777777777777777777*7*7*7*7**7*** *             *       *    *   *      O            * ************ * * * * * * * ** * * *            OOO OOOOOOOOOOO%$$%$%%%%%%%$$.;$$%$%%%$.;;31111o:<4e#@@@+#++++@@@000ee94464655<>>>>rr,,,,r,ww,22y5569ee6e964554665tt22<2y690##@@04y,><<tt22ttty5466000###@@@@++++#XXX####X#####+#++++#+###XXX&XX&X&XXXXX#X#####+++@@@00#",
"##@###@@@@@++@@#@##0#++@@@@@@@@@@#069#0ee<313;;;;;;3333;;;3;..;;1o::oo33o:>5569996555yt22ty545yt<22ty2tt<2t2<>>ww:o1o:o3;.....$;3313;.$OOOOO%%%$%O OOOO 77777777777777777777*77777*7*7****7*********      O O    *    *     *             O O O     * * * ************** * ******* *  * * *  *     O      OOOOOOOOO OOOO%$O%O%%%%%%$$$$.$$$$%%%$..3331oo:we9e0@@+@+++@@@@000e996696652<>>>>,,,,>>,,rr,2544699699944644555ytt2<yt5600@@##095r,<>>>2t222225y4e00000#@#@@++##X###+###X###+#+#+#++###X#XXX&&X&XX&XXXX#X######@@@@##0",
"#@@000@@@+@+@@#@0@000@+@@@#@@@@@@966e642:;31o;...;;;33;......;;31wrwwo:><r<y469996455yt2ttttyyttt2222y2t<2t2<>>rw::o:o11;.$$$$$.;;3;.%%OOOOO%%%$$%O%%OO  *77777777777777777*7*7*7*7*7*7*7****7*7*** *             * *            *      O OOO O       * *************** ********  * ** * *  *         O  O O OO%OOOO OOOOOOOOO%%%%%%$$;;$$$%%%%$$.;;;1oowr56e9#@@++++@@@##00e9690e965y2<<<>><>>>>,,r,,t56666446999666555yttyyt55690#@e9e0et>,<>w,>222222tt490e00000#@++###+#++#+##++###+#+#+++#####XXXXX&X&XXXXXXX#X####++@#@#0#",
"@@#000#@++++@+000##00@@@#@@##@@#@94465o1;;o::;$$$..;;........;;;owwrrww,,>2t6699944555ytt222yyyytttt22<2<22t2>,:wo::w11;.$$%$$$$.$..$$%OO%OO%%%$%%%%%O%O  *77778777777777777*77*7*7********7********             *                      O OOOO      *  *     * ** ******** **** **  * *   *       O O  O  OOOOOOOO OOOOOOOOO%O%%%%%$$3;3.$$$%%%%$$.;;1o::><59e##++++++@@@@#e0e0000#655y222<>2<<<<>>r>2t5666664466444555ytty545666e00e65544t2:rw:r><<<22tt5490000000#@++#+#+++++#+#++#+#+#+++++#####X#XXXXXXX&XXXXXXX#####++@@##@",
"@@@00@@+@@+++@09ee0000#0#@000##0e6662>3.;oow,w;;$$..........3;331:wr,,r,><2t5666665555ttt2222yyy22ttt222<<<2>>,rwo:::;....$$$$%$$$%.$$%%%%%%%O%%%$%$$%%O O 77777777777777*7*7*7***7***7**7***7****   * *           * *        O O O OO OO OO  O              ** * * * * * ** ***  * *  *           O  O   O OOO%%OOOOOOOOOOOO%%O%%%%..3o$$%$%%$%$$.;;oo::<y499@0@@++++@@@@#0#00@@@@0644y2<<<<222<<>><<t54669996445544y5yy5544666e009e452y>w,11oor,><<<<22t49ee#900#@@@+#++@@+@++#+++++#++++++##XX####XXX#XXXX&XXX#XXX###+++@0#@@",
"@@000@@+@+@++@#eee0e0e000000000ee455,:3;31o:ww13...;;...;.;;33311oww>>>,<2555466665yy5ttt222<22t22222<<<<>>2<,rr::::3;%$$$$$$$$$$$$$%$$$$$$%%%%%$$$$$$$OOO**77777777*77*777*7*777*7*7**7***7***7*** *   * *  * * * *             O OOOO OOOOOO                 *  **   *  * * * *  *  * *        O  O  O O OOOOOOO%OOOOOOOOOOO%O%%$$$$$$.$$%$%%$$$..;oow,<t449ee#@++@@++++@@@@#@#@@@60e4522<<tt222<<<2yy469996444555545555556669e0e6552>,>11331ooo,>><>222599e9669@@@@++++@@@++++++++++#+++++#XXX###++##XXXX&XXXXXX#X####++@000#",
"@#0e#@@@@+++@@#0e000000e00e00#e995>>,oo;1:o:w1wooo..;3;;;;3;33o1oor>>>ttt54546966555ytytt222<<<><><<<<<>>>>,,w:w::o:o;.$$.$$.$$$%$$$$$$$$.$$$$$.$$$$$$$OOO *7777777*7777*7*7*****7***********7*****  ***  * *  *  *  *         O O OOOOOOOOOOOO O               * * *     * * * *                       O OO OO%%%%O%OOOOOOOOOO%O%%$%%%%%$$$%$%$$$.;31or,<254696e@@@@@+++@@@#@#@@@@@@0e94y2<><2yy222<2y56996964644544444544466699965y222,:1;;311o::,>>>22t56694490#@+@@@@@@@@@@@+@@+++++++++++X###++##+##XXX&&&XX#XX####+++@@00#",
"0#00@@@@@@@@@@##00000#00ee000#0e65<:o;31orr::r::o...o1;11;;;3111:rr>><2t56699ee9645455tt2t22<<<<>><<>>>>,>>,r::w::ww:13;......$$$$$....$.....$..$$$$$$$$OO *777777777*7*77*7*7*7**7***7*7************ * ** ** * * * *               O OO OOOOOOO                           *                         O O O OOOOOO%%%%%%%O%OO%OOOO%O%%%%$%$$$$%%$$$.;;;o,<<ty4466e@@00@@@+@@@#@@@+@@@@0964552>><25yttty566665644544455445446669996644t22<,:3;;;31o:r,r,::<2yy4454590@@+@@@@@@+@+@@@+@+++++++@+#####+#++#+#X&&&XXXX#X##X+##++@@#0#",
"0000##@@@+@+@@@#0#@##0000e0009ee62,33..1o::ww:ooo3$;1:::o133331:,,,,><2t5499ee6666455yt222<<><>>>>>>>>,,,,,r:::::::w:113;;;;..$$$..;;.............$$$$$$O%O*777777777*7*7*****7**7***************** **** **  * * **  * *          O OOOOOO OO OO O            O     O O        *               O       O OOOOOO%O%%%%%OOOOO%OOO%OO%OO%%$$$$%$%$$$$$..11:,<<y544690@#00e#@+@@@@@+@@@##ee945t<<>><y5yy554464454545544554566466699964yt2<<>:3;;;;1;1owr:o1o>>>ty55t56@@@@@@@@@@@@@@@@@@@@++++@+++#+@+++++##+#X&&&XXX#######+#@@@@#0",
"000#0##@@@@@+@@@@@@@00e0e0000055>2<1;....;1::ooo;1o;:rw::13131or,>>>25tt669ee66444555yt22<<>>><>>>>>>>,,,>,rrw:::w:o:;;;;.;$.$$$.;;;33.....;......$$$$$$%O **7777777*7*7*7*7**7*7**7***7*******7****** *** **** * * *  *              O O OOOOOO O O O  O  O O     O O           O        O            O O  OOOOOO%%%%O%O%OO%O%O%O%O%%%%%$$%$%%$$$$$.3o:,>22ty6699ee99e0@++@@@@+@@@@@99944tt<>>2yyyyy549644545555645544e6699944546t2<<>>o;;;;;;3;3ooo11or>>><2y2240@+@@@@@+@@@@##@@@@+@+@++@++++@@@++@+++##&X&XXXX#X#####+@@@@@0",
"0#00###@@@@++@@@@@@@#00000ee0e5y><wo..$$;;:ooo:o131ww,ww:o33oo:,,2<2y5y546ee94454tttttt2>>>>>>><>>>>>,,,,,,rwwwwwwo.;...$..$$$.$.;;;331;..;;......$$$$$$OO  *77777777*7*****7********7*************** ** ***  ** * * *  * *        O OOO O O OOOOOO O O O O OOOO    O  O O O O O   O   O    O           O  O OOOOO%%%O%O%OO%O%OO%O%OOOO%%%$%%%%$$$$...;3ow<<225666eee96e@+++++@+@+@@#0e994t52>,2<tyyy54644555tyy4664469e96996455452><>,wo1;;;;;;331131oow,,>,>22259@@@#@@@@@###0#@@@@@@@++@@++@@@@@@@@++++#XX&XXX#X####+#++@@@@#",
"#0#0##@@@@@@+@@@@@@@@#00000eee9twtto3..$.;311oo::3wrrrrw:o11ooww><222455669e9455ytt22222<>>>>><<><>>>,,,,,,rrw::::o.$$$$$$$$$$$$.;;;133;..;;;;....$$$$$%%  ***777777*7*7*7********7********************** * *** **** * * *    *     O  O OOOOO O OOOOOO OOOO O OO  O O  O   O    O   O   O            O  O  O  OOOO%%%%%OO%OO%%%O%%%%O%O%%%O%%%%%$$$$;;1o1o>2<22y9ee96969e@@++@@+@@@@0e99944yt><2ty5555444445y5466464e0e669945yy5t<w:wwo1;.;;;;;;.13111o:wr,>>>2y5@@@#0@@@@#0#0#@@###@@@+++@+@@@#@@@@#@+#++X&XXXXX#XX###+++++@##",
"#0#0#@@@@@@@++@@@@@@@#0ee000e06y252::3....33ooo::::wrrwwooo1oo:w<2t225569e6465yytt222<><>>>><<<>>>>>>,,,rr,rww::w:1.%%%$%%$$$$...;33111;..;;;;....$$$$$%OO  **7777777*7*7**7********7**7*********** * * ***** * * * ***    * *       O O O O OOOOOOOO OOO O O OO  O OO O   O  O  O              **              OO%O%O%O%O%O%%O%%%O%O%%%O%O%%O%%%%%%%$$$13;3::ww,tee9999e90@+@++@+@+@@099e9945<<<ty5y555544444446966900eee9644tt52>ro1oo;;.;;;...;;11111owrr,,>tye00#0e#@@###000#@@0#@@@@@@+@@#0####0#@+#+##XXXXX##X#X##++++@@@#",
"##00##@@@@@@++@+@@@@#00eee0e000e695>,o3;33;1oooo:wrrr,,,rooo:::><t225559e9944yytyt222<<<>>><><>>>>>>,,,,r,,r:w:::o3$%$%$%%%$$$..;33333133.;.;;;.....$$%%OO ****7777777*7**********************7********** * * *** ** * ** *        O   O OOOOOOO O OOOO OOO OO OO   OO O            O            *      O     O OOOO%%%O%OO%O%%O%O%%%%O%%%%%%%%%%$$$%$$$$$$;3o>r<69999999e0#@@+++++@@#e9ee965y<>>2t5554455445y559e9990eeee9644tty>wo111;;;.....;.;.;1333o::rr,><2900099990##00#00@#0#@@@@@+@@@00000000#+##+##XXXXX#XXX###++++@@@",
"@#0#@@@@@@+@+++@@@@@@#0eee0ee6e0e96tw1331o33oooo:ww,w,<,r,o:::r>tt2y699e9654ytt222t2<<<<<<<<<>><>>>,,,,,,,rr:::::o3$%%%%%%$%$..;;3331113...;;;.......%$%O  *****777777*7*7********7*7**************** * * ** ** *   ** ** *         O O O   OO OOOOO OOOO OOO OO OOO O O                       * *    O     *  OOOO%%O%OO%%%%%%%%O%O%%%O%%%%$%%%%$$$$$$$....11:>yy9666ee0###@#@++@@@@##e0e965y<<2t5554466545yy549e9e0##99964yytty,:1333;...;.......333311oowr,,,<y665966600000ee00e00@#@@@@@@@000000#0@++#++##X#X#XX##X#++++@@@@",
"@@#@@@@@@+@+@++++@@@@00990ee46e0e965>o1ooooo3oooo:rrww,<2<woww,<tt556909965yt222t222<<<<<<><><>>>,>,>,r,r,,rw:::oo3$$%%%%%$$$$.;.;33o133;.;.;..;....$%%OO  *****7777*7*7*7*** **********7*7****7******** * **     * * ** *   *      O     OO  O OO OOOOOOOO OOOOOO O                  *     *   *     O O * *   OOOOO%%%%%O%O%O%O%%%O%O%%%%$%%$$$$$.$.$$...;.33:w<2>y9ee0@##@@@@@@@@@0#0955t2<<><y5546666964ty469ee0##9955t5y222t,:33;;............;;3;333oo:,rr,<ty544449e00e9e99ee0000###0#000000000#@++#+#+X####X#X###+++@+@@",
"@@@@@@@@+@++++@+@@@@#9e9e964656e096y2:ooo1o111ooo::w::r2<>rwr,><559eeee665ttt22222<<><<<<<<<>>>>>>>,,,,,,rrrww::o.;$$$%%%%$....;.;;3333...;;;.;....$$%OO O  ***7*77777*****7*  *****7**7****7*7***** ** **  * * * *  *            O O O O   OO O OOO OOOOOOOO O O OO O                * *** * *        O       O OOOO%O%O%%%%%%%%O%O%%%O%%%%$$$%$$$.....;;;;133113,<5449e0###@@@@@@#e00e6ttt222><5y4546999e955466ee0e46t2<2t2<><t<w3;........;......3.;3331:,,:w:r>ty55446999e99999ee00ee9e0000e00e0000@@++#++######XXX#++++@+@@",
"@@@@@@@@@+++++++@@#0e99e096554699e96t2o:o:ow:o:oo::::w,<22>ww>,<t4990e9655ttt2222<<<<><<<<<<>>>,>,>,,,,r,rrwrww:;;.$$$$$%$$.....;.;3;3;;;;;;;;;...$$$%OO    *****7*7*7*7*7****  *****7*****7************ * *  *   * *  *  *          O O O O  OOOO OOOOO OO OO OO OO  *              * ******* * *     O   ** O O OO%O%%%%%O%%%O%%%%O%O%%%%$$$$$$$$.;.3;;;31333331w>55444eee0@@@00@#09ee4tty222><t554469eee695469ee06y2><<<>rr,,<wr3.................;;;;1oorwroo:><t554444666696999eee999ee00eeee00000@@++#+##+##X#######++++@@",
"@@@@@@@@+@+++@+@+@@eeeeee955yy449996y<:r,,>,,r:wow::r,>222>>,<<t464ee96645ty222<<<<<><<<<><<>>,,>>>,,,,,,rrrww::;.$$$%%%%$$$.;....;3333;;3;3;;;;...$$%%O O  ****777***7******  * ******7*7*********** ** * * * *** * *            O  O OO OO OO OOOOOOOOOOOOO O  OO O         *       ** * **   *          **     OOOO%%O%%%%%%%%%%O%%%O%%%%$$..$..;3333111o133111w<t555469e0#0000#0e996455552t<>tt54669eeee9666669e5<2>>>,:o:wrr,:oo..................;.311owo11,,2<t545446664444969e6644696ee0ee0e0000@#@++#+#+#+###++#+#+++++",
"+@@@@+@+@+++@+@++@@#0999e96tty5499966,r,>>><>>>,>,:r,,>>22>,,><556e995445ty22y22<2<>>>><<<2<>,>,>>,,,,r,,,,rw::o;..$%$$$$$$...;..;;133333333;;;;...$$OOOO   **7*****7******** *  ********7**7********** * * * *  *   *                O O O OO OO OO O OO O OO OOOOOOOO                 * ******            **    OOO%O%%%%%%%%%%%%%%O%%%%$%$$$;.;31111111ooow113o,<<<44469e0000e#@@#e996444y222<<t5449ee0eee996649t5>,,:wwooor::1o:o33.........$.........3r1313or,><t545469644444466655y54466eee0e00000#@@@+#++#######+####++++",
"@+@@@@+@@+@+@@++@@@0ee9966ttt55499995,>><<<<><<<<rr>>>><<<<,,<<269664y55yt222yy22<2<<<><<22<>>>,,,>,,,,,,,rrrw:1;;3$$$$.$...;;;;;;;o133131113;.....$$$OO O   ****7****7******    *****7*7************ * *    *  *  *  *   O         O  O OOO OO O O OOOOOOOO OO OOOOOOO O     *       * **** ** **       *****   O OOO%%%%%%%%%%%%%%%%O%%%%$$..;33111o111o::::ooo:w>>>469eee00ee90##0e9966445t2<<<t5466ee0eeee9944y5>,,r,::oo1o::w:wo..$.$$$$$$$$$$$$$......3333:,,><2t554466655444445yy2ty54669eeee00000@@@++##+#+#+####+#+#+++",
"+@@+@+@@+@@+@+@++@@ee9e645yttyy446994y22222<<2t<>r,,>>,,,<2<<<549455ytyt2222yyy222<2<<<<<2<<>>,>,>,,,,r,,,,rr::;;1;.$$...3.;;;.;;;1ooo11ooo1;;;;...$$$%   O *************7** *      *****7************ *  * * * * * *    O  O O  O    O O O O OO OOO O OOOOOO OO OOOOOOOO            *  ** ** ****     *********  O OO%%%%%%$%$%%%%%%%%%%%$.$..;31o1ooo1o:w,ww::oo:rrt569e0999669e000e99996644y22<y5566ee0eee9e64t2<>>,wwo1o111o1o:3.$$$$$$.$$$$%$$$$$$.....;31o,,>>><22546455tt5555yyy22ty5466669999eee0#@@++++##########+#++++",
"+++@+@+@+@@@@+++@@#eeee64555yy5549994455t22<2t<>,,><<>,,><<2<<5694y222222222555yt222<<<<<22<>,,,,,,,,,,r,r,ww:o331;.;....;;;3333331::ooooo1333;;;.$.$%%OO   ****7*****7******       *******7********** * *  *  * *      O O  O O   O O  O  OOO OO O OOOO OOOOOOOOOOOOOO O O         **** *** **** * * ** *** *     OO%O%%%%%%$%$%%%%%%O%$%$$$$$;31oo1ooooow,,r::oo:rr2669e9646666e0e0e996966452t222555eeee0996644y2>,>oo11111o3o.;.$$%$$$$$$$$$$%$$$$......;.33:r,,,><t5y444t22y5yyytt2222<yy6669999666e0#+++@@+#+#######+##++++",
"+++++@+@+@+@+@+@0@000ee65555544446996645ttty2<<>,,><<>,,<<<<<>445y<<<<<222tt66655t22<><<<<<>>>,,,,r,,wrrr,ww::ooo11;..3..13111oo1::w::::o:o133;;;;..$$%OO     *************** *        * ************ *   *  * *  *      O O    O      O  O    O O O O OOOOO OO OOOOOOOOOOO           * *   ** * ** ****** **** * OOOO%%%%%%$$$%%%%%%%%%%%$.$$$.311oo:ooo:,,,rw::rrw256696446y4469ee9999994655tttt2yy4499e9646445yy>r:oo1o1o13.$$$$$$%%$%%%%$$$$$$$..........1:,r,,r,<2t545t2><2tt2y22<<<<<<t5466966669900@@+@+++#####+####+#+#+",
"++++@+@@@+@@+@+@@@#00ee6454554664696945ytt5y<<2<>>><222<22<<<<tyy<<<<<2222t566945522<<<<2<2<>>,>,,,rrwwwr:::::o::o333.33111oooo:::::w:::o:o133333;;..$%OOO  ************** ****          ***7*7****** *    * *  *                   O O O O OOO OO OO OOOOOOOOOOO OOOOOO O O       * *  * *  ***** ** * * * * *   O OOO%%%$$$%$$$%%%%%%%%%$$.$$$.3o1oo::w,,r,>rwwwr>t56664555y446969996996645yyyt2tty555445y5444t22>wrrwooo313.$$$%%%%$$%$%$%$%$$$..........;1owwwwwr,>22t2<<><<2<t22<<<><<<255646664669e0#@#@@++####+####+##+++",
"++@++@@+@@+@@+@@#@0#0ee6654444666699645ytt5552<2<22y2<222222<<<22<2<2<<22254669445t22<<<<2<>>><>,>,rw::w::ooo::::o3311131o1o1:::wwwwww:::::313333;;;.$%OO  *  ***** ** *  *****            *********** *  * *  * * *              O    O  O O OOO O OOOO OOOOOO OOOOOOOOO OO        *  * * * *    * * ** * *** *  OOOO%%%%$$$$$$%%%%%%%%$%$$.$$.;.31o:::w,,,,>rw,w><yt664655y5yyy446666664455yyyyytty55yt22<y54>52>>rrr,:o13;..$$%%$%$%$$%$$%$$$$$..........;;1w::::wwr,>,>2>>><>><<2>,><<>2tyy444646660#0#0#@@@+###+###+#######",
"#+++@+@+@@@@+@@@@@@00e9644464666696965tty5y4444555ty2yyyt22<2<t222t222tttt5469e9664222<<22<2<><>>>>>rww:ooo:o::::oo131oooo1ooorwrrwwwww::oo133333;;..$$$O   *  ***     * O******             **7****    *  *  *                      O  O O OO O OO O OOOO OOOOOO OOOOOO O  O        *  * * *  * **** * * * * *   OOOO%%%%$$$$$$$$%%%%$%$$%$.$$..;3ooo::rr,,r>>,>>225466445y5ttt54444446445y5yytttt22><<<>><<<2>,>,,,,rrw:33;;.$$%%%%$$$$%%$$$$$$..........;;;11:ooo::w:w,,>>rr,>>,>rrr,>><<ttyy544469e@@#0@0#@+++###+#+###+#+#+",
"+++++++++@+@@@@@@#009e664646696969996555554446444y4y4y555y222tt22t2222tyy544699996452222<22<2<<<<<<>rw::oooo::w:w:o3111oooo1::wr,wwwrr:::11o11313;;...$%O *  *****  O  O O ******            * ********   * *    *                      O O O OOOOO OOOO OOOOOOOOOOOOOO O O           *    *      ****   * ****   OOOOOO%%$$$..$$$%%$%$$%$$$$$$.$.;3o1o:w,r,,,,,><2256666yyy<22<5555545444y55yttt222t>,>>>>>,,>rw,,,,rrw::3;..$$%$%%%$%$%$$$$$$$.$..........;;3111oooo::w,rrrw:rwwwrw::r,>>22ttty544690@@@@#@0@@++#+##+#####++#+",
"+++++++@+@+@+@@@#000e964669699999999645544446664454544455t222<222t2ttttyyy669eee96444ttt222<2<<<<>,,rwo:ooo:::w::w::ooo:ooo:::,r,r,,rrrwo111111113;.;..%O   ** ****  OOOO%  ****               ******  * *   * *    *               O  O  O OO O O O O OOOOO OOOOOOOO O O        *      * *      *** *    ** * *   OOO%%O%$$$.$$$$$%%$$$$..$$$$$..;13o:o:ww,,,<>>22446664yy2<2<<ty5y55y555yttttt>><22<<,wwr:w:rwwwwwwww:oo;..$$%%%%%%%%%$%$%$$$$$$...........;;;3311ooo1o:w:::oo::ooorww>>><22tty544990#@@@@00@@++#+#+##+#+#++++",
"+++++++++@@@@@#00#00e96699969999699999696646646444445555yt<<<<<222222ttyy544646966655ttt22<2<<<<>>>rr:ooo:oo:::ww:w::::::oooowr,r,,,,rw:o111oooo13;;;..$$    *****    O%%%OO   *                  ** ** *  * * * * * * *                 O O  OO OOOOOO OOOOOOOO OOOOO O  O                     ***** *   **** *     OO%%%$$$$$$$$$$$$$$$$$$$$$$....3oo1::w,>><22t554664422<<<<22yyyy5yytyyt2t2>>>,<22<>,wo:o:wo::13133;3...$$%%%%%%%%%$$$$$$$.........$$.....;;;333o1313oo:ooooo:oo::r,,,>><2tty55669e##0@###0@@@#+#+#+##+#++++",
"++++++@@@@@@@@#0000ee996999e9996999e999966464644455555y5tt222<><<<2222ttyy546666664y5tt2222>>>>>>,rr:o:::oo::::::www::::o:ooo:ww,,,rrww::ooooooo11;;;..$%OO  * * *   OOO%%OO    *           * * *   ** * * *  * *            *         O O O OO OO O OOOO OOOOOOOOOOOOO OO                      ******* *** ***     OO%%%%$$$...$$$$.$$$.$$$$$$$$$$..;11o:w>><<2y554464y52<><<<>2tty222<<2y2<<<,,r,<222>,w:::ooooo13;3;;.$$$$%%%%%%%%%$%$$$$$$...........$....;;;;3333;31ooo1o111oo:ww,,r,,,<>2tyy446690#@@#0000#@++++#+##++++@+",
"++++++++@@@@0#00000e9e999999e969eeeee9966644444554555y5y22<<<><<<<<<<t2yyyy54454454ty2<222<<,>>>>,w:::::o:o::::wwwwwwwww::oo:o::r,,,,r::::ooooooo1333.$$%OO  * *  *   OOO%O                   * * * *    *  *     * *    *  *         O O O O  O OOOOOO OOOOOOOOOOOOOOOO  O         O      O   * ***** * * * * **   OO%%%$%$$.......$....$$$$%$%$$$$$.31o:wr>>><y554465yy2>>>,><<222<2<2<<<ww:roo:w>22<<,ww:w:ooo133;;...$$$%$%%%%%%%%$$$$$$$$.................;;3;;33311ooo111111:ww:,,r,,,,><t55546990@@#00000##++#+++#+++@++@",
"+@++++@@+@@@@000000ee9966e9eeeee0000e966664644455y5yyyyyt2<<>><<<<<<<222yyy4455yy54y22<<<<<>r,,,,>:w:ww::o:::::ww:ww:www::oo1o:r,,rrrwww:o::o:oo1oo3;..$%%   ** *     OOO%OOO                    *   *     *  * *          *   *        OO OOO OOO O OOOOOOOOOOOOOOOOOOOO O       O   O O O O O  ************       OOO%$%$$$.....$..;;..$$$$$%$$$$$..31oooww,><tty54yy2<<>>,>,>>><<><<<<<,,w:oow,,,>2<<,rr,rw:oow11;;;.;$$%%$%%%%%%$%$$$$......;;;..;..........;;;;3311oo111111ooo:ww,,,r,,,>>y56646990000#0000#0@@++++++++++++",
"++++++@@@@@@@@0000e999699ee00000#009e66664644455y55yttyt2t<<><<<<<><<2<2ttt555yyyyyt22<<<><<,,rrww:::::::o:::::wwwwwwwrwr:ooo:w,,,,,rwww::o:::wooo3;;.$$OO    *       O%$%%%OO O          *  * *  *         *          *     *           O O OOO OOOOO O O OOOOOOOOOOOOO   O  O O  O O O O O O * ******* *      *   O%O%O%%%$$..;..$.;...$$$$$$$$$$$..;1ooo:::r><t2yy222<>,,,>>>>><>>,>>,w::o331w:,,>2<<<,,,,wrrr,w::1o$$$$$%$%%%%%%%$$$$$.....;;;;;;;...........;;;331o1oo111111oo:wwrrr,,,rr<<4666699999000e000#@+@+++++++@+++",
"+++@@@@@@@+#@@#00eee996e9ee000##00ee66446466445555yytt2t222<>>>>>><>>>><<225tt2tyytt2<<>,,>>,rrrw:w::::::::o11:wwwwwwwwww:oo:o:rrrr,rrww:::ooo:::1333.$%OO      *  O O%%$%$%%%OO                *                *  *                 O O OOOO OOO O OOOOOOOOOOOOOOOOOOO O    O  O  O O O O     ****** ***          OOOOO%%%%$$..;...$$$.$$$%$$$$$$..;;31o:::wr<<<<ty2<<>,,,,,,,,,>>,,,,::oo333oo,wo<<t<<<>>>,,,,>,,rw;;$$$%$%%%%%%$$$$$$$.....;;.;...............;;;331111111o1oo:wwrwwww,,r,<y466999999e9eee0000#@@@++++++++@+",
"+@+@@@@@+@@@@@000eee999ee0000#0000ee966664445455yyy52<2222<>,>>>>>>><<<><2<<<<2222ty2<>>,,,,rrww:oo:oooo1111113:wwwwwwrww:::oowwwrrwrrrro::::::::13;..$OOO        OOOO%$$$$$%%%OOO O                   O                   *     *        O  OOO OOOO OO OOOOOOOOOOOOOOOO O O O O  O O O         ****** *    O O       OOO%O%$$$.;;...$$$$$$%$$$$$...;;331:::ww,>><22<>>,,,,,rr,,rwwrr:wo1o33;.33o:rr><2222<<<,>>>>,,,ro;$$$$%%%%%$$%$$$$.....;.;;;;;.;........;...;;;3331111o11o::ww::w::ww,><2t66964996999eeee00#@@@++++@++@++",
"+++@@@@@@@@@@@#00eee9e9ee0#00#00000e9699644455y5yyttt22<2>>>,,>>>>><><<<<<<<<>>>><22<>,,,,rrww:::o11o1111311ooo:::wwww:ww:::::::rwrr,wwwww:::::oo13;;$%OO       OOOO%%$.$$$$$$%OOOOOOO               O O     O        *  *    *         O  O OOOOO OOOO OOOOOOOOO%OOOOOOO  O  O O OOOO O O    * *********   OOO    OOO%OOOOOO%%%..;....$$$$%$$%$$$..331ooo:::wwrr>t<2>>>,r,,rrrrww::oooo113;;..;33oo:r>22222<>>><>>>>,o.$$%$%%$%%%$%$$$$.......;................;;.;.;;3311111oooo:::woo:o:::r>225y65444999999ee000@@@@@+@++@+++",
"+@@@+@@@@@###0000ee9ee00000##0#00009e9966455555y55tttt22<<,,rrr,,>>><<<<<<<>>,,>>><<,,,,rrr:ww::1111333;331331ooow:ww:w::w::::::wwrwwww:w:w:o:oo;;;;.%%O O      OO$%%$.$.....$$%O%%OOO O     O       O  O O O                            O O  O OOOOO OOOOOOOOOOOOO%OOO OOO  O OOOOO OO O        *********OOOOO O   OOOOO%O%O%%%$..;..$$$$$%$%$$$$..3311ooo::wrrrr>>>><>,,rrrrrw:w111ooo:;;;.$.;33o:wr,2tt22<<,,<>>>,,1.$%%%%%%%%%%%%$$.....;.;.;.;..........;;.;;;.;;;313333oooo::w:o:ooo::wwr,><22ty569996999e0000@@+@+@@+@@@+",
"+@+@++@@@@##000e0ee9e0e000##00000000999664555y5555ttt2222<<,r,,,,,>><<<<>>>,,,,>>><,,w:rr::o:w:o113331;;;;;;;11oow:ww:w:w::::w:w:rw::w:::w:w::o1;;;;;$$OO O   O O%$$$$.;;.........%%OOO  O O O  O  O O O O O O O            *   *         O O OOOO OOOO OOOOOOO%OO%OOOOOO O OO OO OOOO OO O    ** ******* OOOOO O   OO%%%O%%%OO%%$.;;;.$$$$$$$$$$$..311ooo:::wrwwr,,>>,,rrrrwwo:oo1313;......$$.311:w:,<ttt2<>,,,,>>>,w3$$%%%%%%%%%%$%%......;;.;.............;;;;.;.;;;33311ooooow::oooo::::wrr,,<<<5y46966699e0000#@@@@+@+@+@+",
"@@++@+@@@@##00e0e9e0000#000#0000000eee996444555555ttt222<<<>,,>,,,>><><<>,,>,rrr,>,rr:w:::o:::ooo3333;;....;;;11o::::w:::w:wwww:::w:ww:ww:w:o:o11;;;;$$$OO  OOOO%$$$$$.;..;3;;;.;.%%OOOOOOO O  O O O O O O O    O                           O OOOOOOOOOOOOOOOOOOOOOOOOO O OOO OOOOOOOOO OO O  *  ****7***  OOOOOO  OOO%%%%$%$%%O%%$;;;..$$$$$$$$$..3311ooo:::wrwwww::wrwwwwwwwoo3;33..$....$$$$.;33ww:,,22t<>>,,,r>,,,wo.$%$%%%%%%%%%%$$....;;;.;......;.;..;.;;;;;;;.;;;;311:o::ooo:ooooo::::wwrw,>,2556666699ee0000@@@+@+@@+@@",
"@+@++@@@@#000e0e0eee00000#0000eeee9e9966664455555y5tt2t2<2<<>,>,,r,,,>,>>,,,,rr,,,rww::::::oooooo333;;.......3;1oo:::w:w::wwww:w:wwwwwww::w:oo131;;;;$$%OO%O%O %O%$$$$.;;;;;;;33;$$%%OOOOOO O OOOO O O O OOO O     O           O O O  O  O  O O OOOOOOOOOOOOOOOOO%O%OOOOOOOOOOOOOOOOOOO O O    * ******* *O OOOO O OOO%%%%$$$$%O%%%....$$$$$$$$$$$..;33oooo::::::::o::oo::ww::1;;..$$$$$%%$$$$$..31o::o<<t2<>,ww,,,>,w:o1.$$%$%%%%%$$$$$....;;;;;.;..;..;..;.;.;;;;;.;;;;3;31o:o:o:ooo:oo:o::wwwwwww,<<66966669eeeee0#@@@+@@+@@+",
"+@++@+@@@#000000eeeee00e00000eeeeeee966666455555555tytt222<<><,,,,,,,,,>,,rrrr,rwrw::w:ooow:ooo1o333;;......;331oo:w:ww:wwwwwww:w:w::::::::::oo13;;;;$%%$%O%%%$%$$$$$$..;;;;;333;..$OOOOOOOOOO  O OO O O O O O O O    O        O OOOOO      O OOOOOO OOOOOOOOOOOOOOOOOOOO OOOOOOOOOO OOOO     * * ********   OOOOO OO%OOO%%$$%%%%$%$..$$$$$$$$%$$$...311oo1o1:1o1ooooo:oooo:oo;3;..$$$$%%%%$$$$...11o:ww<t2<,r:wrrwo:o1333..$$%%%$%$$$.....;;....;..;.;..;...;;;;;;;;;;;;;;1oo:oooo:oooooooo:::w:wwwr,<44669666699eee0@+@@+@@@+@"
};
