/* XPM */
static char *_6c3245236084ab9b5d5d9e0c6510043aUM8WxWx9eMil38J[] = {
/* columns rows colors chars-per-pixel */
"200 200 256 2 ",
"   c #312CBA",
".  c #3420B9",
"X  c #5718BD",
"o  c #165FBC",
"O  c #3733C8",
"+  c #2733C1",
"@  c #521CC6",
"#  c #7016C9",
"$  c #4E31D2",
"%  c #7728D9",
"&  c #6D2BD5",
"*  c #5B3BE3",
"=  c #7838E8",
"-  c #6D37E6",
";  c #1B54C8",
":  c #2E51D2",
">  c #1870CC",
",  c #2867D7",
"<  c #2A72D8",
"1  c #3A58E4",
"2  c #3968E6",
"3  c #3978E8",
"4  c #2E76E5",
"5  c #4B47DA",
"6  c #4849E4",
"7  c #5647E9",
"8  c #4958EA",
"9  c #5959F3",
"0  c #5356EE",
"q  c #6646EC",
"w  c #7846EB",
"e  c #694BF2",
"r  c #794AF3",
"t  c #6859F6",
"y  c #7759F8",
"u  c #7457EA",
"i  c #4667EC",
"p  c #4678EC",
"a  c #4B69F2",
"s  c #5868F6",
"d  c #4A77F3",
"f  c #5778F8",
"g  c #5574ED",
"h  c #6C6BFC",
"j  c #6766FA",
"k  c #746CFD",
"l  c #7B6CFD",
"z  c #7764FB",
"x  c #6C74FD",
"c  c #647CFC",
"v  c #6C7CFD",
"b  c #6474FA",
"n  c #7C7DF5",
"m  c #7474FD",
"M  c #7C74FE",
"N  c #747CFE",
"B  c #7D7DFD",
"V  c #7779F4",
"C  c #787CEC",
"Z  c #6354DC",
"A  c #A618B8",
"S  c #D230B6",
"D  c #D82CB5",
"F  c #D749BA",
"G  c #E850B9",
"H  c #EA6DBB",
"J  c #8F19CC",
"K  c #AC1BC9",
"L  c #9A28D7",
"P  c #8C2BD7",
"I  c #AE2ED3",
"U  c #8738E7",
"Y  c #9839E7",
"T  c #8A32E9",
"R  c #AA38E5",
"E  c #971CE1",
"W  c #CC33CC",
"Q  c #D936CE",
"!  c #B749DA",
"~  c #8845EB",
"^  c #9946EC",
"/  c #874AF4",
"(  c #974BF3",
")  c #8859F8",
"_  c #9758F7",
"`  c #9456EC",
"'  c #A648E9",
"]  c #A857EA",
"[  c #B858E8",
"{  c #A659F4",
"}  c #B24EEF",
"|  c #8463FC",
" . c #8B64FB",
".. c #836CFD",
"X. c #8C6BFC",
"o. c #8866F5",
"O. c #9464FB",
"+. c #936CFC",
"@. c #9B68F9",
"#. c #837CF5",
"$. c #8374FE",
"%. c #8B74FE",
"&. c #807FFE",
"*. c #8A7CFE",
"=. c #8979F4",
"-. c #9374FD",
";. c #9C73FB",
":. c #937CFD",
">. c #9B7CFC",
",. c #9A78F5",
"<. c #8B77EC",
"1. c #B966EB",
"2. c #BA77EC",
"3. c #A768F7",
"4. c #B568F4",
"5. c #A777F9",
"6. c #B678F5",
"7. c #AA6EEC",
"8. c #A55DDD",
"9. c #D758D6",
"0. c #D04ED0",
"q. c #E755CA",
"w. c #D867D9",
"e. c #D270D7",
"r. c #E76DCC",
"t. c #C757E6",
"y. c #C667E7",
"u. c #C677E8",
"i. c #CF71EB",
"p. c #E779E5",
"a. c #16ADB7",
"s. c #189DB8",
"d. c #2DCFB5",
"f. c #27D8B5",
"g. c #72EDBA",
"h. c #4DE1B9",
"j. c #188CCC",
"k. c #2991D7",
"l. c #17AAC8",
"z. c #2FB2D3",
"x. c #3888E8",
"c. c #3998E7",
"v. c #2E8BE8",
"b. c #38A7E6",
"n. c #38B3E7",
"m. c #1FACE4",
"M. c #48B6DA",
"N. c #4588EB",
"B. c #4798EB",
"V. c #4A87F4",
"C. c #5887F8",
"Z. c #4A97F3",
"A. c #5997F7",
"S. c #5595EC",
"D. c #6484FC",
"F. c #6C83FD",
"G. c #638BFB",
"H. c #6C8BFD",
"J. c #6887F6",
"K. c #7C82F5",
"L. c #7483FD",
"P. c #7C82FD",
"I. c #748BFD",
"U. c #7C8BFE",
"Y. c #7685F5",
"T. c #6493FA",
"R. c #6C93FC",
"E. c #679BF9",
"W. c #7493FD",
"Q. c #7B93FD",
"!. c #779BFB",
"~. c #7589EC",
"^. c #48A6E9",
"/. c #56A9EC",
"(. c #48B6E7",
"). c #58B8E8",
"_. c #59A5F4",
"`. c #51AEF3",
"'. c #67B8EB",
"]. c #78BAEB",
"[. c #68A7F7",
"{. c #78A7F8",
"}. c #68B5F3",
"|. c #78B6F4",
" X c #6EAAEC",
".X c #53A3DD",
"XX c #33CACA",
"oX c #30D2CE",
"OX c #4FCFD3",
"+X c #70D6D8",
"@X c #71E6CB",
"#X c #59C6E4",
"$X c #55CCE5",
"%X c #68C7E7",
"&X c #78C8E7",
"*X c #74CDEA",
"=X c #53E4C9",
"-X c #E4A0BA",
";X c #A8E4B8",
":X c #CED2B6",
">X c #D5D4B5",
",X c #B5B8DA",
"<X c #8282F5",
"1X c #8382FE",
"2X c #8B83FE",
"3X c #838BFE",
"4X c #8B8BFE",
"5X c #8886F5",
"6X c #9483FD",
"7X c #9B83FC",
"8X c #938CFD",
"9X c #9B8BFA",
"0X c #8393FD",
"qX c #8B93FD",
"wX c #839BFC",
"eX c #8B9AFB",
"rX c #9494FC",
"tX c #9B93FB",
"yX c #989AF9",
"uX c #8E8FEC",
"iX c #B799EB",
"pX c #A688F9",
"aX c #B587F6",
"sX c #A797F7",
"dX c #B596F4",
"fX c #B38AEB",
"gX c #87BAEC",
"hX c #98B8EB",
"jX c #87A7F8",
"kX c #98A7F7",
"lX c #87B6F5",
"zX c #97B5F3",
"xX c #92AAEB",
"cX c #A8A9EC",
"vX c #B8A6E9",
"bX c #A8B7E9",
"nX c #B6B7E7",
"mX c #A6A5F5",
"MX c #AFADF4",
"NX c #B0A0DD",
"BX c #D48DD8",
"VX c #E68BCD",
"CX c #D1B0D3",
"ZX c #CA8DE9",
"AX c #C6A9E6",
"SX c #E3A4D0",
"DX c #85D9D8",
"FX c #95D2D7",
"GX c #B7C6D8",
"HX c #AFD2D1",
"JX c #8EE6CB",
"KX c #AAE4CA",
"LX c #87C8E9",
"PX c #90C9EA",
"IX c #ABC7E5",
"UX c #C8CBCB",
/* pixels */
"U V *.B P.5X$.1X&.&.P.&.&.&.&.B *.L.P.&.L.$.J.l.4 k.V.V.V.D.F.C.F.F.F.F.L.B P.B 1X&.&.*.1X$.$.$.B M V l l l l k k l | |  .) ) _ _ { { { } ! ! ! W Q K J _ B B n #.P.B &.<XP.P.P.&.&.&.&.1XB &.B &.&.B 1X&.&.B 1X1X1XB B B &.1XB L.P.B B B <XP.B *.L.2X; , > v.3 d d f f c c m N M $.%.-.,.;.3.3.4.6.t.y.w.q.0.:.B $.<XL.P.*.1XP.&.&.&.&.&.&.&.&.P.&.*.L.d 4 p F.*.,.u.e.6.#.L.P.2XP.P.L.P.&.*.*.B P.&.&.P.&.&.&.",
"I 6.5XP.V K.P.B B 1X&.&.&.&.&.&.*.P.<X&.L.*.J.k.s.c.B.c.A.A.C.G.H.H.H.L.I.L.L.P.P.B B B $.M $.M m k k z z j t z t y y r r / ~ ~ ~ Y T Y Y L L I K J A A S J w *.V N 2X$.P.*.:.P.&.&.&.&.&.&.&.1X1X&.&.1XB 1XB &.&.&.1XP.P.1XP.P.#.*.1X1XP.P.&.*.N :.N.+ > , 3 3 d d f f f v v x M M $.X.@.+.@.3.{ [ } 0.0.D S ! 3X*.P.&.<X&.$.P.&.&.1X&.&.&.&.P.B *.1XN V., p s $.:.2.y.7.6X1XB L.&.*.*.&.B B P.&.&.B 1X&.&.&.&.",
"9.w.<.1XB U.P.B &.&.&.&.&.&.&.&.&.P.*.n P.1XV N.d.z.n./._.Z._.W.T.R.R.R.I.I.I.U.U.1XP.P.&.B M M M l k k z j z j y y y ) ) / / / ( ( Y ' Y R R R R I K K K A A I ` V 1XP.B B 1X$.B &.B 1X&.B 1XB B 1XB B B 1X1X&.&.&.1X1X*.$.&.#.<X$.#.&.P.K.B 1XP.P.: ; ; 2 i p d d f f c c v N N $.$.X.+.+.@.3.4.} t.t.t.Q F F 7.<XL.*.$.P.1X1X&.&.B &.&.&.&.B 1XB &.L., : s j l +.3.t.t.5.L.$.&.B B #.1XP.B <X&.1XB &.1XB &.&.",
"t.G 7.Y.*.*.B 1X&.B 1XB &.P.&.&.P.B *.#.L.1X#.D.z.l.z.`.^._.[./.[.E.E.R.!.W.W.Q.Q.U.3XU.P.B N N m m k h k z j z j z y y y ) ) ) ) / ( ( ( ' Y ' ! ' ' R I I W D I ! =.U.B &.I.#.&.1XB &.1XB &.&.&.&.&.&.&.&.&.B &.n B P.P.P.P.P.1X1X&.1XP.1X1X&.2Xd + > 2 2 3 d d d C.f c D.v N N V $.%.%.+.+.3.3.4.4.{ } t.q.D 0.C 2XP.P.#.P.P.&.&.P.&.&.P.&.1X1Xn 2Xg + 1 9 k ) _ _ [ Q } <.I.1XP.P.B P.P.1X$.&.&.&.&.&.&.1XB ",
"1.q.i.U.$.%.*.K.1X&.B 1X&.&.&.&.P.&.*.#.P.B $.&.V.XXf.OX(.).`.[.[.[.[.[.E.!.!.!.Q.Q.Q.I.U.L.L.N N m m h h h h z h h z z z l l ) ) ) _ _ _ _ _ { ( ' } } ! R t.I W W ! <XB 2XP.P.&.1XP.&.&.&.B 1XB &.&.1X&.&.&.&.1X1X<X1X1X1X#.#.L.L.P.&.#.1X<X$.y O + 1 1 i d p d f C.f D.D.F.F.B B $.&.*.-.;.;.@.3.7.4.[ [ t.0.S 0.=.1XP.<X&.P.&.&.B 1X&.B &.&.V 2Xv O 1 0 0 z ) ) { } } W ! M L.P.1XB B P.1XB &.P.B 1XB B 1X&.",
"[ q.9.4XL.&.1XK.B &.&.&.&.&.&.&.P.&.&.1XP.B &.2Xm [.XXf.OXOX#X)./.'.}.[.[.{.[.{.!.!.W.W.I.L.L.F.F.v v x x x x x h k k l l l | ..X. ._ @.O.3.{ 3.4.4.4.{ } 4.[ } ! 0.W 1.=.1X$.1X&.B &.&.&.&.&.1X1X1XB B 1XB B 1XK.n &.$.*.*.1X&.*.2X$.#.*.$.u - $ O ; 8 2 a d 3 V.f C.C.D.D.F.F.L.L.P.1X*.*.-.;.5.5.7.2.t.t.[ t.S Q Q J.2XP.B *.&.&.&.1X&.1X&.B 1XN 6 O 8 0 t y z ) _ ( ' I W I ^ n I.*.%.&.P.&.&.&.&.&.1X&.1XB ",
"4.w.F 7.U.P.&.K.B 1X&.1XB 1X&.P.&.&.&.&.<XB P.*.U.*. XOXh.OXOXOX%X#X).}.}.{.[.{.[.!.E.E.R.R.H.F.v D.v c c x x x x k m l l l $...X.-.+.+.+.;.3.3.7.3.4.4.6.4.1.u.1.y.9.9.7.Y.B *.&.&.&.B &.&.B B &.B 1X&.B &.&.&.B 2X1X*.B B V V N ) % P % # X . @ $ 7 8 i s f f C.C.C.C.G.G.H.I.I.I.3X1X4X2X6X>.;.5.3.3.4.[ [ t.t.W W 0.n *.*.P.&.&.B B B 1XB 1XB 6 O 1 6 0 z t | ) ) ) ' ^ I W W ^ C <X*.&.B 1X&.&.&.&.&.B &.B ",
"+.e.q.w.<XP.$.P.&.1XB B &.&.&.B #.1X1XB &.1XP.B #.n &.Y.#XoX=XOX$X$X#X%X}.}.|.[.{.[.{.R.R.R.H.H.F.D.D.c v v c x v v m m N B B $.*.$.*.:.>.>.>.5.5.5.5.pX5.6.u.6.u.u.p.w.aX1XP.P.1XB &.1X&.&.1X&.&.&.B &.1X&.B 1XP.1X$.w & P J J @ X X # # X # & * 7 7 9 s f d C.C.C.C.T.G.H.R.H.W.I.U.3X3X2X6X7X6X5.5.5.5.4.1.y.[ 0.F Q [ P.I.#.B 1X1X&.&.&.&.&.0 O : 8 0 t z j y ) ) _ ( { ^ ' I W R <.I.P.#.P.&.&.B 1X&.1X&.&.",
"5.w.w.0.fXN *.B 1XB &.&.1XB &.1X1XB B &.&.&.&.&.&.2X<Xn <X|.$Xd.h.=X+X#X#X#X}.).}.[.[.R.E.T.T.G.G.D.D.D.D.c v v v v N L.P.B 1X1X2X2X8X6X7X7X9XpXsXpXpXaXdXaXsXdXiXZXBXSXfX*.M <X&.1X*.Y.P.1XB P.&.N P.1Xl w % P # # # X @ X # # # # # % % % % = = e e t s b f C.C.D.G.T.T.T.T.R.W.W.U.0X3XqX4X8X6X7XpX5.5.7.6.4.1.y.0.Q W ] :.P.$.1X1Xn #.2XN 6 O : 8 0 9 t h y z )  .) _ _ ( ' R I Q I *.P.P.$.P.B P.L.P.*.*.L.",
">.y.i.q.2.1X&.P.B 1X1X&.&.&.&.&.&.&.1X1X&.&.P.B P.N P.2X*.n !.gXoXh.=XOX+X).#X}.`.[.[.[.A.T.T.G.G.C.D.D.c D.F.F.F.F.L.P.P.P.1X3X2X4X8X8XtX9XsXsXsXpXdXdXdXiXAXvXAXAXUXCX*.$.1XB B 1X$.P.P.*.%.$.~ U P # @ X @ # # # # X # # # # # % P % T = = = r r y j h c c D.A.T.T.E.T.E.!.E.!.!.!.Q.Q.0X4X8X8X9X7XpXpX5.6.4.i.1.[ [ 0.0.] $.P.P.P.P.1Xm 0 O 5 6 0 9 s j h k l y ) | ) ( ( ( ' R ! W W <XP.3X1X*.1XP.P.*.B P.",
">.2.i.r.i.5XP.P.&.&.B &.1XB B 1XB &.&.B &.&.&.1X&.B P.1X$.$.$.4X#.].=Xf.=X=X%X$X).).}._._.A.A.T.C.G.A.D.D.H.H.F.F.I.L.I.U.U.3X0X0XqXqXyXtXyXsXmXdXMXvXMXnXAX,XAXUX:XCXpX<XP.B P.P.*.P.1X*...- $ . @ X # # # # # # & # # % % T = = T = U = U / / / ) y z k N F.H.T.T.E.R.E.[.E.[.E.{.!.{.{.wXeXqXrXtX9XpXpXpXpX6.6.1.1.1.! W R ] 1XB N *.N 5 O 6 8 0 s s j j k k k l l | | ) _ _ _ _ ' W Q I 5XK.P.*.*.*.<XB B P.",
">.6.u.w.9.>.K.P.&.B 1X&.&.&.&.&.B 1X1XB &.&.&.&.*.*.P.V P.3XK.C 2X#.5X&XXXOXOXXX)././._._.S.A.A.G.A.G.C.G.G.G.H.H.I.I.W.Q.0X0XqXeXeXyXyXkXmXmXMXbXvXzX,XAXGXGXHXHXGXkXN <XP.B &.P.*.1XP.9 $ $ @ & & @ & & & - - - % = = - = = = = = / = / / / ) ) ) | l M N L.H.E.R.E.[.[.[.[.{.[.{.!.{.jXwXeXeXeXrXtXtXpXpXpXaXpX6.2.1.[ [ 0.W ^ ` ) e 7 $ 6 8 0 s s s b h h k l l l .... . .O._ { ] ! 0.Q 1.#.P.1X$.<X&.P.P.1X",
"7XaXu.e.r.5.1X1XP.&.&.&.&.&.&.B &.1XB &.1XB &.B P.P.P.K.P.K.K.U.N 8XN %.<XOXd.OXOX(.^./.Z.A.A.A.A.A.C.T.G.T.G.R.W.W.W.Q.Q.wXeXeXkXkXkXkXmXmXcXbXIXnXAXUXHX;XKX>XHX1XB P.B n 4Xn n 1X1Xf O O $ * * - - - * * - = - - = = e = r r r / / / / ) _ ) _ O.X.%.$.<XU.U.!.E.{.[.[.[.}.[.[. X{.{.jXjXjXjXyXyXyXtXtXsXpXpXfXaXpX4.y.4.4.! R Y U - $ 7 s a s s s b b x x m m l l ...... . .{ _ _ 3.! 0.Q 6.L.P.B 1XP.P.P.*.",
"6XaXfXBXp.aX<X$.&.&.&.&.B &.1XB &.&.1X&.&.&.&.1XP.P.1X1X*.$.&.1XP.P.B P.M P.}.XXXXn.^.^./.Z.Z.A.A.A.A.T.T.T.R.R.E.W.!.Q.Q.jXjXjXkXkXkXmXzXbXIXbXIXHXHX;X;X>XGXzX3Xm B 1XP.n 1X$.#.1XV 2 ; 1 8 * 6 7 7 7 e e q q e e e r r y r y / r ) ) ) _ _ _ O.+.+.-.*.2X3X0XQ.{.{.[.}.}.|.|.|.{.|.{.{.{.{.jXjXjXkXyXyXtXtXsXpXpXpXaX6.6.3.3.{ ~ r e t 9 s f f f c f c x N x N M M $.$...X. .O.O.3.{ [ 9.0.9.5XP.P.P.<XK.B *.",
"rXaXaXBXBX6.<X&.&.&.&.&.1X1X&.&.&.B B &.1XB 1XB *.*.*.$.$.<X1XN $.U.K.#.2XN I.`.z.z.b.b.B.Z.A.Z.A.A.A.A.T.E.E.E.!.!.{.wXjXjXzXjXzXzXhXbXIXIXGXHXGXHX;X>XHXLX4X#.m <X1XK.1X&.C 1X&.P.g , ; 1 9 8 9 0 8 0 e e t t t t r y y y y y y ) y ) ) O.O.@.+.+.;.-.:.8XqXeX!.{.{.|.|.}.}.}.}.|.|.|.|.|.lXlXjXkXkXkXkXkXyXsXsXsXaXpXpX5.5.5.+.%.k j s f f f f C.D.D.F.v v v N N N B M $.$.X.l 3.@.{ 4.t.0.F 5.5Xn B *.n P.1X",
"yXaXZXBXZXZXn 1X&.&.&.P.&.B B 1X&.1X&.&.B 1XB B P.P.P.P.P.K.K.*.#.<X&.&.*.#.3X#.z.l.b.c.B.Z.Z.A.C.A.T.T.E.R.E.!.{.!.jX{.jXjXzXkXzXzXIXIXIXIXGXHXKX>X;XIX~.*.N U.1X<X<XB *.#.&.Y.1XP.p , , 2 i i 9 9 e t t t t t y y y t y y y ) | |  .X.O.+.+.+.;.;.,.>.7X8XrXeXjXjX|.|.|.|.].].'.%X].|.].|.|.lXlXjXlXkXkXkXkXsXyXsXsXsXsXsXpXpX>.2XP.v F.D.f C.C.D.D.D.D.F.F.F.L.N B N B $.*.%.%.;.@.5.4.4.9.q.u.7XB P.*.B K.P.",
"qXiXiXBXCX2XB 1XB &.&.1X&.&.&.P.P.&.&.&.&.&.B B 1X&.&.1XB 1XB &.B <X&.&.B &.1X&.N.b.j.c.Z.Z.V.A.C.A.A.A.R.E.!.{.!.{.|.jXlXlXzXzXhXPXIXHXIXHX;X;X;XHXxX1X&.&.1XB 1X&.1XB &.1XB &.P.#.d j.> 4 2 a i s s j j t t j z t z z z l | ..o...o.X.%.;.+.;.;.5.5.pXpXtXtXkXjXlXlX].&X].|.&X%X'.].&XgXlX|.|.lXgXlXzXzXzXkXmXkXmXmXsXkXsXsXyXrXeXQ.R.T.T.A.F.T.G.F.F.G.H.H.H.F.L.L.L.P.1X&.*.*.-.;.5.3.2.w.9.q.5X*.P.K.*.B P.",
"kXdXAXSXZXn &.P.&.1XB B &.&.&.&.&.&.&.&.&.&.1X&.1XB &.&.&.&.&.&.1X&.B 1X*.B n 1XC.k.j.v.x.N.Z.C.A.A.E.T.E.E.[.[.[.gXxXlXlXzXhXhXIXGXHXHX;X;X>X>XxXwXn &.1XC n 1XB &.&.B &.&.1X&.B #.d j.< 4 2 p a s s s s j h j h h k k l l ..$.$.%.%.-.-.;.,.>.>.5.pXpXpXpXsXyXkXzXgXLXLX&X+X+X*X*X%X*X*X&X&X&XLXgXlXlXlXzXzXzXcXxXzXmXmXmXkXkXgXjX{.[._.A._.S.A.A.A.A.A.T.R.H.H.I.I.P.P.P.P.1X2X*.:.;.5.4.y.w.0.aX$.n 1X1XB B ",
"kXmXAXCX5.3X*.n 1XB 1X&.&.&.&.&.&.1X&.B &.&.&.&.&.&.B B &.&.1XB B 1X&.B 1X1Xn P.H.> > x.x.V.S.C.T.A.T.[.[.{.{.{.lXlXlXlXzXPXIXFXIXIXKX;X>X:XDXqXP.N B B <X&.&.1X1X1X&.&.&.B B &.B K.g l.j.4 4 d s s f j j h h h k k m l l M $.$.%.*.:.:.:.7X>.7XpXpXpXfXpXsXmXmXbXhXPXLXLX+X@X*X%X+X%X*X*X*X&XLXLXLXLXLXzXzXPXzXbXhXhXbXbXhXIXFXhX*X*X%X'.).`._._._.A._.A.T.E.R.R.W.W.I.U.U.U.1X2X2X6X>.5.5.u.i.q.9.K.*.1XP.1X#.",
"kXvXCXAX<.<XB B &.&.B &.1XB &.&.B B &.1X&.&.P.&.B 1X&.1X&.P.&.&.n 1X1XB P.P.1XP.g ; < 3 d d C.A.C.T.E.E.R.{.{.|.jXlXlXPXPXIXHXFXKX;X:X;XJX3XB 1XK.1X1X&.&.&.&.B &.B B 1X&.1X&.&.1XP.c k.> k.4 p d d s f f x b x x m m M N $.$.1X*.*.*.6X7X7X7X9XpXpXpXdXdXdXdXMXnXnXIXJXJXJX@Xg.g.g.@X@X+X+X@X+X*X&XLXDXPXLXPXPXPXPXFXHXFXHXIXIXlXjX].).#X$X).)._._.[.[.[.E.E.E.E.W.R.W.W.Q.U.3X3X2X6X7XpX5.6.y.r.0.pX1X1XN 1X5X",
"hX,XUXpX<XV &.1X1X&.&.1X&.P.&.&.1X&.&.&.1XB &.&.&.B &.B &.&.&.B 1XB &.1Xn P.*.B 6 : 2 2 d f f C.G.T.R.!.!.{.{.|.zXgXLXPXIXFXKXKX;X>XKX{.n n :.L.1XB n 1X&.B n <X&.B B &.P.&.&.&.<XP.L.k.s.< x.3 d d f f c x c v N v N N B B 1X1X2X2X2X7X8X9X9XpXpXdXsXdXdXdXvXvXMXGXHXHXFXLXLXDX@X=X=X=Xg.@X@X@X@XDX@XDXDXDXJXFXFXKXHXIXIX&X!.&.3XP.1X1XE.#XOXOXOXM./._.A.[.[.[.E.R.E.R.W.Q.Q.3X3X3X8X6X7XpX6.2.w.q.i.V 1X1XB 1X",
"IXGXnX$.$.L.*.K.B &.&.B &.&.&.&.B &.B 1X&.&.&.&.&.1X&.&.&.&.&.1X1XB &.&.&.1XM 6 O : 8 a a f c C.H.W.E.!.{.{.lXzXLXPXbXGXKXKX;X:X;XgX1XX.P.Y.K.&.&.&.&.<X&.B 1X&.&.&.1X1X&.&.&.&.$.B 1Xj.> v.x.p d C.C.f f v v v N N N P.P.1X1X1X2X4X8X8X9XtX9XsXsXsXsXdXdXiXAXAXCX:XGXyXL.K.I.P.B 0XlXLXDX+X+X+X+X@X@XJXJXDXFXDXHXLX&X|.<X*.*.P.$.$.&.P.1X5X[.).OXOXOX).).[./.[.[.[.!.!.!.W.!.Q.0X4X8X8X7XpX6.6.e.w.0.5XB 1X1Xv ",
"PXcX5XB $.0X=.P.P.&.&.1X1XB 1X&.1X1X&.&.&.&.&.&.1XB B 1X&.1XB 1XB P.B &.*.M 7 + O 1 0 s s b v D.H.I.Q.jXjXjXlXPXPXIXFXKXKX>XUXDX5X5XN Y.P.1X&.*.&.1X1XB &.1X1XB 1XB &.B 1XB &.B *.P.$.j.s.j.k.p V.f C.f c c v F.N L.P.L.P.1X1X4X8X8X8XtXtXtXsXsXsXsXsXdXiXiXAXAXUX,XuXM B 2X6X%.B P.P.P.n P.U.0X].|.LXLXgXgXgXgXI.P.1XP.L.K.<X3XK.U.1X<Xn B P.*.'.).OX$XOX).).}.[.}.[.[.[.!.!.!.Q.wXqX8X8X9X6.pX2.e.0.6.V &.2XL.",
"{.K.B <.P.&.#.P.&.&.&.B &.&.B &.&.B B &.1XB P.&.&.&.&.1XB B &.&.<XK.&.<XM 5 . 6 5 0 7 t s h m F.I.Q.Q.jXjXzXzXzXIXFX;X:X:XFX!.$.P.=.<X1X$.&.K.P.<XB P.1X<Xn n &.&.&.1XB &.&.&.1X1XL.&.> j.j.k.x.V.V.C.C.D.D.F.F.P.L.P.P.3X1X4X4X4XrXrXtXtXtXsXsXsXdXdXiXvXAXBXCXCX7X$.P.U.B N P.1XB &.*.*.$.&.<X*.&.P.P.Y.B M P.*.&.P.&.$.P.P.$.P.&.$.&.&.B P.P.1X!.).OXOXOX#X).`.}.}.[.[.{.!.{.!.wXqXqX8X9XpXpX6.e.9.t.*.$.*.P.",
"1X&.1XB &.1X&.B &.B 1X1X&.B B &.1X&.1X&.&.1X1XB L.*.1X$.L.1X1X&.K.1X$.u @ . $ $ 7 e t j j k M B 3X3XeXjXkXzXhXIXHX;X:XHXqXP.n 1X1X&.B 1X1XB &.1X&.&.B 1XB &.&.&.1X&.&.1X1X&.B B P.1X&.4 s.j.v.x.V.V.C.C.c D.F.F.L.L.I.U.3X3XqX8X8XrXtXtXtXsXsXsXmXvXiXmXvXAXBXCXaX6XB L.1X*.&.<X&.&.&.&.&.1X1XB &.&.&.B 1X1X&.B &.1XB &.1XB &.&.&.&.&.&.&.&.B B &.$.2X{.$XoX=X%X#X'.'.}.[.[.{.{.!.wXwXeXrX8XpXpX5.1.t.0.! 5XP.*.",
"&.&.&.&.&.B &.1X&.&.&.B &.1X1X&.B &.B &.B B &.&.*.F.P.3X=.&.1XP.2Xl 5 . @ $ * q e e t t z l M $.1X4XuXyXkXcXIXUXKX:XbXI.B 3X1XB B 1XB &.&.&.&.B B 1XB &.1X&.1XB B &.&.B B &.1X&.P.&.B N.s.j.v.v.V.V.C.C.D.D.F.F.L.I.U.P.1X4X4X4XrXtXtXtXsXsXcXsXmXiXvXiXvXAXSXCX7X5Xn P.1X&.&.P.1XB 1XB B B &.&.&.&.&.B &.B &.1X&.B &.&.&.&.&.&.&.B 1X&.B 1X1X&.P.U.P.V 1XjX#Xd.OX$X).}.}.|.}.[.{.{.wXwXeXrXtX7X5.6.1.[ R I ~ w ",
"&.&.&.B B &.B 1X&.&.P.&.B B &.&.&.&.B &.&.1XB 1XB 2X*.L.1XB $.1Xq $ . . $ * q q e e y z z ..$.*.:.tX8XyXmXvXCXUXGX4XV <X1Xl 1X<X1X&.&.&.1XB B 1X&.B 1X&.B &.&.1X&.&.&.P.B 1X1X&.<XB B D.s.j.v.c.V.V.V.C.C.D.F.L.I.L.P.3X3X4X4X8XtXtXtXsXtXsXmXmXmXMXiXvXAXCXCXAX*.#.B P.&.&.&.P.B &.&.1X1X&.B &.B &.&.1XB &.B 1X&.1XB &.1X&.&.&.&.&.B &.&.&.&.&.*.K.~.#.%.N E.|.OXOXOX+X#X}.}.|.{.[.{.wXwXqX8X9X8X;.3.{ R L J % ",
"1XB &.1X&.1XB &.&.&.&.&.1X&.1XB P.&.1X&.&.B &.1X<X#.P.$.1XP.#.$ . @ $ * * q q w y y y | o...%.-.,.pX9XiXdXCXUXUX*.<X1XN <X1X&.#.B &.B 1X&.&.&.&.&.&.1XB &.1XB B &.&.&.&.&.&.B &.1Xn P.P.j.j.k.v.N.V.C.C.G.G.F.H.L.I.U.U.3X4X8X8X8X9XtXyXsXsXsXsXsXdXvXvXZXCXCXfXB 1XP.&.&.*.&.B &.&.B &.1XB 1X&.&.&.&.&.&.1XB &.B &.1X1XB &.P.&.&.B 1X&.B 1X&.B *.$.*.#.<X&.<X1XY.'.oXh.OX#X).}.}.|.{.{.jX0XqX4X3X;._ _ ( U T U ",
"&.&.&.&.1X&.1XB &.&.&.&.1X&.1XB &.&.&.&.&.&.&.B B 1X&.K.P.w $ . $ $ * * q q e y y y ) | o.X.;.-.7X5.aXdXZXSXCXsXC <XB 3XP.$.B 1X&.&.B 1X&.B B &.1XB &.&.&.&.1X&.&.&.&.B 1X&.1XB &.#.1X&.j.j.k.v.x.Z.V.A.C.G.F.F.L.I.P.3X1X4X8X8X9X9XsXtXsXsXdXdXmXdXdXAXAXCXAXX.P.P.1X&.B *.P.B 1X&.1XB &.&.&.&.&.1X1XB &.&.&.1X1X&.B B &.B &.B P.&.&.B 1X&.&.1XK.<XP.B *.2X#.M P.P.!.#XOXh.OX#X'.}. X{.{.0X0X4X2X%. .) y r r - ",
"B &.&.&.B &.&.&.&.P.&.&.B B &.&.&.&.&.&.&.&.&.&.1X1XL.%.$   X $ * * * q e e r y r y )  .O.+.-.;.5.5.aXaXZXSXCX:.1Xn P.1XV <X1XN 1X&.&.1X&.1X1X&.&.&.P.&.&.&.B &.B &.1XB &.B &.&.B #.1Xn > s.k.v.x.N.C.C.D.G.G.F.L.L.U.P.4X6X8X8X9XpXsXpXsXdXsXdXdXdXdXAXZXSXiX$.P.B B &.B 1X&.B B &.&.&.B 1X1XB B B &.&.1XB &.B B &.1X&.&.1X&.&.&.&.1XB B &.&.B <XB P.P.P.V n 2XB 1X*.*.!.OXOX+X#X'.'.}.{.!.U.3X*.M l y y r e r ",
"1X&.P.&.B 1X&.1X&.&.&.&.&.&.B 1X&.&.B 1XP.&.B 1X&.B w O . $ $ $ 7 * e t 7 t y y y | |  .X.+.;.;.5.5.aXZXBXVXBXM *.1XV N 1X5Xn <XB 1XB B B B 1X&.1X&.&.&.&.B 1X1X1X1X&.&.&.&.&.&.P.2XB P.< s.j.v.N.Z.C.C.C.D.F.F.L.B P.1X2X2X6X7X7XpXpXpXpXpXaXaXdXdXZXdXBXBXfXB P.&.&.&.1XP.<X&.B &.B 1X&.&.&.B 1X&.B 1X1X&.&.&.B &.B 1X1XB B 1X&.&.&.&.1X1X&.1XP.P.n V P.P.P.&.<X#.*.P.B 3X{.OX$XM.).'.[.E.I.L.m m k y y e r r ",
"1XB &.&.&.&.&.B &.B 1XB 1X&.&.1XB 1XB &.&.&.&.<X*.$ O . $ $ * 7 7 e e e y y y | | |  .X.+.;.@.@.5.6.6.2.r.VX2.<X<XB 1X1X*.$.2XN &.&.&.&.1X&.&.B B &.1XB &.&.&.B &.B B 1X1XB 1XB &.*.N Y.x.s.j.x.x.V.V.C.D.C.D.F.L.L.P.1X2X*.:.6X>.7XpXpXaXaXfXaXaXaXaX6.BXu.5.*.&.*.&.&.P.P.P.1X1X1XB &.B 1X&.&.1XB &.&.B &.B 1X1X&.&.&.&.&.&.1X&.&.B 1X&.B B &.&.*.*.*.1XB &.1X*.P.K.n B P.P.&.OX$X)./.A.A.G.v v h j t y t t t ",
"P.1X*.P.P.P.P.P.#.<XP.&.*.P.P.B B *.2Xn P.1Xl y . @ O $ * * 6 q e t t t y y z | | |  .+.+.;.;.3.3.6.2.i.i.r.ZX*.L.&.P.&.*.P.1XY.B 1XB 1X&.B B &.B &.&.1XB 1X&.B 1X&.B 1X&.1X1XB <XK.2XP.p a.j.k.c.V.V.C.C.D.D.F.v L.B *.*.*.:.>.>.>.5.pXaX5.aX6.fX2.2.aXi.t.[ n P.B P.P.B <X1X&.$.1XP.B &.1X*.<X$.1X&.B 1X*.&.*.B &.&.B &.&.&.B B &.&.&.&.B &.B B 1XB 1XB &.&.1X1XB &.&.&.&.P.&.<XE.n.n.b.C.D.f b b j t t 9 t y ",
") y ..n 1X&.$.*.P.1X1XP.L.*.$.B 1XP.V *.B $.Z . $ O $ 6 7 7 0 9 9 t t y z y l | ..X.+.+.+.;.;.5.5.6.2.y.e.r.e.K.1XB *.B B *.P.&.&.&.&.&.&.&.1X1X1X1XB B &.&.&.1XB &.&.&.B B &.&.B <X$.&.f l.j.v.x.N.V.V.C.f D.v N N B $.*.*.:.>.;.5.5.5.5.6.2.6.6.4.2.7.1.t.! ' z $.2X*.$.*.P.P.Y.U.1X&.P.B P.1X1X1X1XP.P.P.P.P.1X&.&.1XB 1X1XB 1X&.&.&.&.1X&.1X&.&.&.&.&.1XB B &.&.&.&.&.&.&.&.P.Y./.b.k.C.f f s j t s j t t t ",
"= U Y ( ) $.P.P.$.1XB *.2XP.1X2X<XB P.P.u @   $ $ $ 6 7 9 e 9 t t t j z z l ......X.+.+.;.+.3.5.3.5.4.4.e.r.9.K.*.L.$.1XL.B *.2X&.B &.&.1XB &.B &.B 1X&.&.1X&.&.&.&.B &.1X&.B 1XB 2X&.#.P.j.s.k.x.N.Z.f C.f c v v N B $.*.%.,.-.;.3.5.5.3.6.3.6.3.2.4.4.{ } R R } Y w z &.1XP.<X*.$.P.1X1X1XB P.L.L.P.B P.B B 1XB &.B &.&.1X&.&.&.B &.&.&.1X&.&.&.&.&.&.1XB 1X&.B 1X&.&.&.&.1XB &.P.Y.b.k.d d a s j s t t 9 t t ",
"U U U L R ' X.L.1X1XB P.P.n n P.$.3XN * O O * O 0 7 0 9 9 9 t t h j k l l l $.$.%.%.-.-.-.;.;.3.5.3.i.i.2.q.q.5.P.B B 1X1XI.$.$.&.1XB 1X&.&.1XB &.1XB &.&.B B 1XB 1X1X&.&.B &.1XB 2XP.$.*.j.a.v.v.x.V.V.C.C.c c v m N $.$.%.-.-.;.;.5.3.5.4.7.7.3.4.4.} { { ( R L P I R Y U y 2XL.P.&.$.B B #.=.1X1X<X1X*.*.&.&.1X&.&.1X&.B B 1X&.1XP.&.&.B &.B &.P.B 1X&.&.B &.B &.&.P.&.&.&.&.*.P.$.x.k.3 d f s s s s j j j y ",
"/ / / ( R R R ' L.B &.1X1X1XP.U.&.e $ O O $ 1 7 0 0 9 9 9 j j j k k k M M M $.$.%.%.-.-.-.;.;.5.5.3.4.4.1.9.q.9.P.*.L.P.:.P.L.*.B B 1X&.B 1X&.&.B 1XB &.B 1X&.&.&.1X&.B &.1XB B K.P.P.&.&.3 a.j.v.x.x.V.d C.c v v x M $.$.%.-.-.;.@.3.3.3.3.4.3.{ 3.4.{ { _ ) / ( Y Y T L L R Y ~ | $.1X3X1X1XB *.*.#.&.P.B L.L.1X&.B B &.&.1X&.B B 1X&.B 1X&.1X&.&.&.&.&.&.&.1X1X1X&.B B &.&.&.*.P.#.x.> 4 3 a s s s j s j j j ",
"y ) _ ` ` Y R I R ] %.M N P.M ) * $ $ $ 8 6 7 0 0 9 s j s j b h h k m m M $.$.$.$.*.-.:.-.,.;.5.5.4.4.7.7.9.0.0.5.K.P.1X&.P.L.1X1X&.1XB &.&.B 1X&.&.1X&.&.1XB &.&.B &.1X&.B &.&.<XB Y.*.*.C.l.l.k.v.V.V.V.f f c v m m $...%.X.+.+.3.;.3.3.3.3.4.[ 4.3.{ { { _ ( / ( / ~ Y Y L L I L Y U ) M B ~.P.B P.P.P.B *.1XB &.1X&.1X&.B &.1X&.B &.&.1XB &.&.&.&.&.&.&.&.B &.B 1X&.1X&.1XB L.1X1X4 > 3 i d a d s s j s j j ",
"y ) ) ) _ ` ' ' L R } ^ / r q $ O $ 0 6 9 8 9 9 s s s s j b h h m m N B B B $.$.2X*.:.-.:.-.;.;.5.5.3.3.1.t.t.Q 0.<.*.$.B B <X1X&.&.&.B &.&.&.&.&.B B &.&.B 1XB B &.B 1X&.1XB 1X1XP.K.*.P.Y.l.s.k.k.x.V.V.V.f c c x M M $.$.-.+.;.;.3.3.5.3.4.3.3.4.{ 3._ { _ _ ) ) / ) _ / ~ / Y Y L I R R ~ ) *.B P.1XP.1X$.*.B 1X&.&.B &.1XB &.B 1X&.&.B 1XB &.&.P.&.&.&.B 1X&.B B &.B &.B 1XK.*.L., < 3 p a d a f s s j j h ",
"l | ) |  ._ O.{ { ' U U = - * * 7 0 8 s 8 9 s a s s f j b x v N N N N $.&.*.1X&.1X*.:.:.:.:.>.5.>.3.3.5.y.[ 1.0.W ! 1XP.*.K.P.$.1XB &.1X&.&.&.P.&.1X&.&.1XB &.&.1X1XB &.&.B 1X1X$.1XK.*.n <X< a.k.k.x.N.d f C.c v v m M $.X.X.X.+.3.;.3.4.3.3.3.3.3.3.3.@.@.)  .| ) ) ) / _ ( / / ( Y U Y L L R ~ ~ ) $.1XP.P.P.&.1XB B 1X&.B 1X&.1X&.B 1XB &.&.&.&.&.&.P.&.&.1X&.1X&.&.&.1X&.B &.1XG.: , 3 3 a s f s f b s b h ",
"| o.o.X.+.+.@.O.+.{ { _ y e 9 9 s s a a s s s f b f f c c c v v L.P.P.P.P.1X1X1X2X2X2X6X:.6X>.>.;.5.5.3.3.4.[ [ 0.W 0.$.3X#.1X&.B &.&.&.B B 1X&.B &.&.&.&.1XB 1X&.B B &.&.&.&.B <XP.*.n P.&.p l.l.v.k.x.V.V.f f v c m M M $.+.-.+.5.;.3.3.3.7.3.3.3.3.3.@.@.O. . .| | ) | ) ) ) ` _ / ( ( ( Y Y L L R Y ~ ) ..P.#.&.&.<XB &.&.P.B &.B $.P.&.&.&.B B &.1X&.*.&.$.P.1X1X&.&.#.*.1X6XN f , , 3 2 d d f f f s f b x ",
"l ..X.X.+.-.;.,.5.2X=.=.k v x s f s a s d f f f f c c c v v L.F.L.I.P.P.1X1X4X1X3X2X2X6X6X:.>.>.;.;.;.3.3.3.[ [ ! 0.I 8.$.P.P.*.1X&.B 1X1X&.1XB &.1X1XB &.B &.&.&.&.1X&.1XB &.1X1XL.*.1XP.1XC z.s.j.c.x.N.Z.C.f D.v v M B %.%.-.;.+.;.;.5.5.3.7.3.3.3.3.;.O.O. .| | | | | | ) ) ) ) _ _ / ( ( ( ^ ' Y Y Y Y Y Y r / / r / r / / u z l ..*.P.P.B #.V B n 1XP.P.P.P.B P.P.1XP.P.L.B L.p > < 3 p d d s f f f f x N ",
"..%.*.,.,.>.7X7X7XpX4X3X3XP.G.C.f V.V.f C.f C.f c c D.D.D.F.L.L.L.I.U.U.U.3X1X3X1X3X2X2X6X7X:.6X>.>.;.5.3.3.{ { ] t.W W 8.1XL.#.B &.1X&.&.1X&.B &.B 1XB &.B &.B 1X&.1X&.B &.B 1X*.P.n 1XP.&.I.j.a.j.v.c.N.N.C.C.D.F.N B B $.*.-.-.;.;.5.5.3.6.5.5.5.3.3.;.-.X.X.......l l |  . . . .)  ._ _ _ _ _ ` ( ^ ( U T P T % = T % T P % J J P E J J % # J % T = ) %.&.K.*.&.1XP.P.P.&.$.&.L., , 4 3 d d f f f C.C.c c N ",
"#.%.*.,.9X9XpX9XyXsXkXlX|.[.[.Z.Z.A.V.V.V.C.C.C.D.C.D.G.F.H.I.I.I.U.U.U.U.3X3X3X4X4X4X2X2X6X:.6X6X>.;.;.5.;.3.3.{ t.! 0.Q 3.P.1X&.&.B &.B B &.1X1XB &.&.&.1X&.1XB &.B &.1X1XB &.&.1XB 1XN $.1Xp d.s.k.x.c.N.V.V.C.D.F.N B &.*.:.:.>.>.5.5.5.5.5.5.5.5.5.;.-.%.%.$.$.l ........X.o. . . .O. .O._ _ O.O.) ) ) / r U U U % % % % % P J # # # # J J J J J J J J P % % w ) M P.P.K.<X$.s : 4 3 p V.C.V.C.f C.C.D.F.F.",
"*.2X6X9XtXtXsXcXnXIXFXPX%X$X#X(.^.^.Z.Z.Z.C.C.C.C.G.T.H.H.I.I.W.I.U.Q.Q.3X0X3X0X3X3X4X4X6X6X6X2X6X,.>.;.;.;.3.;.4.{ 4.t.0.0.;.<X1XB B &.&.B &.&.&.B 1X1X1X&.&.1X&.1X&.B &.&.B &.$.P.P.P.P.*.1XL.l.s.k.c.v.N.C.C.C.F.F.L.L.1X2X*.:.>.>.>.>.5.pX5.5.5.5.5.5.:.-.%.$.$.B M $...$.X.X.o.X.X.+.+.+.+. .O.O.O. .) ) ) y r r = e = = = - - - = % P P P % P J J J J A A K A K L P T T U r $ : a 3 d V.V.C.C.C.C.C.C.F.F.",
"*.2X9XtXsXmXbXGXHXbXhX{.jX|.M.OX(.^.^.Z.Z.A.C.A.C.T.T.G.R.H.W.R.W.Q.Q.Q.Q.3X0X0X0X4X3X4X4X2X2X6X6X:.>.-.;.;.;.3.3.@.4.[ 0.0.1.%.&.&.1X1X&.1XB 1X&.B &.B B &.B B B B &.1XB 1X1X&.B P.1X<X1X1Xn 1Xj.a.l.b.k.B.V.C.C.G.H.I.U.P.1X2X6X:.6XpX5.pXpX5.5.pX5.5.>.:.*.*.*.$.M $.$.$.$.$.$.%.%.+.X.-.X.+.+.+.+.X.X.|  .y k y y t t e e e = q = r = = - & = T T E J P P P P J J J J J E P % $ 7 s d V.V.V.V.Z.A.A.A.A.T.R.",
"2XrXsXmXvXnXGXGXbXeX*.*.1X*.H.M.(.(.^.^.Z.S.A.A.A.A.T.R.R.H.I.W.W.U.Q.Q.0XQ.0X0X0X3X3X4X4X2X4X2X2X6X:.>.>.>.;.5.5.;.4.6.u.9.9.7XB 1X&.B &.&.&.&.&.1X&.&.&.&.1X&.1X&.&.&.&.&.B &.1X<X1XB &.#.K.1X3 a.l.k.c.Z.Z.Z.C.G.H.I.I.P.3X4X8X6X7X7XpXpXpXfXpXpXpX7X7X7X2X2X&.B B B B $.$.&.$.$.%.%.%.-.-.-.-.-.-.%.$.M M x h h j j t t t t r e r = = = = / U = = T P P P P Y L L K L L T P T U y s f C.Z.A.A.A.A.A.A.E.E.E.",
"rXsXmXcXGXHXGXkX$.B Y.P.&.<XK.*.XXXXz.b.^.Z.A.A.C.T.T.R.R.W.W.W.W.W.Q.Q.Q.3X0X3X0X0X3X3X4X4X4X2X2X6X6X6X:.:.>.5.>.6.6.6.aXi.w.fXB &.&.B 1XB 1X&.&.B 1X&.B 1XB &.1XB B 1X&.B 1X&.B &.1X&.1XK.K.$.v l.s.k.z.x.c.A.A.T.G.I.I.3X4X4X9X8X9XpXpXpXpXpXpXpXpXpX9X8X2X1X1XP.P.P.P.P.B *.1X*.%.*.-.*.-.:.*.:.:.:.*.*.B N m x h j j j t t t t e t e w r w U r U / U U T Y Y Y Y Y Y Y Y Y ( / z h L.A.A.A._._._._./.E.[.E.",
"uXMXmX,XUX,X3X&.B 1X&.&.B 1XB &.*.(.XXz.z.B.^.A.A.A.T.R.R.R.W.W.Q.Q.Q.Q.Q.0XQ.0X0X3XU.0X3X1X2X2X2X2X6X:.6X>.7X>.pX5.fX6.ZXBXBXaX1X&.&.1X&.&.&.B 1X&.B &.&.&.&.1X1XB &.1XB &.1X&.B B 1X&.B &.&.&.#.j.a.l.c.c.c.S.A.A.R.R.Q.Q.3XqX8X8XtX9XpXpXsXpXsXpXsXtXtX8XqX5X3XU.U.P.U.1X1X1X1X*.*.*.*.:.:.6X2X2X6X6X2X1XU.Y.N v c f f j j t t j t t t t r r r r r / / U ( Y Y ^ Y Y ' R ' ' ( _ O...P.!./._._././.[._.`.}.{.",
"kXMXUX:XnXqXK.P.&.1XB 1XB &.1X&.L.P.n.d.b.^.A.B.A.A.T.R.R.H.W.W.I.Q.Q.Q.U.Q.0XU.3X0X3X3X3X4X4X2X2X2X2X6X:.7X7X7X5.fXpXaXZXBXSX,.&.B &.B &.&.&.&.1XB &.1X1XB &.B &.&.&.&.1X&.B &.1X&.&.B 1X&.B 1XV x.a.s.m.c.Z.S.A.T.T.W.W.Q.0XqXrXrXtXsXsXsXsXsXsXsXsXyXrXrXqX0XQ.U.U.I.U.U.1X1X2X1X<X2X*.6X6X6X7X7XpXrXQ.W.W.U.J.F.C.c f f a f s s t t t y t y y r r / / / ( / ( ( ( ' ( ' ' ' { { @.:.4X!.{.}.).#X#X'.).).`.|.",
"bXUX:XnX2XB V <X&.B &.&.1X&.&.&.1X$.I.z.l.B.^.B.S.A.G.R.R.H.W.I.U.Q.Q.Q.U.Q.U.0XU.3X3XU.3X3X3X3X2X2X6X6X6X7XpX7XpXsXdXiXZXSXAX$.1X&.&.1X&.&.B 1X&.&.B B 1X&.&.&.1XB &.1XB B 1X1XB 1X&.1XB &.&.B 3XN z.s.k.b.B.^.A.A.E.R.W.Q.0XqXrXyXtXsXsXsXsXsXsXsXsXsXyXyXeXwXQ.Q.Q.W.I.U.U.U.3X<X2X4X2X8X8X8XtXuXqXeXyXeXQ.R._.E.C.C.C.C.f f f s b j j t t y y y y / ) / / ( ( ( ( ( { ' { { 4.{ 3.5.rXjX].'.%X#X#X%X%X%X%X&X",
"GXHXMX$.*.n 1XP.&.B 1XB &.B 1XB *.P.&.N.XXm.c..XA.C.A.G.G.H.I.I.I.U.U.U.3XU.3XU.3XU.3X3X3X1X1X2X2X2X2X6X6X7X9XpXsXpXiXZXSXCXpXP.B &.&.B P.&.&.&.B 1X1X&.B &.B 1X&.&.B B &.&.&.B &.&.&.B 1X&.&.1XP.*.> a.l.m.B.B.A._.E.!.!.!.eXeXyXyXyXyXmXsXcXsXmXcXmXxXkXjXjXjX!.!.W.W.W.Q.U.U.3X3X4X4X8X8X8XtXtXkXkXkXjX].].'._._.A.C.A.C.C.c f f b s b j h j t y y ) ) ) ) ) ( _ { { ] { { } 4.1.6.6.fXnXFXJX@X@Xg.=X=XOX$X*X",
"HXbX1Xn N 2XV 1X1XB &.1XB &.&.1XP.K.1Xm z.l.x.c.A.C.C.G.H.H.L.I.P.U.U.1XU.U.3XU.3XU.3XU.3X1X3X1X4X1X2X2X6X9XpXsXdXaXNXAXCXCX$.1X&.&.&.B 1X&.&.&.&.B &.B &.1X&.B B 1X&.&.&.&.&.&.&.&.1X&.B 1X&.&.n *.p d.s.m.c.B._._.E.E.!.{.wXjXkXkXkXmXmXmXmXMXcXMXcXzXzXlXjX{.{.!.!.W.!.Q.I.Q.3X3X3XqX8XrXtXyXsXmXzXbXPXDX+X+X).)._.Z.A.Z.Z.V.C.f f f b h j h h z l y y ) ) _ _ _ _ _ { { } 4.4.1.y.ZXBXUXHXPXLX+X=XOX=X@Xg.@X",
"jXL.P.K.1XB 1X$.&.&.&.&.1X1XB B L.L.-.K.x.s.k.V.V.C.C.H.F.F.L.L.L.P.P.P.P.1X1X1XP.3X1X3X1X3X1X3X1X2X8X6X9X9XsXpXdXiXAXBXUXpXB 1XB 1X1XB 1XB B 1X&.1X&.1X&.B &.1X&.1XB 1X&.B 1XB B 1XB &.B &.B 1X1X#.L.l.s.z.b.^.^.A.[.[.{.{.jXjXkXkXkXcXmXMXbXMXcXbXbXbXzXgX|.|.}.[.[.E.W.W.Q.Q.0X0XqXqX8XrXyXsXcXbXIXIXIXIX&X$X=XOXOX(.^.Z.Z.B.Z.C.C.f f f b x h k k l l |  . ._ O.3.3.] 4.4.4.4.u.i.ZXSXAXyXU.3X$.P.|.DX+X=Xh.",
"L.n K.1XV 1X3XB 1XB &.1X&.B &.&.U.*.$.U.x.k.j.x.V.d C.c c v N N N B B B B &.1XP.1X1X1XP.3X3X1X2X4X4X8X8X9XsXpXsXiXiXBXSXAX-.B #.&.1X&.&.&.&.1X&.&.1X&.&.B &.B 1X&.B &.B 1XB &.1X&.B &.1X1X1X&.&.1Xn &.j.s.k.b.B.^._.[.[.{.jXjXkXxXkXkXkXbXbXbXbXIXIXIXFXPXDX*X%X}.'.[.[.E.!.W.Q.0X0XqXrXtXtXmXcX,XGXHXIXjXU.~.~.%X$XOXz.M.^.^.Z.Z.S.C.V.C.C.c c x x m l l ..X. .+.O.@.3.3.7.4.4.y.u.u.BXSXiX%.N P.N #.5X*.M !.LX",
"n 1X*.*.1X&.B K.&.&.B B &.1X&.&.M 2XP.L.C.k.j.3 d d f f c x x m M M B B B B &.1X1XP.1X3X1X1X3X2X4X4X8X9X9XpXsXsXiXAXCX>X5.P.n 5X&.B B 1XB &.B &.&.B B &.1X1XB &.1XB &.1X&.&.&.B &.1X&.B &.B B &.N &.<X3 d.l.b.b.`._.[.{.{.|.jXlXzXzXbXbXbXbXnXIXIXHXFXKXJXDX@X+X%X)./.[.E.E.W.!.3X0XqXrXyXmXvXnXUXnXeXY.&.#.1XB ;.~.M.oXoXz.^.c.Z.Z.Z.A.C.C.D.D.F.v N m M $.%.X.+.+.+.5.3.3.6.4.u.u.i.VX-XfX%.<Xn 5X1XL.P.=.#.L.",
"1X&.B 1XB 1X&.1XB &.1XB P.&.&.&.<X*.L.I.g < j.4 p d s b b x k M M M $.$.$.$.$.1X&.1X1X1X1X1X3X3X4X4XuXtXtXsXdXdXvXCXSXvXP.<XM K.B &.1X&.B 1X&.1X&.1XB 1X&.&.B &.B &.&.&.&.B 1X&.&.&.&.&.1X&.&.1XB U.#.$.a.j.z.M./.}.[.{.jXlXjXlXzXhXPXIX,XIXHXHX;XKXHXLX&X&X].$XoX#X)./._.!.!.E.0XwXwXrXsXmXvXUXMXuX#.1XP.K.1X&.Y.*.P.M.oXoXM.M.b.Z.Z.S.A.C.D.Z.D.D.F.N N B $.%.-.-.3.3.5.5.2.u.y.BXr.VXVX1XP.1X&.&.&.&.&.&.&.&.",
"&.&.&.&.&.1XB &.&.&.&.&.&.&.&.&.B 1XP.P.g > < 4 i d f s j b h m m l M M $.$.$.*.$.1X*.2X2X1X4X4X4X4XrXtXsXsXsXiXAXSXCX9X*.P.#.1X1X&.B &.&.&.B B &.B &.1XB 1X1X&.1X&.1XB &.1XB &.B B 1XB B B &.B 2XV *.U.k.a.z.b.`.`.).}.].|.LXzXbXbXIXIXHXHXKX>XHXhXW.$.*.5XK...).M.M.(._.A.!.W.0XuXeXyXdXvXCXCXuX<XB 1XB B 1X&.$.P.1XP. Xd.f.z.(.M.^.B.B.A.C.G.G.G.F.L.L.B $.*.:.-.>.5.5.6.6.6.i.e.BX-XVXB B &.&.&.&.&.&.P.&.&.",
"B &.B 1X&.B 1XB B 1X1XB 1XB B 1XP.*.*.1XN.o , < a a s j j h k k l M l ..$.$.$.%.*.*.2X1X2X3X4X4X4XrXrXtXsXsXdXvXCXCXvX=.<X&.<XP.&.&.1XB &.1X1X&.&.&.B B &.&.B &.&.&.&.B B B 1X1X1X&.&.1X&.&.1X&.*.n 1XL.d XXl.^.`.).}.}.|.gXgXLXIXIXIXIXKX:XHXhX=.P.P.*.%.P.K.2X3X/.z.(.^.A.E.W.Q.0XrXyXdXAXCXsX=.n &.&.B <X1X&.*.B n *.1X XXXf.n.z.n.n.^.A.B.R.A.R.H.Y.I.P.U.1X2X:.7X5.5.5.6.u.u.ZXVXVXBX&.B P.&.&.&.&.&.&.&.&.",
"&.1XB &.1XB &.&.&.&.&.&.&.&.&.&.P.&.n *.v.; < 2 i a s s j j z k l l ......$.%.%.$.*.*.2X2X2X4XqXrXrXrXsXsXsXvXAX-XUX>.$.P.$.2XB 1XB &.&.&.B B &.B 1X1X&.&.B 1X&.B 1X&.1X1X&.&.B 1XB &.&.B 1XB &.#.P.B B <Xm.a.n.(.'.'.].LXPXPXIXFXHXJX:X:XPX0XL.K.1X2XP.P.P.P.L.*.I.^.z.^.Z.R.R.U.3X9XsXdXAXCX2X1X*.1XB P.1X1X$.&.*.P.~.$.*.T.XXf.OXz.^._.(._.B.A.T.T.R.I.I.3X3X2X6X7X,.5.aXaX6.u.BXr.VXBX&.P.P.P.&.B 1X&.B 1XB ",
"&.1XP.&.&.&.&.&.&.P.B 1X&.B B &.P.1Xn &.< > , 2 a a 9 j j k k z l z ....%.%.%.=.*.*.2X2X2X8X8X8X8XrXyXsXsXdXvXCX:XZXN <X*.&.1XB &.&.B 1X&.B 1X1X1X&.1X&.1X&.1XB B 1X&.&.1X&.1X&.&.&.B 1X&.B 1X1X1XB <X1X5XV.XXa.OX).%X*X&XFXFXHXKXKX:XKXjX<XK.$.~.n $.N B 5X*.*.&.*.G.b.b.N.C.G.I.1X9XsXiXCXaX&.&.1XB B 1X1X&.&.K.P.P.P.#.<XL.I.XXd.z.M.n.(.^._._.E.E.R.W.W.U.3X4X2X9XpXpX6.aXu.ZXZXr.-Xi.2X1XB &.&.B 1X&.B &.1X",
"&.B &.&.&.&.&.&.&.&.&.&.&.1X1X&.B 1X&.F.> ; : 2 a a s j j j z z l ......%.X.%.%.*.6X6X6X8X8X8XrXtXyXmXsXsXvXCXCXCX:.P.n *.P.B 1XB 1XB &.&.B &.B B &.B B B &.&.&.&.1XB &.B &.B &.B 1XB &.1XB &.B 1Xn K.Y.*.M (.oXOX$X*XDXFXJXKXJXHXFXgXU.B <X*.2X$.&.2X<X<X&.B n B *.L.V.k.x.J.D.L.2X:.aXBXSX:.1XB <XB 1X1XB B &.*.P.1X*.$.Y.Y.*.H.d.d.XX(.M.M.`./._.A.T.R.!.Q.Q.4X4X9X9XpXaXaX2.ZXp.H VXZX1X<XP.&.&.&.1X&.1X&.&.",
"&.&.&.B &.&.P.&.&.&.&.1XB B 1X&.B 1X*.N.; > 1 2 8 a 9 j j j z l l ......X.%.:.:.:.6X6X6X7XuXtXrXtXsXsXsXMXAXCXCXiXv 2X&.Y.P.P.*.&.B 1X&.&.1X&.&.&.&.1X&.B &.B 1X&.B 1XB &.&.B &.B 1X1X&.&.&.&.&.B *.P.V 2X:.H.'.OX@XJXJXJXKXKXFXgX2XN 2X*.P.B C 3XK.n Y.P.1X1XP.B 1XP.p 4 x.g x m =.,.aXVXZX1X1XB <X1X1X1XB B <X$.1X<XP.1X*.1X~.*.R.d.d.XXz.(.(.^._._.[.E.E.!.Q.0XeXrX9XpXpXaXZXBXp.VX-Xu.P.*.B &.&.B B B &.B B ",
"1XB &.1X&.&.&.&.&.&.&.B 1X&.&.B P.&.1X4 ; ; 2 2 a s s j z k l l ....%.%.%.-.-.:.>.6X7X7X8X8XtXtXyXyXkXmXdXvXCXCX$.2XN 2X$.Y.1X#.&.1X&.B &.B 1XB 1X&.B &.1X1XB &.1XB &.&.1XB 1X&.&.&.&.B &.&.&.P.K.K.1X$.<Xv P.K.&XLX+X@X+XgXwX#.*.K.P.B P.<XK.1X$.1XP.*.*.B P.#.L.:.K.x.< 2 f x k +.;.6.r.u.1X$.&.1XB B B 1X1XK.P.#.&.K.L.L.&.%.P.*.U.d.f.XX(.M.(.`./.[.[.[.!.!.0XeXrXrXpXaXaXfXBXp.-XVX2.P.1X&.&.&.1X&.&.1X&.1X",
"&.1X1XB &.&.&.&.&.P.&.&.1X&.1X&.N <X;.< ; > 2 2 a s s j h h l l ....%.%.%.:.>.>.>.7X7X7X7XtXsXtXyXsXsXmXdXCXUXaX&.1X&.&.&.&.1X&.<XB 2XP.B 1XB B *.B P.1X&.&.#.P.$.P.P.<X#.K.P.$.1X&.#.*.P.B P.&.&.&.&.B 1X&.1XB B 1X&.1XB &.&.&.&.&.&.&.P.&.&.&.&.&.&.B &.&.&.&.P.1X#.x., i s h k %.{ 7.w.9.:.*.1X&.&.&.&.B &.1XB 1X&.&.B 1X&.&.P.B %.R.d.d.XXM.OX/.`.`.[.{.{.[.wXeXeXtXsXpXaXfXZXBXVXVX6X<X*.P.&.&.&.P.&.&.&.&.",
"B B &.&.&.&.&.&.&.&.&.&.B &.B &.1XP.B o o , 2 a a s s j h k l l $.$.%.%.:.,.>.>.7X7X9X9XpXtXtXtXyXdXsXvXAXCXCX:.B B &.&.1X&.B &.B V B &.1X1X&.1XP.<X1XU.P.P.P.$.P.<X1X1X1XL.B 1XP.I.1X1X*.B &.P.&.&.1XB &.B &.&.&.1XB &.&.&.P.&.&.&.P.&.&.&.&.&.B &.1XB 1XB B 1XP.*.L.: , 2 9 h z ..3.4.e.9.pXP.B &.1X&.&.&.1XB &.&.B 1XB &.B 1XP.*.#.K.L.XXd.oXn.M.`.). X[.[.{.wXwXeXyXsXsXdXZXZXp.-XVX2X<X&.P.&.&.&.&.&.B 1XB ",
"1X&.&.&.P.&.P.&.&.&.&.&.&.&.B &.*.N V.; > > 2 a d s j b x k M $.$.%.%.:.:.>.>.7XpX7X7XpXpXtXtXsXsXsXdXiXAXCXfX<.1X&.&.&.B &.1XB 1X1X1X&.B B B 1XB L.$.$.P.5X%.z ~ r | M *.<.#.P.$.1XH.#.B P.H.*.&.&.&.&.B 1X1XB &.B 1XB 1X&.1X&.&.&.&.&.&.&.&.&.1X1X&.&.&.&.&.&.&.*.d ; 1 i 9 j z o._ 3.y.q.u.P.1X1XP.&.1XB &.B 1XB 1X&.1X&.1X&.<X&.P.$.n uXoXf.OXOXM.(.). X_.{.{.{.eXeXtXsXsXdXZXp.H -X<X<X*.P.&.&.&.&.1XB &.1X",
"1XB &.&.&.&.&.&.&.&.&.&.P.&.1X&.#.B 4 o , < 2 a s f b x x m N $.$.$.*.:.:.>.>.>.>.pXpX7XpXsXpXpXsXsXdXZXBXAX7XP.1XB &.&.P.&.&.&.n 1X1XB B 1XB 1X1X*.U.M ~ % @ # # L K J % w o.3X&.*.*.N P.P.1X#.&.&.B 1X&.&.&.&.1XB &.&.B &.B &.&.&.&.&.&.&.&.P.&.B B 1X1X&.B 1X#.U.: : 1 a 9 t y O._ { t.r.w.K.P.&.&.P.P.1X&.&.&.&.B &.&.B B &.$.U.P.K.<X$.*.d.f.XXoX(.(.).{.}.{.{.jXyXyXsXsXaXZXVX-XH $.P.&.B P.&.B 1X&.&.B &.",
"&.1XB &.B &.&.&.&.1X&.B 1X&.B B P.2X< o , 2 2 a d s f x m m N $.*.*.*.:.>.7X7X7XpX7XpXpXpXpXpXpXaXpXdXfXVXZXL.1X&.&.B &.&.B &.&.B &.&.B 1X1XB V N M y & . @ & # # # J J A W I P o.N *.*.$.P.*.*.&.&.&.B &.&.&.B &.&.&.&.&.&.1X&.B 1X1XB &.&.&.&.1X&.1XB B P.&.&.*.f ; 1 8 s s t | ) ) 4.[ r.Q ,.&.B 1XB 1XP.&.&.B &.&.&.B &.&.&.U.$.1XK.P.*.L.K.d.d.OXM.(.`.#X}.|.{.jXjXeXsXdXdXZXBXH VX<.<X*.P.&.&.&.&.&.B 1X1X",
"B &.1X&.1X&.1XB &.B &.1XB &.1X&.P.P.; > , 2 3 d s f b x x N B $.*.2X:.:.>.>.pX>.5.pXpX5.pXpX5.pX5.6.aXu.e.e.L.1XB 1XB 1X1XB 1XB 1X&.B 1X&.V *.5X$.Z . O @ & & % T T L E P L K A I ^ V $.1X&.F.*.&.B 1X&.1XB &.1X&.&.B 1X1X&.B &.B &.&.B B 1X&.B &.B &.&.&.&.&.&.U.: : : 6 9 9 y y ) _ 4.[ 9.q.ZX*.&.B P.B 1X&.&.1X&.1XB 1X1XB B <X1X#.*.B L.K.*.Y.f.d.OXoX#X}.}.[.|.{.jXeXsXsXdXZXBXVXVX<X1X&.B &.&.&.&.1XB &.B ",
"&.B B &.&.&.B &.B &.B 1XB 1X&.&.n p o > , 4 p d f f b x N N B &.2X:.6X7X7X7X7XpX5.pXpX5.5.pX7X5.5.6.5.y.9.t.,.&.&.&.&.&.1X&.B 1X&.n B 1Xn B 1X..$   O $ * * * q w w U Y R L R R K W ! V P.&.&.L.1XB B 1XB &.B 1X&.&.&.&.B &.1XB 1X1X&.&.&.1XB 1XB &.B 1X&.1X&.&.f ; 1 1 8 s j y z | O.3.] 9.q.w.2X*.B B B 1X1X&.B &.&.1X&.B &.1X&.#.1XB *.P.&.L.$.1Xf.d.XXn.(.}.}.}.{.jXyXyXsXsXaXZXr.VX&.L.1X&.B &.B 1X&.&.&.&.",
"&.1X&.&.B 1X&.1X&.1XB &.&.&.&.P.$.< o > 4 3 i a f f c N N B P.*.2X2X6X:.>.7X7X7X>.7X5.>.5.,.5.5.;.7.{ 1.t.0.[ B 1XB 1X&.B &.1XB 1X&.&.1X&.2XM : O $ $ * * q r r / r / ( ( ( ' ! ! W W 0.=.1X*.<X&.&.&.&.1X1XB &.&.P.&.B 1X&.&.B &.B B 1X&.&.&.&.1X&.&.1XB B &.&.2 : ; 8 a 9 j t z  ._ ] 3.t.q.F 2X2X*.&.P.1X&.&.&.1XB B &.1X&.B $.I.K.2X&.n P.*.&.*.U.XXd.$X$XM.`.}.{.{.jXyXsXsXZXZXVXr.&.P.&.1X1X1XB &.&.&.&.P.",
"&.L.2X$.P.*.P.Y.B P.P.*.&.P.1X*.2X< ; > 4 i 3 f f c v F.N P.1X1X2X2X2X6X7X>.7X7X>.pX>.5.>.;.3.@.3.@._ { t.Q ! [ #.&.n 1X3XB $.1X<Xn &.2X%.t O . $ $ * 7 e e e t y / ) _ _ ] { ] ] ! 0.Q 1.1XP.#.1X&.&.P.&.&.&.&.&.&.B 1XB 1X&.&.1XB B &.P.&.&.&.*.P.L.1X1XL.N I.; : 1 i s 9 t h z | O.{ ] y.9.G i.&.J.<XB P.&.1X1X&.B 1X1XB &.1X1X&.1X&.&.1X&.&.B B *.B XXd.z.#X).).[.{.{.eXyXsXfXZXVXw.1X1X#.L.&.B &.1XB 1XB &.",
"1XB $.3X1XB 1XP.&.B P.*.&.P.P.$.v > > < 3 p p V.f C.D.F.P.P.1X1X2X2X6X6X7X7XpX7X>.pX5.;.5.;.@.@.{ _ ` ] } R ! I ` O.1XL.B *.2XP.&.1X1XB 5 . O $ $ 6 7 7 9 e y y ) ) ) O.O.{ { 3.[ 1.y.9.9.5.B 1XB &.&.&.&.P.&.&.B 1X&.&.&.1XB 1X&.&.1X1X&.&.&.&.P.N *.2XB 1X#.3 ; : 6 8 s s j z z | O.@.4.1.9.q.w.<.2XV P.*.$.P.B 1XB &.&.&.&.&.B &.B B B B &.&.#.I.#.K.F.oXd.z./.).[.{.!.eXrXpXaXZXH r.6XP.=.1X&.1X&.&.&.&.&.&.",
"n *.<XV B B P.$.2XB B 1XB P.P.B N.; o < 3 3 g C.f D.D.L.L.P.3X1X2X8X6X7X6X7X>.>.>.>.;.;.+.+.@.O.O._ _ { { ' I W W ! X.U.L.P.P.L.B *.z $ @ O 6 6 0 7 0 t t y y z | | o.@.@.3.3.7.4.6.i.i.e.u.&.P.&.&.&.&.&.&.&.&.B &.B 1X&.B &.&.B 1X&.B &.&.&.&.*.M 1XP.V <XF.: ; 1 i 0 s s t k l | +.@.3.1.w.9.F fX1X*.n *.1XP.B 1X&.1X1XB &.1X&.&.1X&.1X&.&.&.*.P.K.#.$.^.d.z.n./.[.[.!.qXrXpXaXZXr.q.pXN #.1XB B &.B &.&.P.&.",
"1XB 2XL.n 1XP.*.*.B P.1X&.B &.1Xv.; > < p 3 d C.C.D.H.H.I.P.3X3X4X2X4X6X7X7X7X7X>.,.;.-.+.O.O.O.) _ ( _ ( ' R R I I I L r $.4X=./ * O O O $ * * 0 0 9 t t j z z ..X.%.;.;.5.5.6.6.fXZXVXBXaX*.P.P.&.&.&.&.B 1XB 1X1XB &.1XB &.&.B &.&.&.&.&.&.P.P.B P.2X$.*.v.  : 1 i a s s h k l .. .O.3.1.y.9.G p.F.*.#.P.1XB &.&.&.B &.&.B B 1X&.B &.1XB &.&.K.$.I.%.1XN b.d.b.^.A.R.W.0X8X7X7.u.i.q.ZXL.&.*.&.1X&.1X&.&.&.&.",
"*.v $.1XP.*.P.B &.&.&.1XP.*.*.P.< ; < 4 3 V.d C.C.G.H.H.I.U.3X3X4X4X2X8X8X7X6X>.:.:.-.-.+. . .) ) _ / _ ( ( ' ' R R K K K E % & @ $ @ $ * * 6 8 9 9 t t j z k l ..X.-.;.5.5.5.aXaX2.BXVXCX:.$.K.&.&.B 1X&.B &.1X&.B &.&.&.P.&.&.&.&.&.1X&.1XB &.L.*.$.&.P.L.: ; 1 2 a s s j j m l ..X.@.3.3.t.t.q.F :.v <XP.n &.&.&.&.&.&.&.1X&.B 1XB &.&.&.&.P.<XB N 3X#.=.G.z.k.b.B.T.H.U.2X6X5.2.u.q.e.L.P.&.&.B &.&.&.&.B 1X",
"w 8X$.n U.n 1XL.B &.1XB $.$.1XY.> > < 4 d V.V.C.G.G.H.I.U.Q.3X3X3XqX4X8X6X8X6X6X:.:.-.%.X.X. . .) ) ) ( ( ( ( ~ ^ R I E K J J # # & * * 7 7 9 9 e s j j k z l $.%.-.:.>.5.5.aXaXZXZXAXSXBXK.B K.&.&.&.1X&.1X&.&.1X&.B 1X&.&.&.&.1XB &.B &.B &.&.B :.P.I.1Xp   , 1 i a s s b x k M ..+.+.3.3.1.t.q.D 9.W.2XP.&.1XB 1X&.&.&.&.B &.&.&.&.&.&.&.&.&.*.L.1XP.n 5XP.k.j.k.V.C.D.P.1X*.,.2.i.r.w.=.&.<X&.1X&.B B 1XB &.",
"A u.5XV 1XP.*.P.P.&.1XB P.1XC g ; > 4 3 V.d C.C.G.G.H.W.W.Q.0X0XqX3X4XrX8X4X6X6X2X*.%.%.%.....| ) | ) ) ( _ ( ( ( Y Y Y P P - - - - * 7 e 0 0 9 s j j k k l $.$.*.:.>.7XpXpXaXdXZXBXSXCXfX$.B P.&.&.B B B B &.B B &.1X&.&.&.&.P.1X&.&.&.&.1X1XB P.1XP.P.V , ; , 2 a s s b b x m m $.%.+.@.3.4.[ ! q.D ,.1X&.P.1X&.B &.P.B B 1X1X&.&.P.&.&.&.B 1X*.L.4X$.L.%.Y.v.> v.d f x N $.%.+.3.1.9.q.pX&.P.1XB &.1XB &.1X&.",
"0.W K.U.$.P.-.L.P.&.*.P.&.1XJ.3 : < 4 d V.V.C.A.G.T.R.W.Q.Q.0X0X0XqXqX4X8X8X6X2X*.*.#.$.....| | z ) ) ) ) ) ( { ( ( ( U / U T T - e e 7 9 9 t t j j h h V $.$.*.2X6X7XpXpXsXaXdXAXAX-XCX3X%.<XB &.&.1X&.&.1X&.1X&.&.B &.&.&.&.&.B &.B 1X&.&.B 1X*.L.&.B 3   , 1 i a f s b b x m N $.%.+.O.@.4.[ t.0.S F $.1XY.$.&.1X&.&.1X&.&.B &.&.&.&.P.&.&.P.1XV $.#.L.%.V k.> 4 d f j k .. .3.3.y.w.S ZX*.K.&.&.B &.1X&.1XB ",
"I Q S 5XP.*.%.I.P.n 1X#.#.2XN : ; 4 3 V.d V.C.A.H.R.E.!.Q.!.wXwXeXqXqXqXqX8X2X2X*.*.$.$.M ..l | ) z ) ) ) _ _ _ _ ( ( ( / / = r e e t t t t s j j x x m N *.2X2X:.6X9XpXsXaXdXAXBXCXUXaX<XL.P.*.1X&.&.1X&.1X&.B &.B &.B &.1X1XB &.P.&.&.&.&.&.B P.*.&.L.: ; 1 2 a a f s c x N x B M $.%.-.@.3.{ } 0.S D I =.*.n #.1XB 1X&.$.3XV <X1XB P.1X&.B B P.P.K.<X*.I.B , , 1 a s t h z  .O.3.t.t.q.9.<X*.&.B L.P.%.B P.#.",
"} I D D n L.1X<XP.P.N P.1XN 5 + , 3 p d V.A.T.A.T.R.!.!.!.Q.wXwX0XeX0XqXqX4X4X3X1X1XP.$.M M l l | l l )  . .) _ _ ) _ / ) / / y u y y t t j j j h x m m B &.2X2X7X9XpXpXpXdXfXAXSX>XBX7X$.<XP.B B &.B B B B &.1X&.1X&.1XB B &.&.&.&.&.&.&.&.&.&.P.1X6Xp : : , i a f f c c v v m M B $...X.O.@.{ ' ] t.W S W ` M B 3XN 1X#.&.B 6XL.*.*.#.B B 1X:.2XN 1X1XB *.3   , : i s t z )  ._ @.4.[ 9.F aXP.1X#.P.1X*.&.P.1X",
"Y W 0.S W P M +.$.5X$.n B 0 : : 2 2 d V.C.C.T.T.E.R.E.!.{.wXjXwXjXwXwXwXwX0X3X3X3XP.P.N N M m k l l | l |  . . ._ ) ) _ ) ) ) y y y t t j h x b x N N B B 1X2X6X6XpXtXsXiXiXZXAX-XCXaXB B 1X$.Y.&.&.1X&.1X&.&.&.&.1X&.&.1X&.B 1X&.1X&.&.P.&.&.&.B P.P.: ; 1 2 d a f f f x v N N N M $.$.%.+.@.{ _ } ' R W S K P P.$.*.*.V 5X<XN &.1X&.&.1X1XP.V V >.n P.1XK.: ; : 6 9 9 t y y ) { @.} 1.9.G w.L.1X#.*.<X&.<XP.B ",
"{ } I I A S I = ~ ~ ~ w * O O 6 i d f C.C.A.T.E.E.!.!.{.!.!.jXwXwXwXjXwXwXQ.0XQ.U.P.L.L.N N m m m M l .... . . . .O.) ) ) ) ) y y z k k k h m x N N B P.1X2X4X8X9XsXsXpXvXZXAXCX>XAX$.<XP.*.$.U.B 1XB &.1XB B 1X&.B B &.1XB &.&.B B &.&.&.&.&.&.&.1Xd : > 2 2 d f f c c c v N v N m M $...X.O._ _ } ' 8.I K D K K U &.Y.P.P.1X&.$.P.P.B B B P.I.*.L.&.n &.1   : 1 8 0 t t y | ) _ _ ] [ t.q.F 5.P.$.*.&.P.1X1XB ",
"( } ! R I K K J J % % # @ $ q 9 s f f G.T.T.E.E.{.!.{.{.{.wXjX{.jX{.jX!.wXwXQ.Q.W.Y.I.L.L.N N m M M M ..$.X.o. .X.+.X. . . .| | z z k k k m m v N B P.1X3X4X4X8XsXsXsXdXiXAXAX-X-XpXI.<X1X1Xn P.&.1XB &.&.1XB &.&.&.&.B &.&.&.&.1X&.1XB &.&.&.&.1X$., : , a 3 s f f D.c c v F.N N N M $.$... . .{ ) ' ' R R I W A S K % y $.B U.P.&.*.1X1XP.$.#.L.n 1X1Xc + + : 6 0 9 9 t y y ) ) { ] } 0.w.F ZXP.P.&.&.L.K.&.$.",
"( { ' } } I I K E J J % % w e t s b F.G.T.E.E.!.[.{.{.{.jX{.{.jXjXjXjX{.wX{.!.!.W.W.H.H.F.L.L.N N N N M $.$.%.%.X.X.X.o. .......l M l m m N N N L.P.U.U.3X4XrXtXtXsXsXiXiXAXSX>XiXN <XL.#.<XK.1X&.&.1X&.&.B &.&.1XB &.1XP.&.&.&.1XB &.B 1X&.&.P.1XC.; , 2 2 d f f c D.c F.F.v v N N N M M ..|  .) _ _ ' ' ' R L I A A D S A & %.1XP.B B B P.1X*.B 2XN M O + : 6 8 0 9 t y y y ) _ ] 3.[ ! 0.q.q.:.P.P.&.B K.<X*.",
"_ } } ' } R ' Y Y Y T U / r t k x N F.H.R.E.[.{.{.{.{.|.|.{.lX|.|.jX{.jX{.{.!.!.E.W.R.H.H.F.F.F.L.N N B $.&.$.*.%.$.X.%.$.$.$.M M M M m N B B P.U.U.3X3X4XqXrXyXtXsXmXvXvXCXCXSX6Xn *.L.&.#.1XB B &.B &.&.1X1XB B &.B 1X&.&.&.B &.1X&.&.B 1XB &.*.x.; 4 2 3 d C.f C.D.D.D.F.F.v N N N M M M ....| O._ / ~ ~ Y R L I K J J A S K # ` %.2X*.&.P.P.*.<Xu     O 1 7 8 9 9 t t y ) ) _ _ _ 4.t.t.9.D 6.K.L.*.&.P.P.&.",
"_ _ ] ( Y ( ( Y Y T U / / y | z m B I.W.!.{.{.{.{.|.|.|.|.lXlXlX|.|.|.|.|.{.{.E.E.E.R.T.H.H.H.H.I.I.L.P.P.1X1X*.*.*.*.$.$.$.$.$.B $.B B P.P.P.P.U.U.3X0XqXrXtXyXsXsXvXvXAX-X>XZXB 5XN <XP.B *.P.1X1XB &.&.B &.&.1X1XB &.B 1X&.1X&.B B 1X&.&.&.&.L.p < 4 d V.V.C.C.C.D.D.c D.F.v v N m m m M l o. .y ) _ { _ ( ^ ' Y L R I J K A A K L P u &.1Xn y $ O $ O 6 6 6 0 9 t t t y ) | _ _ { ] [ y.q.G p.uXv *.*.L.P.B ",
"O._ _ { ' ` ( ^ ( ( ( / _ ) X.%.*.<X0X!.jX!.{.].|.|.].&X|.].&X].lX|.|.|.}.}.{. X X[.E.T.T.R.R.I.R.I.U.U.U.P.1X1X2X1X*.2X*.*.*.*.&.&.B P.P.U.3XQ.3X3X0XqXqXrXyXyXyXvXvXvXAX-XUX%.P.&.&.&.&.1XB P.&.B B &.&.B &.&.1X&.B B 1X&.&.&.1XB B &.&.&.1X&.n k.> N.x.V.C.C.D.D.D.G.G.F.F.F.F.v N N m m l l | | ) ) ) ) ` _ ^ ^ Y R Y R R L I K K K I L J & @ $ O $ 1 6 0 0 0 9 9 j z y z ) _ _ { [ 4.t.9.G F *.&.L.P.$.P.B ",
"_ _ _ { _ { ( { _ ( ` _ _ O.+.-.*.3XqXuX{.{.lX].|.lXLXLXLXLXLXLX*X&X&X&X|.|.}.(._.[.E.[.[.A.E.E.W.W.W.Q.U.U.1X3X3X2X1X1X1X1X1X1X1X1X1X1XP.3XU.U.3X0XqXqXrXyXyXkXmXmXvXAXSX>XZXP.&.&.1X&.&.&.&.&.&.1X1X&.&.1XB 1XB &.1X&.1XB &.B &.&.1X1X1X&.B &.*.4 j.B.Z.N.Z.S.A.A.C.G.C.G.F.F.D.v v m m m M M ..l | |  ._ _ / _ _ ( ( ' ^ R R R I I I K J # # $ $ $ 6 8 8 0 8 9 9 t t t z ) |  ._ { 3.[ t.9.q.D ZXB B K.*.2X<X",
"O.O.{ _ _ { _ _ { _ _ O.@.+.-.:.uX9XeXjXzXLXLXgXDXDXDXDXDX*X+XDX+XDX*X*X%X'.'.'.`._.}.[.[._.[.E.R.E.!.W.!.Q.0X3X3X3X3X1X3X3X3X1X1X3X3XU.U.U.3X3X0XqXqXeXeXyXyXmXmXvXAXCX-XCXP.$.&.&.B &.1XB 1X&.B B &.&.&.&.&.&.B &.B 1X&.1XB 1XB 1X&.B B &.1XB B N.k.c.Z.c.A.A.A.T.A.G.T.C.J.D.c F.v v v N m M M l l ..|  . .) _ _ _ _ ( ( ] { ' ^ ! ' R T U U - 7 8 0 8 9 s 9 s s j j z z | |  ._ @.] } 1.9.9.q.H =.B P.<X$.<X",
" .O.@._ @._ { _ _ 3.3.3.3.5.,.pXpXsXmXMXhXPXPXKXJXJXJX@XJXJXJX@X@X@Xg.@X+X+X%X%X%X'.}.`._.[.{.E.[.E.{.{.!.!.0X0X0X0X0X0X3X3X0X3X3X0X3X3X0X0X0X0X0XeXeXeXyXyXmXmXsXvX,XSX>XpX1XB &.P.&.&.&.&.B &.1X&.1XB &.&.P.&.1X&.&.&.B &.&.&.B &.&.B 1X&.&.&.B N.z.n.n.b._._.A.A.A.A.A.G.G.D.D.D.F.v v v N m M M M l ..X.X.X. .@._ O.O.3.{ { ] { ] { { ( ) / t t 9 s 9 s a a s s j h h z |  . .O.3.3.4.1.t.9.H D fX&.B K.&.B ",
"X.X.@.@.@.@.O.@.3.@.3.5.5.5.pXpXsXmXMXIXHXKXHXFXDXDXLX*X*X&XDX*XPXPX+X=Xh.h.=X=X#XOX#X).).}.).)._.[.{.{.!.!.wXwXwXwX0X0X0X0X3X3X0X0X0X0X0X0X0XeXeXeXeXeXyXkXmXcXvXAXCX>XBXn 5XB &.&.&.B 1X&.&.B 1X&.1X&.&.&.B 1X&.&.1X&.1XB B &.1X&.&.1X1X&.B B B Y.^.XXXX(./.(./._.Z.A.A.T.G.G.D.D.v F.v v N N M M M $.$.%.X.%.%.+.@.+.+.@.@.3.4.3.3.3.@.O.| y t j s f a s d f s b j h h k l ..X.O.@.3.4.[ t.9.q.G r.#.M L.P.&.",
"X.+.+.O.@.@.@.3.3.;.5.5.5.6.aXdXdXAXnXHXHXIXgXjX&.*.1X1X$.&.1X1X&.&.N Q.|.*XOXOX=X=XOXOX#X'.).'.}.}.[.[.{.{.{.{.!.wXwXwXqXwX0XwX0X0X0X0X0X0X0XeXeXeXeXyXyXsXsXcXnXAXCX:XpX=.F.2X&.&.&.&.1XB 1X&.B &.B B &.&.B &.B 1XB &.&.&.1X&.&.B &.B B &.1X&.P.-.P.`.OXOXOXn./.^._.A.A.A.C.C.G.D.F.F.v v N N N N B B $.$.$.%.%.-.-.;.;.;.5.5.5.5.5.3.5.-.*.$.x f f d f d f d a f f b x m l ..X.@.3.3.3.4.y.t.9.H G >.<XB P.1X",
"%.+.+.+.+.;.;.;.5.5.5.6.aXaXiXiXAX,X:XGXkXU.n L.&.&.1XB B 1X&.1XP.K.<X<XB m ~.zXOXOX=XOX=X$X).%X'.'.'.}.}.{.{.{.jX!.{.wXwXwXwXwX!.wXwXwXwXeX0XeX0XeXyXkXkXmXmXmXAXCXUXZXN K.$.P.&.&.&.&.&.&.B B &.&.1X&.B &.1X&.&.&.B &.B 1X1XB 1X&.&.1XB 1X&.&.&.&.$.3X XOXoXOXOXn.^.`.A.A.A.A.C.G.D.D.F.F.N N N B P.B &.1X*.2X*.2X:.>.7XpXpX5.pXpXpXpX7X7X2XU.F.G.C.V.V.d V.f f f c x x m M M %.+.@.3.3.1.y.y.9.H S fX3XP.#.P.",
"%.-.-.;.+.;.5.5.5.5.pXaXaXZXiXAXCX>X,X1XM K.3XB B B &.1X&.1XB B K.*.&.$.2XK.P.U.~.].%Xh.h.=X$X#X%X%X%X'.}.}.{.|.{.{.{.jX!.jXwX!.wXwXwX0XwXwX0XeXeXeXeXyXyXsXmXvXAXCX-X6X*.K.1X&.&.P.&.&.B 1X1X&.1X&.B &.1X&.1XB B &.1X1XB &.&.&.B &.&.B &.&.&.1XK.K.B N *.Y.OXXXOX(.(.^.^.^.A.A.A.C.G.G.G.H.F.L.L.L.P.P.1X1X1X1X4X6X9X9X9X9XpXsXaXpXsXdXsXtXeX!.R.T.C.V.C.C.f d C.f c c x x M $.$.-.+.3.4.7.1.t.9.r.G r.N <X*.1X",
"$.*.,.,.-.>.5.5.pX5.dXaXiXAXNXCX>X,X2XV C *.2XC &.B B &.1X&.1XB 1X&.B B 1X&.&.1X1Xn K.gX+XoXh.=X@X$X+X%X'.%X}.|.{.{.jX{.{.{.wXeXjXwXwXwXQ.wX0XwXqXqXeXtXyXsXdXvXAXSXZX$.P.<XL.#.B 1X&.B &.B B &.P.B B 1XB B <X&.P.P.P.1X*.$.B 1XP.1XI.P.:.*.L.P.#.&.B &.$.K.W.{.XXh.z.n.(.^.^.A.A.C.T.G.G.F.L.L.I.L.U.P.3X3X4X4X8X8XrXtXsXtXsXsXsXmXmXmXmXmXjX{.[./.B.Z.V.C.V.C.C.f C.c c v M M %.-.-.3.5.4.4.y.9.w.H D :.K.<X&.",
"*.:.:.:.>.7XpXpXpXfXaXfXZXAXCX-XCX9XB K.1XB V 3X&.<X&.1XB &.&.&.B &.1X&.1XB &.B n 1X1XV <XjX+XoXh.h.OX#X%X|.|.%X%X].].|.jX{.{.{.!.!.Q.wXQ.0XqXqXqX8XtXtXtXsXdXZXSXSX2.*.B P.1X&.&.&.&.1X1X&.1X1X1XB 1X1X1XB &.B #.&.#.&.P.U.1X$.<X$.P.P.#.#.P.1X*.B P.&.*.P.Y.W.{.oXd.(.z.^.Z.A.A.A.A.C.G.G.H.I.I.I.U.3X3X0XqXqXrXrXtXyXyXsXmXmXnXcXdXbXIXzXPX*X}._._.b.Z.c.B.V.C.C.C.D.D.F.B B $.*.-.;.3.6.4.1.w.i.G G ZXB #.&.",
"*.:.7X,.7X7XpXaXaXdXiXZXAXCXUX:XsX$.B K.<X*.V 1X&.&.B B B 1X&.1XB &.B 1X&.&.B 1X:.&.N B &.#.0X!.+X=Xh.h.=X$X%X%X'.].}.].{.{.{.{.!.!.Q.Q.0X0X3X4X4X8X8X9XpXpXaXaXBXBX7X#.P.Y.&.<X&.P.&.&.B &.&.B *.B M &.1X&.1X1X<X1X<XN L.I.P.B 1X*.&.P.P.P.P.*.P.B P.&.*.#.n V I.<XXXd.(.z.^.^.Z.A.A.T.A.R.R.H.Q.U.Q.0X0X0XqXeXyXeXkXkXmXkXMXmXcXnXGXnXIXDXJX+X$X#X(.^.b.^.Z.B.Z.C.C.C.D.F.L.P.1X*.:.>.5.5.4.2.y.y.9.G H P.*.*.",
"1X2X6X7X7XpXpXaXdXfXAXAXAXCX>XAX$.<X1XB K.1X&.n B 1X1X&.&.&.&.B 1X&.&.&.B 1X&.&.B P.1X1XY.Y.$.*.U.I.&X=Xf.h.@XOX%X].|.].|.[.{.!.!.W.W.U.U.U.1X2X*.2X6X>.7X5.6.u.r.w.tXM Y.*.B 1X&.&.B 1X&.&.1XB B B 1X1XB &.P.V $.&.P.V $.$.*.1X1X$.&.P.P.1X&.&.*.P.P.P.1X1X$.*...n C.d.XXz.b.^.`._.A.A.T.T.R.R.W.Q.0XwXeXeXeXkXkXkXxXbXbXMXMXIXnX,XHXKXKXKXDX@X=Xh.XX`.^.b.Z.B.Z.Z.A.C.G.H.L.P.1X2X:.:.5.5.7.6.4.e.w.r.D pXN 1X",
"1X6X6X9XpXpXsXdXdXvXAXAXCX>XCX:.<X&.B 1X1XB &.<XB 1X&.1X&.&.&.&.&.&.1X&.1XB B &.Y.Y.1X$.&.1X1XB <X&.$.P.PX=XoX=X+X$X%X}.}.[.[.R.R.H.I.P.P.B $.$.%.%.-.;.+.5.4.y.e.0.aXL.1X*.B P.&.&.&.&.&.&.&.&.<X1X1XP.V 1X2X1X3X$./ U P U ) *.N P.P.&.1X1X1XB *.&.B P.P.&.&.1X*.=.P.B.d.d.z.n.^.Z.A.A.T.E.R.!.!.Q.!.wXeXeXkXjXkXkXMXMXbXbXGXGXHXKX:X:XFXlXjXjX].d.OXXXz.^.b.S.Z.Z.A.C.C.H.I.L.1X2X*.>.7X5.6.6.y.u.w.q.G e.L.2X",
"4X2XtX9XsXsXdXdXiXAXCXCX>X:X2X$.<X1XV <X1XN <X<X&.&.B B &.P.&.&.B 1XB &.&.&.1X&.*.n B P.1XB B <XP.<X1X#.:.*.PXh.d.OXOX)./.[.T.T.H.F.F.N m M M $.%.X.+.+.@.3.4.4.y.q.t.U.*.P.*.B &.&.P.&.&.&.B 1XP.P.n &.1X*.$.u % @ $ & J L I } 6XK.P.$.*.B 1XP.B &.1XP.P.P.B &.P.<X..*.z.d.z.z.b.^.^.A.A.[.!.W.!.!.jXjXjXkXzXkXxXbXbXzXbXGXHXUX;X:XHX].5X$.I.P.~.0Xz.d.z.z.z.c.Z.Z.A.A.T.T.H.I.3X3X2X6X7X5.6.6.2.y.e.w.H q.6X#.",
"qX4X8XsXsXsXdXvXnXCXCX>X:XfXm 1XB <X&.B &.1X1X&.&.1X1X&.B &.&.&.&.&.B &.B 1X1XB P.&.*.*.&.P.1XB #.<XM P.U.F.K.%.#XOXoXM.^.A.A.C.c c x m k k z .. . .o.O.@.3.3.} [ 9.0.7.$.P.5XP.&.&.&.&.&.&.&.B <XP.1X2X%.u * @ @ # # % = L I Q 6.&.P.*.&.P.P.1XB &.P.1XP.B P.&.L.*.1XM -.XXz.z.n.b.^._.[.[.E.[.{.{.jXjXkXzXxXzXhXhXIXGXHXHXHX;XUXgXI.&.P.n =.P.$.*.<Xd.XXz.z.n.B.^.B.A.A.T.R.W.Q.3X4X8X6XpXpX6.2.2.u.i.q.G ZXM ",
"qXrXsXsXcXsXvXvXCXAX-X>XZX%.1XY.P.B 1X*.&.<XB B &.B B &.1X1XB &.B &.1X1XB &.&.&.*.L.L.Y.P.<X&.<X1XB <X&.C 4XM 1X:.[.z.m.c.C.f g f b b j h z l | | )  ._ _ { { } } 0.F ! L.*.P.$.&.&.&.&.&.P.&.1XB &.<Xz * . @ @ $ - T U ^ ^ ! 0.t.=.Y.&.*.L.1X$.K.<X*.&.$.1X*.#.B U.#.n Y.Y.d.a.n.M././._.[.[.[.{.jXjXxXlXzXhXhXIXIXIXHX:X;XKXHXP.*.n Y.B 1XP.B *.<XL.C.d.a.z.z.b.^.B._.A.E.R.W.Q.0X4X8X7X7XpXaXaX2.u.e.w.G r.B ",
"qXyXyXsXdXMXvXAXCXUX>XCX*.P.B *.&.&.&.&.B 1XB 1X&.&.&.&.&.&.B 1X1X&.B B 1X&.1XB B 1XB &.B &.&.&.&.&.B 1X1XB &.1XP.*.c.k.k.p p f s j j t j j y ) z ) ) _ _ _ { ] } t.Q Q ! K.I.*.1XP.&.1XP.<X*.P.*.o.Z @ . @ & * - = = / ( ' [ t.S ZXP.&.$.K.B 1X1XB B 1X&.&.B 1XB *.P.n *.n N.d.z.z./.`.`.[. X{.{.jXgXgXhXhXPXbXIXHX;X;X:XHXeXP.P.&.&.B <X1X&.B <XP.&.$.b.d.z.z.n.b.^./.Z.T.!.[.Q.Q.qXqXtX7XpXpX6.6.u.e.e.r.F <.",
"eXyXsXvXMXvXvXCXUXUX:X7X4Xm 3XP.&.&.P.&.&.&.&.&.B 1X&.&.&.&.B &.B &.1X&.&.B &.&.&.&.&.1X1X1XB B &.&.B &.&.&.&.B B P.V.j.< 3 i a s s j j y y y y )  ._ _ O._ { { } } t.W W [ =.P.&.#.L.N %.#.I.2Xu $   @ & $ * - - r / ( ( } [ 9.q.i.L.*.1X1XB K.1X&.&.1XB 1XB &.1X1X1XY.1X$.g M.f.XXz.(.`.}.{.}.lX|.kXhXPXhXIXHXKXKX>X:XgX3XN 1X&.&.&.&.&.B &.1X<X1X*.L.N z.d.l.n.M.^.`._.[.E.[.!.Q.wXqXrXtX9XpXfXpXZXi.u.q.G i.",
"yXkXcXNXMXMXCXCX-X>X,.=.B 1XK.L.&.&.1XB &.&.&.B &.B &.P.1XB 1X&.B 1X&.&.&.&.&.&.&.1X&.B &.B &.1X1X&.&.&.1XB B 1X&.P.p > , 2 i a 9 9 9 t t y y y y ) ) ) _ _ { { } [ } t.Q W ] &.1XP.1X*.&.3XV $ O O O $ * - = e r r / _ ( ] t.t.r.9.<X*.<X*.&.#.B 1XB B B 1X1X&.P.*.1XL.1X*.B R.z.d.n.(.).}.'.|.lXlXLXPXIXIXGX;X:X:XPXU.X.V 4XN &.&.&.&.&.1XB 1X$.1X&.&.B Y.a.d.z.z.(.^.`.)._.[.{.{.wXwXeXyXtXsXpXaXaXu.u.e.q.0.",
"jXkXcXcXnXCXCX:X>XNX*.&.&.<XP.K.&.&.&.&.B 1X1XB &.1X&.&.&.&.1XB &.1XB &.1XB 1XB &.B 1XB &.1X&.B B &.B 1X&.&.&.&.B 1X3 > , 1 8 0 9 9 t t t z y ) ) | _ _ _ _ 3.{ ] } [ [ 0.W 0.' $.%.&.N M w @ + @ $ * * 7 e e e r / ) ) _ { [ y.q.F fX*.K.B B <X&.&.&.&.&.&.&.B K.$.&.P.P.1X*.&.N.z.oXXX`.#X%X].&XlXIXIXFXKX;X>XKXwX*.K.Q.N P.*.P.&.&.&.B B &.&.B <XB $.*.n Z.f.d.z.n.M.(.`.[.[.{.{.{.jXeXyXyXsXsXdXaX2.u.u.9.W ",
"kXcXMXMXCXCXCX>X:X-.P.B 1Xn 2X1XB B 1X&.B 1X&.&.&.&.&.&.&.&.B &.&.&.&.&.&.B B &.&.B &.&.1XB &.1X&.&.B 1X&.B B &.B P., ; : 8 i 0 9 9 t t t y y y y ) _ _ _ _ { _ { ] [ [ ] ! W W } w r ~ $ O $ $ * $ 7 e e 9 t y y ) _ _ @.{ 1.t.w.F BX1X1X&.Y.1XB &.&.1X&.&.&.&.P.B *.B n <X2XM K.^.f.oX$X%X*XLXLXPXFXKX;X>XHXLXP.K.P.P.<X<X*.~.&.P.&.&.&.B &.&.P.1X*.P.<XB M M.f.XXM.XX`./.}.'.}.{.{.jXjXyXyXyXsXpXfXfXu.y.y.R ",
"xXmXMXnXAX:X>XUXuX#.B 1Xn 5XM *.1X&.B &.&.1XB 1X&.&.&.P.B 1XB 1XP.&.&.&.&.&.1X1X&.1XB 1X&.&.&.&.1X&.&.1X&.1X1X&.1XC.; ; : 1 1 9 9 9 j t j y y | | )  .O.O.@.@.3.3.7.1.1.[ [ t.R E I % $ @ $ $ 6 6 0 0 9 9 e t y y ) ) O._ 4.[ y.w.H r.&.&.1XP.&.1X1XB B 1XB B 1XP.1X&.*.<XK.1XP.<XI./.oXh.OX+X+XFXJXJX:X:XFX0XN n 1XP.B $.K.Y.*.&.&.&.&.&.1XB 1XP.B P.#.K.$.B U.z.oXXXM.$X(.'.).}.|.|.jXjXjXkXyXtXdXmXfXfX2.i.{ ",
"jXMX,XnXUX>X-X9Xm B <X&.1X<XN &.1XB 1X&.&.B &.&.&.&.&.&.&.&.&.&.B &.&.B 1XB &.B 1XB &.&.1XB &.1XB 1XB B B B 1X&.1X2 + , : 8 8 0 9 9 t t j y z ) |  .O.O.+.+.;.3.3.3.3.4.4.t.[ ] ' T = - 7 6 0 0 0 0 9 9 t j y y | | O.@.3.3.1.1.y.r.q.5.&.K.P.*.&.B 1X&.B &.&.&.P.<Xn *.1Xn 1XB B $.3X'.OXOX@XJXJXKXHXFXwX$.B *.B K.<.<XI.2X%.P.&.&.&.&.&.&.&.&.<X*.L.K.*.L.<X#.~.z.d.OX$XXX).'.'.}.|.lXjXjXjXkXyXsXyXpXaX6.2.) ",
"zXnXAXUX:XCXAXn P.1X$.5X<XN 1X<X&.&.1XB &.&.&.&.&.P.&.B 1XB 1X&.1X&.&.1X&.&.1XB &.&.1XB &.&.B B &.&.&.&.1X&.&.B 1X; o : 2 8 i 8 9 t t j t z l | |  .O.@.+.;.3.5.7.4.4.5.6.4.4.3._ y t 9 8 8 0 8 a 9 9 s t t j l |  .O.O.@.4.1.1.y.G q.u.1XK.*.#.&.&.B &.1X&.B 1X$.<XK.1X&.n &.&.*.#.~.Y.{.DX+X@XDXDXjX1XV P.1XP.1X&.P.B *.N V <X&.&.&.&.P.B 1X&.1XP.=.L.L.*.1X5X#.~.d.f.XX$X$X#X'.'.].|.|.lXkXjXkXyXyXpXpX5.7.3.",
"hXnXCXCX>XCX$.P.B &.&.1X&.&.&.&.B B &.&.1XB &.B &.&.&.&.&.&.&.&.&.&.&.1X&.B &.&.1X&.1XB B 1X&.&.*.P.P.1XB 1X*.*.2 ; ; : 1 i 8 9 s s t j z z z l ..X.%.+.;.;.5.5.5.6.5.6.6.6.6.5.+...b d s s a a s s s s j h k z l o.+.@.3.4.4.1.y.e.G BXN #.2XB B 1X&.&.&.&.&.B &.1X&.&.1XB &.&.&.&.&.&.&.&.1X&.&.&.1X&.&.1X&.&.&.1X1XB &.&.&.&.&.1X&.B &.B &.B &.&.&.&.&.&.&.P.n $.H.OXd.f.OXOX$X%X}.&XlX|.lXjXjXkXtXtX9X7X;.O.",
"bXnXUX>XUX#.6XL.1X1XB B &.&.P.B &.1X1X&.&.&.&.1XP.&.P.&.&.&.1XB &.&.&.B &.1XB &.B &.&.&.&.1XB 1XP.B B 1Xn P.1XF.o ; : 1 1 a 8 9 t j j j z l ....%.X.-.;.;.5.5.5.6.5.aXaXZXaXpXpX8X5Xv b f d d d f s f b b x k l ....+.+.3.3.4.2.y.r.r.r.*.M 1X&.1XB &.P.&.&.&.1XB &.B &.&.&.P.&.&.&.B &.B &.B &.1X&.B B B B &.&.B B &.&.&.&.&.&.&.B &.1X1XB &.1XB 1X&.&.&.&.&.&.*.Y.<X*.#Xh.h.=X%X%X%X%X%X|.jXlXjXkXyXtX9X7X-.X.",
"bXUX>X>X6X$.B P.&.B 1X&.&.&.&.1X&.&.B &.B &.B 1X&.&.&.&.&.1X&.B &.&.&.B B B 1X1XB 1X&.1X&.B &.B P.&.&.*.B B 1XN.o ; 1 1 1 a 9 s s j h k k l $.$.%.-.:.,.5.pXpXpXpXaXdXaXaXsXiXcXjXQ.I.S.c.V.f d d f f f f x x l M %.-.+.;.5.4.1.y.9.r.F fXn B &.B &.1X&.B &.B 1XB 1X&.1X1X&.&.&.1XB 1X&.B 1X&.1XB &.1X&.1X&.&.&.1X&.&.&.P.&.P.&.B &.B 1X1X&.B &.&.1XB P.B &.&.&.*.2XN N 2X|.OXd.h.=X$X+X|.%X%XxXjXjXeXrX8X*.*.X.",
"IX:X>X7.B 4Xn 1X&.1XB &.&.&.&.&.&.B 1X&.1X&.&.&.&.&.&.&.B B &.1X&.P.&.1X1X&.&.B &.&.&.B 1XB &.1XL.*.B 1XP.B 1X< o : 2 1 8 a s s j j j k M M $.$.*.:.>.7XpXpXpXpXdXdXaXiXiXvXbXcXgX|.}.^.b.N.V.Z.V.C.C.f f v N N $.$.-.-.5.3.7.2.2.9.r.G ZX1XN &.&.&.B &.1X1XB &.&.1XB B B &.1XB &.&.1XB &.1XB B 1X&.B &.1XB &.&.1XB &.&.&.&.&.&.&.1XB &.B &.1X&.&.&.&.&.1X&.&.&.n L.*.4XP.M ~.+Xh.oX=X+X%X%X|.|.{.jXwX0X3X1X$.l ",
"KXUXvX#.&.L.<X1XB 1XB &.1XB &.B P.&.&.&.&.&.&.B &.&.P.&.1X&.1XB &.1XB &.&.1X1XB &.B 1X&.B &.&.&.n *.1XP.P.1XB ; o , , 1 a a s s b h x m M $.&.*.2X6X9X9XpXpXsXdXiXdXiXvXAXnXGXHXFX@X=X/.B.b.c.V.V.V.C.C.D.F.N B B $.*.:.;.5.3.4.2.y.w.H r.B P.1X&.&.&.P.&.1XB &.&.&.&.&.&.&.&.&.B 1XB &.&.&.1X&.B &.1XB &.&.&.P.&.1XB &.B &.&.&.1XB 1XB &.&.B 1X1X&.B 1X&.&.B 1XU.*.B V U.K.U.$.Q.OXh.h.OX$X'.}.[.{.Q.U.P.L.m M ",
"KXbX*.4XP.K.$.<X&.&.1X&.&.&.&.1X&.&.&.&.B &.1XB &.&.&.&.&.B &.&.&.B &.&.B B &.&.&.1XB &.1X&.B 1XB 1X&.L.P.&.g o ; , , i a a f f b x v N N 1X*.2X6X7X9X9XsXpXiXsXvXvXnXAXnXHX:XHXLXLXOXXXz.^.b.Z.c.V.C.C.C.F.v N B &.*.:.-.5.5.6.u.y.w.r.q.<.1XP.&.&.&.&.B &.1X&.&.&.B 1X1XB 1X&.B &.1X&.B 1XB &.&.&.&.&.&.&.&.&.B &.1X&.1X&.1XB &.&.&.&.&.P.&.1XB &.&.&.B 1XB &.*.P.P.&.*.C Y.*.n 6X XOXd.OX$X_.[.E.W.H.L.N m m ",
"hX&.C $.U.*.1XB &.B B &.&.B 1XB &.&.&.&.1X1X&.&.&.&.1XB B 1X&.1X&.1X1XB 1X&.B &.B B 1X1XB 1XB &.1XP.$.I.&.&.v.; > < 3 d d d f c c v v N 1X1X4X8X8X8XsXsXsXmXcXvXvXAXCXUX:X:X,XP.P.1XR.z.d.z.b.c.c.Z.Z.C.C.G.F.L.P.&.*.,.>.5.5.6.6.u.w.r.G 2.1XP.&.&.&.&.&.B B &.&.&.&.B B &.1XB 1X&.&.&.&.B &.1X&.&.P.&.&.&.&.B &.B B &.&.&.B 1X&.&.&.&.&.&.&.B &.&.B &.&.B 1X&.n 1X*.P.B 3X*.Y.#.B *.3X).XXXX`._.A.G.F.v x m m ",
"N &.2X~.V &.*.K.&.1X&.&.1XB &.&.&.&.&.P.&.B B 1XB &.&.&.&.&.&.B &.B &.&.1XB 1X&.1X&.&.B &.&.&.&.B P.$.P.%.M j.> > 4 2 3 d f f c v F.L.P.1X4X4XrXtXyXsXsXcXdXMXvXnXnXUX>XHXzX1X&.*.B %.U.M.f.z.z.c.B.Z.Z.C.C.H.F.L.P.2X:.:.5.5.6.u.y.i.r.F ZX&.*.1XB B 1X&.1X&.&.&.P.&.1X&.&.&.B &.B 1XB &.1X&.B &.&.&.&.P.&.&.1X&.1X&.&.B 1X&.B 1XB 1XB &.&.&.&.&.P.1X&.&.1X&.B Y.n n B 1XM B 1X%.P.L.$.Y.(.z.^.A.C.C.c b x h k ",
"1X&.B &.&.&.B 1X1XB &.&.&.&.1X&.&.1X&.1X&.&.&.&.1X&.B &.&.B &.&.&.B 1X1X&.B B &.&.&.1X&.&.1X1XB 1X&.L.*.V <Xj.> < v.4 V.d f f F.F.F.Y.3X3XqXrXrXtXsXsXNXcXMXMXAXnXUX:XUX~.N 4Xn <X*.L.B 6XXXd.z.b.c.b.B.J.A.A.H.U.P.1X2X6X5.5.5.6.u.e.e.H p.U.C &.B B &.1X&.&.1X1X&.&.B 1X1X1X&.K.P.1X1X&.#.$.B &.P.P.P.P.$.2X1XP.&.B P.B P.B P.1X&.1X&.B &.&.1X&.&.B 1X&.&.B 1X&.&.&.&.&.&.B 1X#.n P.L.:.V.n.k.N.d f c x b j k ",
"&.&.1X&.B 1XB &.&.&.&.P.&.&.B &.B &.B B B &.&.&.1XB 1X&.&.1XB 1X1XB &.B &.&.1X&.1X&.B &.B B &.&.&.<XP.*.#.1Xj.j.> k.v.3 V.V.C.G.H.I.U.0XqXeXeXyXkXcXmXmXbXnXGXUX:X:XUXn 4X<XN 1X&.P.P.P.$.S.l.a.b.b.B.^.C.C.C.I.I.P.4X2X6X7XpX6.6.u.u.p.H 9.*.B &.1X&.1XB &.&.B &.1XB 1XB P.1XV *.1X$.u % % % J P & -...=.3XL.n *.Y.P.1X5X$.*.#.B &.B &.1X1XB B &.&.&.1XB 1XB &.&.P.&.&.1XB &.1XK.&.B P.<XY.c.> 3 d f s s h j k ",
"1X&.&.&.&.B 1X&.B &.B 1X&.B 1X1X&.&.1X&.1X&.P.&.&.&.B B &.&.&.&.1X&.B &.1X&.1X&.B &.1XB &.1XB 1XB 1XP.1Xn N < s.j.v.x.x.V.C.G.G.W.W.Q.wXeXeXkXmXyXcXbXMXnX,XUXUX:XUX$.1XM <XK.&.P.#.P.1X#.$.c.d.l.c.c.B.Z.A.T.R.I.U.3X4X8X7XpX5.pX2.u.i.r.F 6.P.&.&.B B P.&.&.1X1XB 1X1XP.B B 2XU.l Z @ X X # J A I I % P.Y.<X&.<X*.*.<XP.N 1X1X&.&.&.B &.B &.&.&.&.B B 1X&.&.&.&.&.&.&.&.&.B B L.*.&.*.N B : > 3 a a s s j j k ",
"B &.1XB 1X&.1XB 1X&.&.&.&.&.&.B B 1XB &.1XB &.&.B 1X1X&.P.B 1X&.B &.1X&.B &.B &.P.&.&.&.&.B &.1XB 1X&.#.#.v v.s.j.v.c.c.Z.A.T.T.W.!.wXwXeXkXkXzXcXMXnX,X,XUXUX:XUX$.<X&.<X1Xn <X1XK.B *.*.P.P.z.d.z.c.b.Z.A.T.R.W.I.3X4X6X9XpXpXaX6.u.e.r.G BXL.B 1X1X&.&.&.&.B 1XV 1XB B 1X*.N u $ . @ & % % % P J A D K % 2XB P.K.n P.&.2Xn L.1X&.1XB &.1XB 1X&.&.1X&.B &.B 1XB 1X&.B B 1X1X&.P.*.<XP.1Xg : , 8 a s 9 j j j z ",
"B &.&.&.B 1XB &.B &.1X&.&.&.&.P.&.B &.&.B &.&.B &.1X1XB &.&.&.&.&.&.&.&.&.&.1X&.&.&.&.&.&.&.&.B B 1X&.<X<XP.V.l.s.j.c.Z.Z.A.E.E.E.!.wXjXjXkXzXmXbXnX,X,XUX:X:XHX2X<XB <XB V 1X&.*.I.*.$.P.&.$.N.d.l.m.c.^.A.A.A.W.W.3X4X8X9X9XpX5.6.u.u.i.r.r.P.B &.&.1X&.&.&.&.B 1X&.P.1XB $.5   O @ - * = T T T Y L L A D K P =.#.2XV #.*.M 3XB 1XB &.&.&.1X&.B &.&.1X&.1XB &.&.1XB 1X1XB B 1X1X$.L.<X3X2 : : i 8 s 9 s j j z ",
"1X&.&.&.&.&.&.&.&.1XB &.&.&.&.&.&.1X1X&.1X&.&.1XB B &.&.&.&.&.&.&.P.&.&.1X&.B B &.&.&.&.&.&.&.&.1X&.&.P.#.1X~.k.s.k.c.Z.A.A.T.!.{.{.jXjXkXkXcXbXbX,XUXHX>X:X,XrXN K.1XB #.B *.n $.P.<X#.L.*.Y.N l.a.z.b.B.Z.A.A.E.W.Q.4X8X8X9XpXaXaX2.ZXe.r.H *.1X1XB B &.&.&.&.1X&.B 2XB 1XO O @ $ 6 * - - = r U U Y L I I A D K & 3X<X*.B 3XV &.&.B &.&.B B &.1X1XB B &.&.P.&.&.B &.&.&.&.&.&.1XC P.1Xf : ; 1 8 9 t t j j j z ",
"&.B &.&.&.B 1XB &.B 1XB &.&.&.&.&.&.B &.B &.&.B 1X&.B 1X&.&.&.P.&.&.&.&.B &.1X&.B &.B 1XP.&.&.&.1XP.*.P.#.P.N k.l.z.c.^.`.A._.[.{.jXjXkXkXzXbXbXIXAXHX:X:XbX3Xm 3XM B 1XB 1XB B P.*.1X1XP.&.<X1XV.l.a.z.c.B.A.E.E.R.Q.3XqX8X9X7XaXpXaXZXi.r.0.6.&.B 1X&.&.&.P.&.&.1Xn V 1XO O O $ * * * q u r w ~ ^ Y R Y I J K K S A & P.K.#.6X1XB 1X&.&.1X&.&.&.B 1X&.&.&.&.&.1X&.B &.B 1XB &.P.P.2XN 1 + ; 6 8 9 t s t j j z ",
"&.1XP.&.&.1X&.&.1XB &.&.1XB &.&.&.&.P.&.1X&.&.1X&.B &.&.&.&.&.&.B 1X&.B 1X&.B &.1X1XB &.&.&.&.&.&.n 1XP.#.<X*.4 a.l.z.b.^.`.[.[.{.{.jXzXzXbXIXGXHXUX:X:XyXB N 3XB 1X1X<X<XB &.K.3XP.$.P.1X<X%.K.n z.a.k.b.^.A.A.T.!.Q.qXqX8XtX7XpXpXfX6.u.r.q.ZX1X&.B &.&.&.&.&.1XV 1X*.O   O $ 6 7 7 t e e r / / / / ~ ^ Y R L K K S W I ~ 1XN &.&.1XB &.B 1XB &.1XB &.&.&.&.&.B &.1X1XB &.1X&.I.$.*.f O : 1 0 0 9 9 t j j h l ",
"B B 1X&.&.&.1X&.B 1X&.B &.B &.&.*.P.-.P.1Xv $.B y q / *.&.B P.<XP.$.P.1X*.B P.*.1X&.B B 1X&.&.1XB &.1XB &.B 1X&.l.l.z.b.(.)._. X{.|.lXzXbXIXHXGX:X:X:XU.1X1XB <XB 1X&.&.&.&.B 1XB &.&.B &.&.&.&.K.p l.z.k.^.Z.E.E.E.!.0XqX4XtX9XpXpXaX6.2.i.r.q.V *.P.L.*.1XI.#.$.1Xk O + O * 1 7 7 t t e t y r ) ) / ( ( ( ' Y R R I I D D R #.J.,.<X#.1XB P.n 1X&.B B 1X&.&.1XP.P.$.1X&.B 1XB <XL.1X: + : 0 0 9 t t t h z z k ",
"1X&.1XB B 1XB &.B &.1XB &.1XB 1XI.$.L.1XV ~ L . # J K J = n 3XB *.I.1X$.B U.P.B B &.1X&.1XB &.B &.&.&.&.1XB &.B 3 d.l.M.(._. X|.|.zXhXgXzXnXUXHX>XUXB 3XV B 2Xn 1XB &.&.&.&.B &.1X&.&.1XB 1X&.&.1XC.l.j.c.c.Z.A.E.E.Q.wX0XrXtXtXpXpXdXaXZXu.w.0.pX&.V *.P.P.&.&.$.Z   O O 1 6 8 9 9 s t t z y z ) ) ) _ _ ( ( ( ' ' R I I W I ! 2XV &.1XB 1X*.1XB &.1X&.1XB &.B B P.1X1XB B &.&.&.2X3 + ; : 8 8 9 9 j j t h l k ",
"&.B &.B &.&.&.&.1X1X&.&.&.&.&.&.L.*.U.v $ @ X # J J J A W K ~ #.P.1XB &.1XK.P.P.B &.B 1X&.&.B 1X&.1X1XB 1X&.B &.B z.a.z.(.).}.}.gX].PXIXHXIXHX>XGX$.<XV 1X1X&.1XB 1XB P.1XB 1X&.B &.&.1X&.P.&.&.<XI.k.s.k.c.Z.T.T.W.Q.Q.0XrXrX9XsXpXaXaX2.u.w.9.y.=.1X*.N P.*.N 0 O O 5 6 6 8 9 9 s s j h j l l | |  .) ) _ _ _ ] ( { } } W S D u.I.1XP.N P.$.K.&.&.&.&.&.&.B 1XB &.&.B 1X1XB *.<XL.: + : 8 6 9 9 t t j k z l l ",
"&.1X&.&.&.B 1XB &.B B 1X1XB 1X&.1X*.K.  O O & - - ~ P L K S I R =.B L.*.1XK.$.&.1X&.&.&.B 1X&.&.B B &.&.B &.1X1X<Xx.f.z.(.#X'.}.].PXPXIXHX:X:XGX8XV B uXB B &.1X&.&.&.&.&.&.1XB 1X&.B B &.&.&.&.#.5X> s.m.N.Z.S.T.E.!.0XeXqXrXtXtXpXpXpXaXu.u.y.0.7.K.L.1X2Xh 6 O O 5 6 0 a s s s s s h h k k l l ....X.X. .O._ _ { { } } ! 0.G S 8XB P.3XP.*.P.&.&.&.&.B 1X&.&.*.B P.B 1X1XB 1XI.:   : 1 8 8 9 j t h h k l M M ",
"1XB 1X&.B 1X&.1X1X&.B 1XB B 1X&.1X&.v.  O * 7 - - r U ( R I W S ! V *.L.&.K.1X$.&.&.1X&.1XB &.&.1X&.1XB &.&.&.B V B b.f.$Xn.#X&XPXLXPXHXHXUXGX1XV 4XV 4XN B 1Xn &.&.&.&.B B &.&.B 1X&.&.B 1X&.&.*.&.4 s.j.x.V.Z.E.R.Q.Q.0XqXrXrXtXpXpXpXaX6.u.y.t.R _ M | u * O : 6 8 8 s a a f s c c x m m N N B $.$.%.%.X.-.O.3.O.@.[ [ 4.[ 0.D y.<X$.<XB P.1X&.1XB P.1XB B &.1XB B P.P.&.n B p   + 1 1 8 9 j t j z z l l $.M ",
"&.&.B &.B &.&.B B &.&.&.&.&.1XB v 1X; ; : 7 e e r / ( ( ^ R I W W Q C L.P.*.P.P.B 1XB &.&.&.&.&.1XB &.&.B 1X&.B *.5XC.z.oXOX+X&XPXFXHX:X:XbX1X=.<XB 1Xm 1X*.C K.&.&.&.P.&.1X1X&.&.1XB 1X&.&.&.&.1XB x.s.k.x.Z.A.T.R.Q.wX0XqXrXrXtXtXsXpXpXpX6.2.[ t.R / - $ $ 6 6 0 i s a a f f f f c v v N P.B P.1X$.*.*.%.=.-.3.-.,.5.4.{ y.t.q.0.9X$.B 1XN B &.&.&.&.&.&.1X1X&.1XP.1X$.n <XY.: + : 1 6 9 9 s j j h k l l M B ",
"&.&.&.&.1X1X&.&.&.&.B &.&.1X&.B 1Xx.  ; 2 1 s t y r / ( ^ ' ! R W K W ~.:.%.L.K.&.&.B &.B 1X&.&.&.&.B B &.1XB 1X<X$.B _.z.=XOXDX+XKX:XHXgX~.n 2XB <XB <X1X<XB <X&.B &.&.&.&.B &.&.B &.&.&.&.&.&.&.B x.> v.x.V.A.G.W.W.0X0XeXrXrXtX9XpXsXpXpX5.5.3.] Y = * 7 9 0 a a a d f C.f f D.D.D.H.F.I.L.U.U.P.1X1X2X1X:.:.:.:.,.5.5.6.y.i.r.G ZXn P.<XK.1X1XB 1X&.B 1X&.B n 1XB 1X*.1XU.i   ; 1 1 0 9 s j h h k k M M $.$.",
"1XB 1XB &.B B 1XB 1X1X&.B B &.1XH.< ; 4 2 9 9 j y y / ( ( ( R ' I S S W $.I.*.<XB &.1X1XB &.&.&.B 1X1X&.&.&.&.&.L.1X#.~.gXOX=XDXKXKXLXU.$.2XP.L.&.&.1X&.P.B <XB &.1XB 1X&.B 1X&.&.&.&.&.&.P.&.&.n 1X< > > x.N.C.H.R.Q.0XqXeXuXrXtXtXtXpXpXpXpX5.3.;.X.y t 9 s a f a f C.C.d C.G.G.G.T.H.R.H.W.W.Q.U.3X3X4X4X4X4X6X7X5.5.5.6.2.u.e.H p.Y.1X#.#.1X&.&.B &.B &.1XB &.1XV 1X*.P.F.; ; : 1 0 a s s j h k m l $.M $.$.",
"B 1X&.B &.1X1XB &.&.&.B 1X1X&.B *.j.> < 4 s s 9 j y ) ) ( ( ' ' ! I W D I @.n *.~.P.*.&.P.B 1X&.B &.&.1X&.&.1X&.1X1X&.$.P.Q.jXlXkXU.B P.1X&.&.1X&.B &.&.1XB B &.B B 1X&.1X&.B B 1XM 1X<X&.&.&.&.B P.4 , < 3 D.C.H.W.Q.0X0XeXrXrXtXtXtXtXpXpX7XpX;.;.%.m x s f d f f C.C.C.C.A.A.T.T.R.E.!.!.W.!.Q.!.wXQ.0X0X5XqX8X8X9X9XpXaXaX2.p.H p.1XK.n *.P.B P.&.&.&.&.&.&.2XV P.P.v 3X:   : : 1 a s s s h h k m M $.$.$.&.",
"&.&.&.1XB B &.&.P.&.1XB &.B &.1XK.> o > 2 a a j j z | ) _ _ ( { ' ' ! W S K 8.N P.B L.*.1X#.&.P.1X1XB B P.&.B &.P.B 1X1XB K.Y.W.U.Y.V P.1X&.B <X&.1X&.B &.&.1X1X1X&.1XB B &.&.1X1X1XV 1X1XP.&.&.&.L.; > 3 p V.F.H.I.U.0XqXqXqXrXrXrXtXsXpXtXpXtX9X2XP.N v v C.C.C.C.A.T.T.A.T.A.E.E.E.[.[.!.{.!.!.{.jXwXwXwXeXeXrXtXtXpXsXaXfXZXBXH p.5XP.&.B P.&.&.&.&.&.&.&.&.$.3XB P.<Xp O ; : 2 8 a s s j b m m m M $.$.$.$.",
"&.1X&.&.1X&.B 1X&.&.&.&.1X&.&.B K.j.> < 4 a d b h z z ) ) _ _ { ' } R ! W D I ' $.*.P.P.#.K.P.1X&.B &.&.&.&.1XB 1X1XP.$.&.$.&.n K.B B 1X*.&.B B P.&.&.1XB &.&.B &.B &.&.B 1X&.1X&.1XB 1Xn 1X1XB 2Xp + , 4 g f G.L.I.U.0X0XqXrXrXtXtXtXtXtXtXpXpX9X8XU.I.H.G.A.T.A.A._.A._.E.E.[.[.[.[.[.[.{.{.{.{.jX{.jXjXjXjXjXjXyXyXyXsXsXaXZXZXVXr.1XL.1XB <X&.P.&.&.P.&.1X&.P.2XB P.L.: ; : 1 2 a s s j b x m m M M $.$.$.*.",
"&.B B 1X&.B &.&.&.&.&.&.B B &.1XY.j.o < 3 d a b j h z | |  ._ _ _ ' } } ' W D W ! V :.P.P.&.P.&.&.1X&.&.&.&.&.&.1XB &.n &.&.*.*.1X1X1X$.B 1XB P.&.&.&.B 1X&.1XB &.&.1XB &.1XB B B 1X1XB B 1XB 3XN : : 1 i f c F.U.U.0X0XqXrXqXrXtXyXyXtXsX9XtXtXrXrXwX!.{.E.T._._.`._._._.}.}.}.}.}.}. X}.[.|.|.|.{.|.{.jXjXjXjXjXkXkXkXsXsXiXiXZXVXVX5XB *.B <X&.&.&.&.&.&.B &.P.V <X6X3   ; 1 i i a s f f x x N M N M &.$.$.$.",
"&.&.&.&.1XB &.B &.1X1XB &.B &.&.L.> o k.3 p f f j h k l  . ._ _ _ { { } ! t.W S W W Y.P.P.B $.P.B B &.&.B &.&.&.$.&.P.<XP.1XB &.&.&.&.B B B 1X1X&.&.&.&.B &.&.&.1XB &.&.&.&.&.&.B 1XB n 2XP.L.K.:   1 1 s f M v P.U.3XqXqXrXrXrXtXyXtXtXsXyXkXsXjXkXlX|.}.}.'.'.].'. X}.'.}.%X}.}.|.}.*X&X|.|.|.|.|.lXlX|.lXjXlXlXkXkXkXkXmXiXdXZXVXp.#.1XB B P.&.&.&.B 1X&.B &.P.&.*.N   ; 1 1 i a s f f b x v N m N B $.$.$.&.",
"&.P.&.&.&.&.&.1XB B &.&.&.1X1X&.F.o s.> 3 p g f c h k l ..o. .O.O.{ { ] ' } t.I W W W V *.P.&.<X1X&.B 1X1X&.1XB &.&.&.P.K.K.P.B 1X&.B &.&.1X&.&.&.&.1XB 1X&.B 1X&.&.P.&.&.&.&.&.1X1XB 1XP.B qX5   : 6 s s b $.N 1X1X4X4X4XrXrXrXyXtXyXsXyXyXmXmXbXhXPX&X&X+X+XOX#X#X$X%X%X$X%X%X*X%X*X*X%X&X&X%X&XLX&X&XLXLX|.gXlXzXzXlXxXcXMXvXBXSXBX#.1XB B <X&.&.1XB &.B 1X&.P.1X*., : ; , i a a f g b x c v v N N $.&.&.$.$.",
"&.&.&.&.B &.B 1X1X&.B 1X&.&.B &.V.> > < 3 3 d f f x m M ....X.X.O.3.{ { { ] } t.! I W W n #.$.B &.&.&.&.&.B B 1X1X1X&.P.B P.<X1X*.P.&.1X1X&.&.B &.1X&.B B &.&.B 1X&.&.&.&.P.&.&.1XB 1X1XV P.m : + 8 0 a h x L.*.1X4X4X4XrXrXrXeXsXyXyXyXcXcXbXMXnXbXkXlXlX].&X%X$X=X@X@X@X@X@X@X+X+X@X+X+X@X+X+X+X+X*XDX&X&X&XLXLXLXLXgXzXhXbXnXCXSXZXB B K.P.1X&.1X&.&.1X&.&.&.*.I.v ; ; 1 2 a d a f f c c v v N N B B B $.$.$.",
"&.P.&.&.1X&.&.&.&.B &.1XB B 1X&.4 > j.v.3 V.V.f c c N N M $.%.+.@.+.O.{ { } ] } ! 0.Q S 0.#.L.B 1X&.B 1X1XB 1XB B P.&.&.1X*.&.B P.B P.P.1XB &.1XB B &.1X1X&.&.1XB &.1XB &.&.&.&.1XB 1XV 1XP.+ O 6 6 j j x m B 1X1X2X4XrX8XrXrXyXyXyXsXmXcXcXbXIXzX0XV B 1X$.B 3XlXlXLX+X+X+X=X=Xg.@Xg.g.@Xg.@X@XDX@X@X+X*XDXDX+XLXLXLXPXPXIXbXnX,XUX2.B B K.P.*.&.B B 1XB &.1XB 1X<X2 ; , 2 3 d d f f C.c v F.F.L.L.L.P.B &.&.$.",
"$.1X2XV 1X1XK.1XB 1XB &.<XB 1X$.x.> j.< v.x.V.C.c F.v N B $.*.%.-.+.+.3.3.3.{ 4.] [ 0.I S W 5X$.1X1X&.P.P.P.1X&.B &.B 1X&.&.B 1XB 1X&.&.B 1X&.1XB 1XB &.&.&.1X&.&.*.&.1XB &.&.&.1X1XB 3X1XO + 6 0 9 j x m B &.1X8X2XuXrXrXtXrXtXcXyXmXmXnXGXnXrX&.&.&.&.&.1XB 1X1X1X&.B 1X0XjXPXDXDXDXDX+X@X=Xg.=X@X@XJXg.JXg.g.@XJX@X+XDXFXJXKXGXcX1X&.&.&.B &.&.B &.B &.&.&.1XB 1X, > < p 3 f d C.D.D.D.D.F.F.L.L.L.P.B N B M ",
"Y.P.1X1XV P.&.*.1X&.&.1X1XP.P.B x.> > v.3 N.V.f C.D.F.L.P.P.$.*.:.-.;.;.3.3.3.3.] [ t.t.0.0.1.#.B B &.&.B 1X&.*.&.&.&.1XB 1XB &.&.1XB 1XB &.&.&.&.&.B &.B &.B &.&.&.&.B 1X&.&.&.B 1XB 1X  O O 8 0 j h m M &.2X2X2X6X8XtXrXtXyXyXsXmXcXnXGXcX5X3XB 1X1XB &.B &.1XP.B &.&.P.Y.Y.Y.1XP.V V K.Q.jXjX+XDX+XDX@X@X@X@X+X@X@XJXJXKXIXHXxXuXB B 1XK.<X<X&.1X&.1XB 1XB B B C., > 3 x.x.f V.C.C.G.D.G.F.H.F.L.L.P.P.B B B ",
"&.K.V 3X&.=.1XP.1X#.*.1XP.B B 1X< o j.v.x.V.V.C.C.G.F.I.L.P.1X2X*.:.:.;.;.3.3.3.3.y.1.t.t.q.Q 7XB P.1X&.1X&.&.&.1X&.B B 1X&.&.&.&.B &.B &.B &.B 1XB 1X&.B 1X&.1X1XB &.1X&.B &.1X1XV P.O + : 0 0 j h m N B 1X2X4XuX8XrX9XtXyXsXcXmXcX,X,XnX1XB B &.&.&.B &.&.B B n P.1X1X&.&.P.1XB B &.*.1X&.<X3X*.*.1X<XK.U.!.W.|.&XLXLXPXlXeXI.&.B B B <X<X&.&.&.1X&.&.1X&.1X&.*.g k.> x.x.Z.N.C.C.C.G.G.G.H.H.F.L.I.L.P.B B B ",
"&.2Xn B $.#.n ~.&.&.P.B B 1XP.P.k.> j.< x.N.V.A.A.G.H.I.I.U.3X3X2X2X6X:.>.>.5.5.3.4.7.1.t.9.q.fX1XB 1X1X&.&.B P.B &.1X&.B &.B 1X1XB &.1X&.1X&.1X&.&.1XB &.1XB B &.&.&.B &.1X&.1XB P.O O 6 0 j s b m N P.1X2X4X4XrXtXtXyXyXsXmXmXcXGXGXnX$.&.B 1XB 1X&.&.B 1X1X&.1X1X<XB &.1X*.$.P.n P.1X1XB V n P.B B B $.#.&.*.=.#.P.K.I.U.P.N &.&.1X<X1X&.&.B &.B B &.1XB B &.1XC m.l.c.B.Z.B.Z.A.A.G.T.G.R.H.H.H.I.L.L.B N B ",
"J = =.#.K.0X1X%.B B 1XP.&.*.B B < > < x.V.V.B.A.T.T.R.W.Q.Q.0XqX4X4X8X7X7X7X>.5.5.6.6.4.1.e.r.r.*.P.P.P.&.$.&.P.B &.&.1X&.1XB &.&.&.1X&.B &.&.1XB 1XB &.&.&.1X&.P.1XB &.&.1XB &.L.5 + : 8 s j h N N 1X1X4X4X8XrXtXtXyXmXyXmXmXbXGXnXmXB 1Xn 1X&.&.B 1X1X&.P.&.B &.&.B P.P.P.&.$.&.&.&.*.&.&.*.1X1X1X1X<X<X<X&.1X1X1X1XB B B P.1X&.<X<XB B &.&.1X&.&.&.&.&.&.&.&.1X&.3 f.k.n.b.S._.A.A.A.T.T.R.H.H.R.I.L.L.L.N P.",
"A W K P &.C K.1X5X1XP.P.1X#.1XP.> > k.x.V.B.Z.A.T.T.E.!.!.!.Q.0X0XqXrX8X8X9X7XpXpX5.6.6.2.e.e.r.2X*.P.P.1X1XP.P.&.1XB B &.&.1X&.&.B B &.1X1XB B B &.1X&.B 1XB &.&.&.&.&.B 1XB P.g : : i a s h v N P.1X3X4XqXqXrXtXyXsXkXmXMX,XUXGXkX&.*.n 1XV 1X1XB &.B &.&.&.1X$.&.&.<X1XK.1XP.<XK.&.K.P.P.P.K.P.B 1XP.P.L.N P.N N 1X1X1X<X$.*.B &.&.B B 1X<Xn P.&.&.&.&.P.&.&.&.L.V M.d.n.(.^.^._.A.E.E.A.R.R.G.R.H.H.I.I.P.L.",
"J A A D K & *.V $.2XB B &.&.P.b ; , v.x.Z.S.Z.A.A.[.E.!.{.!.{.wXwXeXeXrXyXrXtXtXpXpXaXaXu.u.e.r.>.*.K.P.P.&.&.1X&.1X1X&.B &.B &.&.1X&.&.&.B 1X&.1X&.&.&.&.B &.1X&.&.1X&.&.B P.N 2 ; 2 i f v c P.P.U.3X0XqXeXyXyXyXkXmXmXMXGXGXbXyXB &.<X&.B 1X1X1X&.B &.&.&.&.&.1X1X&.&.n B P.P.*.*.&.#.$.&.*.1X&.B &.&.B *.*.&.2X*.1X#.&.#.1X1XB 1X&.1X&.1X<X&.&.&.&.&.&.&.&.&.$.K.4XF.z.XX$XM.`.`././._.A.T.E.T.R.R.H.I.L.P.U.",
"L L I A A S I J q *.<XK.&.&.c 1 : < x.x.V.B.Z.E._.[.[.[.{.{.{.jXjXjXjXeXeXyXrXyXsXyXfXfXZXZXBXp.pX:.n P.1X&.$.1X&.B B &.1X1XB &.&.B 1XB &.1XB &.&.B 1XB &.1X&.B &.&.&.1X<XP.N N > , 2 f f c L.I.3X0XqXqXrXeXyXyXyXcXcXbXGXGX,X4XN 1XP.N P.1XB &.B &.1X&.&.&.B 1XP.P.&.1X*.&.*.1XB P.P.P.P.P.B B #.&.&.&.P.&.P.1XK.P.1XP.P.1XP.B <X&.&.&.<XB &.&.&.&.P.&.B 1X&.B =.1XL.P.S.f.d.n.(.(././._._.[.A.R.R.R.R.H.I.I.P.",
"Y R R I I K K A I K P P = - $ O 1 2 V.V.Z.A.A._.[.[.}.}.|.{.{.|.jXjXjXjXkXkXkXkXyXmXsXdXfXBXVXVX6X5X&.&.P.1XB 1X&.1XB 1X&.&.B 1XB 1X&.&.1XB B &.1X&.&.1X&.1X&.B P.#.&.P.P.*.L.V., k.3 f C.H.1XW.3X0XeXeXkXyXkXkXmXMXbXHXHXnXP.<X1XB 1X&.B &.&.B &.B &.&.&.1XB &.1X1X&.B &.1XB 1XB &.1XB &.P.&.&.&.&.&.1X&.1XB &.P.&.&.&.&.&.B B B 1X&.1XB P.&.&.&.B 1X1X&.B &.1X<XP.L.&.=.E.XXf.XXM.(.(.`./.A.T.A.E.E.R.R.H.H.I.",
"^ ^ ' ' R R I K K A J J E # & $ 6 a f V.A.A._.[.[.[. X X{.|.|.zXLXlXlXlXlXlXzXkXbXkXkXmXiXAXBXSX6X*.#.&.1XB 1XB &.B &.&.B 1XB &.&.1XB &.&.&.1X&.B &.B B B B &.1XP.*.*.L.B *.L.d > k.x.C.T.I.Q.Q.0XeXyXeXeXkXkXmXcXnXHXGXmXB 1X<X&.&.1XB 1X&.&.1X&.1X1XB &.B &.&.&.B &.1X&.&.&.&.&.&.&.&.&.&.&.&.&.&.&.B &.B &.&.&.&.&.&.&.&.1X&.&.B &.&.&.&.&.&.1XB &.B &.1X&.B P.P.*.*.L.<XuXM.d.$X).(./._./._.E.[.T.E.R.R.I.U.",
"( { ' ' ' ' Y R I L L L P P = r 9 j f C.T.E.[.[.[.|.lX|.|.*X&XgXlXLXgXLXlXPXzXzXxXkXMXnXdXZXSXZX#.&.&.&.P.&.&.#.&.B &.B &.B 1X&.&.B 1XB 1X&.&.&.&.&.1X&.1X&.&.&.P.*.&.P.B *.N C.b.v.B.S.G.W.!.wXwXeXkXkXxXmXmXbXGXHXGXtX$.1XK.B &.1X&.B B &.B &.&.1X&.B &.1XB &.B 1XB 1X1XB 1XB &.&.P.&.&.&.&.P.1X&.&.1X&.1X1X&.&.&.&.&.&.&.&.&.&.B &.B &.1X&.&.&.&.&.&.B B &.1X$.1XK.K.,.&.L.5Xd.XXXX/.n./._.`.E.A.T.E.R.R.W.W.",
") _ ` ] { ' ' R ' ^ ^ Y Y U / r y k m F.R.E.[.[.}.].].lXLX&X&XLX&XLXLXLXLXPXLXLXPXLXIXbXMXUXCXZXB &.B 1XP.&.B &.&.1X&.1X&.&.1XB 1XB &.&.B &.1XB B 1XB &.1XB B 1XP.&.*.P.B *.&.F.l.k.^.S.R.E.!.wXjXeXeXkXmXxXIXGXUXnX<X&.K.#.1XB B B &.1X1X&.&.1XB B &.1XB &.1X1X&.&.B &.&.B &.&.&.&.&.&.&.&.&.&.B &.&.B &.&.B B &.&.&.P.&.&.P.&.&.1X&.1XB B &.&.&.&.&.&.&.1X&.&.B &.K.P.&.P.P.*.P.XXd.XXn.(._./._._.A.E.E.T.R.W.",
"_ @.{ { { _ { { ( ( R Y ( ( / / y | V P.U.!.{. X&X].&XDX&XDXDXDX@XJXJX@XDXJXJX@XDXFXFXPXHX;X,X6X&.P.1XB P.&.#.&.B &.&.1X1X&.1XB 1XB &.1XB &.&.1X&.1XB &.&.1XB &.P.&.*.&.&.#.1XP.k.z.c.A.[.[.wX!.eXxXkXzXmXIXGXHXbXC *.P.<X1X$.1X&.&.&.1XB &.&.B 1X&.&.&.&.1X&.B &.&.&.P.&.&.B 1X&.B B 1X&.B &.&.&.&.&.&.B 1X1X&.&.&.&.B &.1X1XB &.B &.&.1X1X&.B &.&.&.P.&.&.&.B P.B *.&.I.&.*.L.B 5XXXd.XXn.M.`._._.A.E.T.E.E.W.",
"@.@.@.3.3.{ ( { { { { ' ( ( ( _ )  ...$.4X0XjXlXlXLXLXJXDXJXJXJXJXJXJXJXJXJXJXJXJXJXJXKXHXbXuXM 1X1XP.1X&.&.1X&.1X1XB B B &.&.&.&.&.&.B &.1XB B &.&.1X&.&.B &.&.1X&.P.1XB &.1XB N.n.c._._.[.wX{.jXkXkXcXGXGXGXkX1X1X1X1XB P.3XB B 1X&.B B &.1XB 1XB B 1X&.B 1XB B 1X&.B &.&.&.1X&.1X&.1X1X&.B 1XB 1X&.&.B &.&.B B &.1XB &.B &.&.&.1X&.B &.B &.1X&.&.&.&.&.B 1X&.1X&.B *.%.&.P.#.#.#.3Xz.z.M.n.^.^._._.A._.T.!.E.",
"%.;.@.@.@.@._ 3._ _ _ _ ( _ _ _ _ O.O.-.6X8XyXkXhXPXKXJXJXJXKXKXJX@XDXDX+XDX@XDX+XDX+XFXjXQ.#.*.&.&.&.&.&.&.&.&.&.B 1X&.B 1X&.1X1XB B 1X&.1X1X&.B &.B &.&.1X1XB &.&.1X&.P.P.1X&.L.^.b.^./.{.jXjXlXzXbXGXGXGXyXB $.1X&.1XC 2Xm 1X&.B &.1X1X1X&.&.&.&.1X&.&.&.&.&.&.B &.1X&.&.B B &.&.B B B &.1X&.&.P.&.&.1X1X&.&.1X1X&.&.&.&.&.B P.&.&.1X&.&.B &.&.&.&.B 1XB &.1X&.&.P.&.#.#.*.#.&.$.*.G.a.z.z.b.^.A._._.[.T.E.!.",
"*.:.:.@.+.@.@.@._ @._ _ _ _ _ _ O.@.@.;.5.tXyXMXHXHXHXFXFXLXjX~.<X<X1X1X1XP.&.&.<X$.$.B B K.~.B B &.&.&.P.*.&.B &.1XB &.&.&.&.B &.&.&.&.&.B B &.1X1XB &.&.B &.P.*.B B &.1XP.1X$.<XV.z.M.[. X|.jXxXhXIXGXbX4XN 1X1XK.#.1X1XM 4XB &.1X&.&.&.B B 1XB &.B &.1XB B 1X&.1X&.&.&.&.1X&.B 1X1X&.&.&.B &.&.&.&.&.&.B B 1X&.B B 1X1XB &.1X&.&.&.B 1X&.B 1XP.&.&.1X&.&.B &.*.P.P.L.P.&.B P.1X1XL.Y.^.d.z.^.^.`._.A._.[.[.!.",
"2X6X>.>.-.-.;.@.O.O.O.O.O._ _ _ O.@.3.3.,.pXZXAXUXIXjXY.*.1XM 1X*.B 1X&.B B 1X&.&.B 1X1X&.B B &.B *.P.Y.1X1XP.*.L.1X&.*.B &.&.B L.P.1X&.$.B P.B 1X1XB P.P.1X1X<XB &.&.&.&.&.&.&.*.J.^.(.).}.].lXIXIXHXcX<XB B <X&.&.&.&.B 1X&.B 1X&.1X&.B &.&.1XB &.&.&.&.B &.B &.1X1XB 1X&.B 1X&.1X1XB &.B &.B 1XB B &.&.P.B 1X&.&.P.&.B 1XB &.&.&.&.B 1X1X&.B 1X&.B B 1X&.B &.&.&.&.&.&.&.&.&.P.B #.P.1Xz.a.b.^.^.A._.[.[.{.{.",
"2X4X6X:.:.:.-.+.@.@.O.O.O._ @.O.{ _ { 7.7.6.ZXBXCXuX~.P.B #.P.K.B 1XB &.1X&.1XB 1XB &.B &.&.1X&.2XB L.1X$.B P.B K.n #.&.<XP.1X&.2X$.B n P.1X#.#.B P.P.&.P.$.B &.&.&.P.&.&.&.1XB *.N J./.).%XLXIXFXbXeX1X1XB <Xn B &.&.&.&.&.&.1XB &.B &.1X1XB B 1X&.&.&.&.1X&.1XB B &.&.B &.&.&.B B &.&.&.1X&.1X&.&.1X1X&.&.&.&.&.&.&.&.&.&.&.1X&.&.1XB &.B &.&.B &.1X&.&.B 1X&.1XB &.P.P.&.&.&.P.#.*.1XP.x.l.z.c.^.`.A._.E. X[.",
"qX4X8X4X2X:.:.*.%.+.+.+.O.O._ O.@.{ 3.4.4.1.BXVXZX%.N *.$.<X1XK.&.B &.1X&.B &.B 1X&.B &.1X&.1X&.P.3X&.$.w Y ) m 1XB B 1XP.N B &.P.K.K.K.P.P.1X1X*.*.*.*.1X1X1XP.1X&.1X&.1XB &.&.P.&.K.~.'.%XLXbXxXrXP.B &.<X&.&.1X&.P.&.&.1X&.&.&.&.&.B &.B &.&.&.B &.&.&.1X&.&.1X&.B 1X&.&.B &.&.&.B 1XB 1X&.&.B 1X&.B &.&.&.&.&.&.1XB &.1X&.B &.&.B &.&.B 1XB B 1X&.&.1X&.1X&.&.&.&.&.&.&.&.&.1X#.#.B P.J.z.k.b.^._._.[.[. X{.",
"0XqX4X4X2X2X*.:.%.=.X.+.o.O.O.@.O.3.{ 4.4.i.e.r.ZX6XP.B *.1XB 1X&.1X&.B &.1X&.&.B &.1X&.B &.B &.B *.w & $ P K L E % = u &.2X<X#.*.1X1X1X1XP.B P.I.L.P.B 1XB B n B &.B &.&.&.1XB *.1X1XU.!.{.wXwX1XB B 1X<Xn &.1X1XB &.&.&.B B 1X1X&.1XB &.1X&.&.&.1XP.&.&.B &.B 1XB &.&.B 1X1X&.B 1X&.1XB &.&.B B &.&.&.&.&.B 1X&.&.&.&.&.B 1XB B 1X1X&.&.1X&.&.&.&.&.&.B &.B &.B &.&.&.&.&.&.&.&.*.#.B P.4Xk.s.c.^._._.[.[.}.|.",
"wX0X0X4X3X1X2X*.%.%.%.X.X.O.O.O.@.{ 3.] [ y.w.r.e.2XP.B B #.B *.1XB B &.1X&.&.1X&.&.&.&.&.&.1XB I.d O @ $ & # J A J K K L # % = V M V $.&.B &.*.B &.&.&.1X&.1XP.&.&.P.&.B B 1X&.n &.&.P.B 1XP.L.1X&.B &.*.P.&.P.&.&.B 1X&.B 1X&.B 1XB &.P.&.&.&.B &.B 1XB 1X&.1X&.&.1XB &.B 1X&.&.B &.&.&.1XB 1X1X&.&.1X&.&.1X&.P.&.&.&.B 1X&.&.&.1X1XB &.&.&.P.&.&.&.&.1X&.B &.1X&.&.B &.1X&.P.V 1X2XP.N *.v.j.c.Z._._.[.{.|.|.",
"jXwXwX0X0X3X1X1X$.#.$.X.X.+.O.O.O.3.3.4.4.y.w.r.BX$.Y.1XB =.K.<X&.&.1X1XB &.&.B &.P.&.&.1XB &.&.=.1 ; 6 * % % T % J J J A A K K K # % u $.2X<XC 1X#.1X<X1XV B <X&.&.&.&.1X&.&.B K.P.*.$.$.B B &.K.<X&.&.B B <Xn B 1XB &.1XB &.B &.&.B &.&.&.&.&.1X&.B &.&.1XB &.B &.&.&.1XB &.B &.1X1X&.&.B &.&.&.B &.B &.B B &.&.&.&.&.&.1XB 1XB B &.&.1XB &.&.&.&.P.&.B &.&.<X1XB 1XB &.B &.&.1XK.1XP.P.$.V.j.c.Z.A._.[.}.|.gX",
"jXwX!.wXQ.U.U.P.B B $.$.X.X.X.O.O.{ 3.4.[ y.9.H p.B P.2XP.5XK.&.B &.&.B 1XB &.1X&.&.&.&.B &.B 1XN.+ : 1 7 - - - % T U P P J J J A A A A K J P w *.&.B K.P.1X1X#.&.&.B &.B 1X1XB P.P.B *.1XP.<X2XV &.1X1X&.n B 1XB 1X&.1X1X&.&.&.1XB 1X&.1XB B 1XB 1X1X&.&.B 1XB B 1X1XB 1X&.B &.&.&.B &.1X&.B &.1X&.&.1X&.1XB &.&.1X&.B &.B &.&.1X&.B 1X&.&.&.&.&.&.&.&.&.&.&.&.&.&.B &.&.B &.B 1XP.B B 2XB f > x.C.T.E.|.].&XLX",
"{.{.{.!.W.W.L.P.B B M M X.X.X.+.@.@.3.{ 4.1.e.H G <X*.#.P.1XN &.1X&.1XB &.&.&.B B 1X&.B 1X&.&.1Xx.; 2 : 0 e e r = = U U P T E L E K J J J A A K L J % ~ ..2XP.P.&.&.1X&.&.&.&.&.*.B P.1X<X&.B P.1XP.B <X&.B &.<X&.&.&.B B &.&.&.&.&.1XB &.&.&.&.&.&.&.B 1XB &.&.&.&.&.&.B &.1X1XB B 1X&.B &.1X1XB &.&.B B &.1X1XB B &.1X&.B 1XB &.B &.1XB &.&.&.&.&.P.&.B 1X&.P.B 1X1X&.&.1X&.1X#.B <XP.=.L.1 < N.A.[.{.|.&XLXPX",
"|.[.!.!.R.W.I.F.N B N M ....X. .O.@.3.3.4.y.w.w.q.e.n *.P.P.*.P.B 1XB &.1X&.B B 1X&.&.1X1X&.B B < > , 1 8 9 e t r r U / U U T T T T L E L L L J A A K K I J % U $.*.1XP.P.N P.U.<X1X1X*.*.&.P.P.&.&.B <X1X&.&.*.*.B L.P.1X&.&.1XB 1XB &.&.B &.&.1XB &.&.&.&.&.&.&.1XB 1X&.&.B &.&.&.1X&.&.1X&.B *.&.1X1X&.&.&.P.P.1X1X&.$.1X1XP.P.P.*.*.*.1XP.P.P.*.&.B 1X*.$.1XL.P.&.<XP.*.*.&.K.P.B *.$.5 : 0 b G.!.wXgXhXHXJX",
"|.{.[.[.R.R.I.F.L.N M M M ..X.X.@.@.3.{ 4.t.w.9.q.BXV 1XB Y.*.P.&.&.&.&.B &.1X&.&.B &.B B &.1X&.> > , 2 8 9 t t r r r / r / / U Y T Y Y Y L L L P P K K A J L R L L U u | *.*.$.B $.B M M B &.&.B 1X1XP.K.P.P.B V P.1X*.*.P.P.<XB &.1X&.&.1XB 1X&.&.&.P.&.&.&.&.&.B &.1XB 1X1X&.B 1XB &.&.B 1XB L.L.B 1XP.P.n =.1X$.n $.3XU.P.B *.P.P.L.K.B B 1XV 1X1XL.L.1X1XP.#.$.*.1XB V P.P.1X%./ * $ $ 7 t x P.eXjXbXGXIXPX",
"|. X[.E.E.G.H.G.F.v m m M ....X.O.@.3.3.4.y.y.w.H p.B &.L.L.<XV &.B 1XB B 1X&.&.1X&.&.1XB &.B 1Xj.> < 2 a s 9 t t y y / r / / ( / ( U ( ^ Y Y Y Y Y Y Y L I I K K L L L R Y ~ w r u r r y / / ) k $.$.1X&.&.P.1X*.1XP.&.#.B P.B 1X&.&.&.1XB &.&.B &.B 1X&.&.P.&.&.&.B B &.&.B &.&.&.B &.&.&.&.&.*.*.B V &.2X1XU.&.P.U.Y.n $.*.&.*.$.&.<X1X1X1X&.2X#.*.*.P.L.P.<X2X1XB B 1X3Xl w & & $ @ & - w t | -.uXyXAXGXxX4X",
"}.[._.A.A.T.G.D.c v N m M l X.X.+.@.3.3.4.y.y.w.H q.5XM P.P.1X&.&.1X&.&.&.1XB B B &.&.B 1X&.&.&.j.> > 3 i a s j j t y y ) y / ) ) / ( / ( ( ( ( R Y ' ^ ^ ^ ' Y Y Y ' R L T T T U U = = U U U T ' Y ~ | $.K.P.B 1X&.B P.P.P.&.<X&.B 1XB &.&.1XB 1X&.&.&.&.&.&.&.B 1X1X&.&.B 1X&.B &.1X1X1XB B 1XB 1X1X1Xn n B $.<X&.&.*.&.&.<X<X&.B B L.L.P.B *.&.v P.2X:.$.1X$.N P.$.w P # @ @ @ # # = - r / _ o.@.6.ZXAXmX1X#.",
"}./._.A.A.C.C.C.c c v m m M ..X.+.+.3.3.3.1.y.w.H G pXM <XP.B *.B 1X&.B &.&.&.1X&.&.&.B 1X&.&.&.> s.> 4 p a s j j h z y z ) ) | _ ) _ _ ( _ ( ( _ _ ( ] ' ( { { ] ' ] ( ' _ ( ) / r r y r / U U T P L R Y U o.#.n P.&.*.&.P.P.*.&.P.B 1XB B 1X&.B &.1X&.&.&.&.P.B &.&.1X1X&.P.&.1X&.B B &.B &.B 1X<X$.$.&.<X2X$.#.M $.1XP.K.B 1XP.1X2X*.$.V &.1XP.U.P.V N 3XM w L # @   @ # # # % % = U U / _ / ` 3.u.BXAX<X&.<X",
"}./.Z.A.A.C.C.C.C.D.x N m M $...+.-.;.3.4.4.y.y.r.G BXM 2X&.&.&.B &.1XB B 1X&.B B 1X1XB 1XB B 1Xj.> < 4 p d f s h h k k z l | |  .) ) _ _ O.{ _ _ _ { { { { { { { 3.{ { { 3.O.| | l z y y r r r = U T P L L L I ^ =.U.P.%.1X1X&.&.&.&.&.1X&.1XB &.1X&.B &.&.&.&.1X1XB B B &.&.&.B &.1X&.&.<X&.&.B P.&.| w % % U = ) $.K.K.1X1XV n &.<X#.2X2X#.C -.2XP.w J # # . X # # # % % % % = = / / / / ` _ 3.3.y.w.fXB *.n ",
"`.^.Z.Z.Z.C.C.C.f c c x m m $.$.%.+.3.3.4.2.y.w.r.r.r.B *.B *.P.1X1X&.&.&.B &.1X&.1X&.&.&.&.1X&.j.j.j.v.3 p f f c b x k m l l .... .X.O. .O.@.@.3.3.3.{ 3.3.3.3.4.3.3.,.;.+.+.+...z z y y y y y / / ~ U T L L L I ' <.P.P.$.*.B &.&.&.&.&.B &.B &.B 1XB &.&.B &.&.B 1X&.B &.&.&.B 1X1X&.&.&.&.&.*.y * @ @ # J J J I R P r *.2XK.*.*.P.v U.1X..u P # . X X # # @ # % % % = = U = / U / / / ) _ 3.{ 4.y.w.t.5.&.P.",
"`.^.c.Z.V.V.V.C.C.f v v m N M $.-.-.;.5.7.4.y.i.r.r.H P.&.n 1XP.&.B B 1X&.1X&.&.&.B B 1XB &.B &.j.> j.v.x.V.C.C.c v N N M M M $.X.$.%.%.X.+.+.+.+.3.;.;.5.6.3.7.5.5.5.5.5.;.:.=.M l k k j y t y y r r / ~ U Y R K W R =.W.P.#.P.&.&.B 1X&.1X&.&.1XB &.&.1XB 1X&.&.&.B &.1X&.&.&.&.&.B &.B 1X&.&.$ $ @ @ # % % P L J K K I L T w u r / T % % @ @ X # # X & & # & - - = = = q r / / / / ( _ { _ _ 3.{ 1.w.0.2.V 2X",
"_.c.c.N.V.V.V.C.C.f c c v N B $.%.:.;.5.3.2.1.y.r.H 0.7.1XP.B <XB &.&.&.&.&.&.&.B &.&.1X1X&.1X&.> s.j.v.x.V.C.Z.D.H.F.L.L.P.B B $.*.*.-.-.:.;.>.5.>.5.,.5.5.pX5.fXpXpX5.7X9X6X1Xn N m h j j j j t y y r / / ~ Y Y ' W W n $.1X#.*.&.1X<XP.&.*.&.&.&.&.1X&.&.1X&.B &.1X&.V 1X1XB B 1XB 1X1X1X*.O @ @ $ - - - U U Y T L L L J J J E # # # # @ # @ & & & & - - - - = - r w r / / / / ) ) _ ) @.{ @.3.[ 4.y.9.y.~.%.",
"`.c.x.x.N.V.V.f C.C.D.v F.N B $.%.-.>.5.3.6.2.y.e.r.G ZX*.K.B P.1X&.&.&.&.B 1XB 1X1XB B B &.B &.k.s.l.k.c.B.Z.G.A.G.H.I.L.P.P.1X*.1X*.2X:.:.:.>.;.5.5.pX5.pXaXaXpXaXpXmXfXtX0X3XL.F.c b h j y y y y y r y / / ( ^ R W ! ! P.*.<X&.&.B P.&.&.&.&.B &.&.B B 1XB &.P.1Xn &.2XP.V 2X1XP.B n $.u . $ $ $ - - = = U U ( ( ^ Y Y L L L P # & & & & & - * - - - - e - w w r r r / / ) ) ) ) _ _ O._ _ 3.3.{ [ [ 0.0.,.P.",
"B.c.v.x.V.V.V.V.f C.D.c v L.B *.*.:.:.5.6.6.2.i.e.r.H p.n 1XP.P.&.B &.&.1XB &.1X&.B 1X&.&.&.B &.d z.s.b.b.c.B.T.T.A.R.R.W.W.I.U.1X3X3X2X2X6X6X7XpX7XpXpXpXdXsXdXaXsXdXdXkXkXkX{.W.G.C.f g h j t t j y y y / ) / ` R } W S 1.1XP.B P.&.&.&.&.1X&.1X&.&.1X&.&.&.B 1XB &.&.P.1X1XB &.V 4X&.$ . . . * * - = r r / / / ( ( ( ( Y U U = % - - - - - e - * q e w e r e y r r y y ) ) ) _  .O.O.O.@.3.@.4.3.3.t.0.0.t.*.",
"N.v.v.x.N.V.V.C.V.C.D.D.F.L.P.1X2X*.7X5.5.6.6.i.e.e.H r.P.P.&.*.&.1X&.P.&.&.&.B &.&.B &.1XB 1X&.V l.a.l.b.^.^./._.E.E.E.R.!.Q.Q.0X0X3XqX8XrX8XtX7XsXpXdXpXsXdXiXvXvXMXcXMXPXLX X[.A.C.C.f g b f h j t y y ) ) ) ) } } 0.q.Q ,.P.P.1X&.1X&.&.&.1XB &.&.B &.B 1X&.&.B 1X1Xn 1X1XV 1XB &.O   . $ * * - e r r / / ( ( / ( ( / ( / / r = e - e q 7 e e e e t e r t y y y y ) ) |  . .O.O.O.+.@.@.@.3.3.{ 4.4.[ 0.Q ' ",
"N.v.v.x.N.N.V.V.C.C.C.D.F.I.P.P.2X2X7X,.5.6.6.u.e.e.H H 5XL.B =.B B 1X&.B 1X&.&.1X&.1XB B &.&.&.#.x.f.a.z.(.^./._.[.[.E.{.!.!.!.Q.0XwX0XqXtXtXsXsXsXsXdXmXdXdXMXMXvX,XHXHXPX*X%X(.^.V.f f f f s j h j z y y ) ) ) { } } 0.D 9.4X&.P.&.&.&.&.B 1X&.&.&.&.&.&.B 1X1X1XB B 1XK.n 2X&.<X.   . $ * * q e r r r ) ) ) _ _ _ _ ) / / / r r e e t e e 9 t t t t y y y y y ) | | |  .o.+.+.+.+.-.@.@.3.;.@.3.3.4.[ [ 0.I ",
"x.k.v.x.N.B.N.V.A.C.G.G.G.I.U.U.1X2X7X9XpX5.aX2.u.i.r.G 6.B P.<X1X&.1XB &.1XB 1XB &.&.&.&.1X1XB &.$.l.d.XXn.).(.)./.[.[.[.[.{.{.jX!.wXeXeXeXtXyXsXyXsXmXmXMXvXMX,XGXUXGXhXjXlX}.OXn.c.C.V.f f b f h h h k z | ) _ ` { 4.t.F Q 6.#.&.&.&.&.1XB &.&.P.&.P.&.&.&.1X&.1XP.P.1X1X#.=.u   . O $ * * q e w r r y / _ ) ) _ _ _ _ _ ) ) y y t y t y t t t t y t t z k z y l | ..X.o.+.%.-.-.-.;.>.5.5.,.;.5.3.3.} [ R L ",
"p 4 v.x.N.x.Z.C.V.A.A.H.R.H.U.U.4X4X8X7X7XpXaX2.ZXe.r.q.BXP.P.1X&.B &.B &.B 1XB B 1X&.1X&.B 1XB $.U.n XXd.XXM.).).).).}.}.[.{.{.{.jXjXeXkXkXsXkXcXcXcXcXvX,X,XGXHXUXIXjX<XP.I.I._.z.z.B.V.V.f f b h h h h k l | O. .{ { [ 9.F 9.:.#.&.B P.1X&.&.&.&.&.&.&.&.B B $.&.1X<XB 2XM 5   . O $ 5 * q e e r r / ) ) ) _ _ _ _ _  ._ ) | y y y t t j t j t j j k k z k k ..$.$.$.%.%.%.-.:.:.:.>.>.>.;.>.5.-.;.3.3.{ ' U ",
"N.v.v.N.N.B.Z.C.A.A.T.T.H.W.Q.3X4X4X8X9X7XaXaX2.u.e.r.r.r.Y.1X$.&.1X&.&.1XB &.&.&.&.&.B 1XB &.&.#.U.B N d.d.XXOX#X#X%X'.}.}.}.[.{.{.{.jXjXkXkXkXkXmXcXvXnX,XUXUXUXbX3XP.P.1X*.$.L.^.z.k.N.x.V.f f f b h k k l | o._ 3.{ [ 0.r.S 7X5X#.1XP.P.&.&.&.&.&.&.B 1X1X&.P.1XP.B 1XM 5 . .   $ * * q q q r y y ) ) ) _ _ O.O.O.O.O.) | ) z z y j y j j j h j h k k m M M M $.$.$.*.*.:.*.,.:.>.7X7X>.>.>.5.,.3.;.-.{ { ( ",
"d x.v.c.B.V.Z.Z.A.A.A.T.R.!.!.Q.0X0XrXrXpXpXaXaXu.u.e.H r.P.*.P.1XB 1X&.B B 1X&.1XB &.B &.&.B 1X*.B P.*.~.XXf.h.$XOX#X%X'.%X}.|.|.{.lXlXjXkXkXhXmXMXnXnXnXUX:XUXeX3XK.B &.&.&.&.*.F.z.k.^.x.V.V.f c x x x k l l o.+.@.{ 4.t.9.q.9.<.1XI.n $.*.L.1XB 1X1XV 1X1XV P.P.<X&.P.  .   $ $ * 6 7 e e e r y )  . ._ O.O.O.O.O.O.O. .| | z z y j j j h j h h m m m m M $.$.&.1X2X2X2X2X6X7X7X7X7X8X7X7X>.7X>.:.;.+.O.) ) ",
"V.v.v.V.Z.Z.A.S.A.A.[.T.[.E.{.Q.wXeXqXtXtXsXaXaXfXZXp.VXH *.$.P.&.&.B &.1X&.1XB &.&.&.1X1X&.&.1X<XL.#.K.2X<XOXf.h.oXOX$X%X`.%X X|.|.|.jXlXzXzXzXbXIX,X,XUXUXGX2X3XK.B P.&.&.&.P.&.L.c.l.c.x.V.C.C.C.f c x m M $...+.@.3.3.t.9.0.0.u.V 1XP.#.2XL.1X&.V 1X&.&.&.3XP.$.B 5X      O $ 5 7 7 e e t t y y y  . . .O.O.O.O.@.O. . . .| | z z j h h j k h h m m M M B $.1X&.2X2X6X4X6X6X8X8X8X9X8X8X9X7X6X6X:.:.-.X. .) ",
"V.c.c.B.B.B.B././._.[._.[.[.{.!.{.wXeXyXyXsXsXdXZXfXe.r.F aX1XP.&.&.&.&.&.&.&.B &.B 1XB B 1XB B P.*.P.Y.$.$.3XOX=Xd.=XOXOX%X}.%X}.|.].lXlXzXkXbXbXGXGXUX:XGX$.B K.n B *.&.&.&.<X$.U.C.l.k.c.N.Z.V.f f v c N M M $.-.;.3.3.1.t.9.0.0.5XV 1X&.n P.B &.1X1Xn 1X1XV $.3Xu       O * 7 7 7 e t t y y z |  . .O.O.O.O.@.@.@.O.O. .| ..| z k h h h h k x m m N N B &.1X1X1X2X2X4X8XrXtXrXrXrXtXrXrXtX9X8X8X6X2X*.$...| ",
"S.N.c.^.^.^._.`././.'. X[. X|.{.jXjXjXjXkXsXsXsXdXZXBXp.r.ZX3X$.1XB 1XB 1XB &.1X1XB &.&.&.&.&.&.&.*.1XP.L.L.1X2X XOXd.h.$XOX%X}.}.].].lXlXzXbXbXbX,XGX:XUX1XB 3XP.&.&.<X*.B B 1X*.P.P.c.a.k.B.x.V.C.C.D.D.v N N $.%.-.;.3.7.y.t.q.S u.Y.$.Q.n *.1XV 1X1X1XV 1X1X1X$   . $ O * 6 0 7 9 9 t t z y | | | X.X.+.+.+.+.@.+.+.O.X...| l z k k k h h x m m N N B B &.1X2X4X4X4XrX8XrXtXyXtXyXyXyXyXyXrXrX4X4X1X1X$.M l ",
"G.Z.^._.`.`._.}.`.}.}.}.}.|.|.|.lXlXjXzXkXmXmXmXsXZXZXBXp.i.<X=.1XB B &.B 1XB &.&.B 1X1X1X&.B 1X&.L.*.&.1X<XK.%.1XY.%Xd.h.OXOX'.}.&X|.lXlXgXhXbXnXGXUXGX*.n 1XK.1X1X&.&.B &.&.1X#.B *.V.a.k.B.c.V.C.C.G.D.v N B $.*.-.;.3.3.1.y.9.F 0.6XV P.P.B 1X1X1XV 3Xn B 1X$   . O O 7 1 6 9 9 9 t t z z z | ....X.X.+.+.+.@.+.+.+.O.X.| | l z k k h h m x m N N B P.1X1X4X3X4X4XrXrXyXeXtXyXyXsXyXyXyXeXyXeXrX0X3XP.B B m ",
"}.(.M.#X#X#X#X#X#X).%X%X%X*X*X].].&XgXgXgXzXxXcXcXvXAXSXSXu.~.*.&.&.1X1X&.&.&.&.1XB &.B B &.&.&.L.&.P.*.$.P.<XP.B 2X2X0XoXf.$XOX).'.|.lXlXhXbXIXUX:XGX&.n 2XB B &.$.&.&.1X&.B B *.1X&.L.l.z.k.c.Z.V.C.C.D.F.L.B &.*.:.-.,.3.4.y.9.9.S [ 1X*.1XB 1XV 2X&.$.5XB O     O 5 * 1 * 9 9 9 9 j t k l z ....X.X.+.+.+.-.+.+.+.+.X.X.....l l k k m m m m m N B B 1X1X3X3X4XqXqXyXyXyXyXkXmXyXkXkXkXkXjXyXeXwXQ.Q.I.L.L.N ",
"|.#X%X+X=X=X=X=X$X+X=X+X%X+X%X*X&XLXLXLXPXPXhXhXbXnXvXCXCXpXK.*.B 1X&.B &.B 1XB &.&.&.&.&.&.&.&.K.&.1X&.P.P.1X<X1XP.$.K.%.OXXXXX$X).|.|.zXzXbXCXUXUX*.C 1X1XK.*.B B B 1X1X&.&.B &.P.P.1XB.z.j.c.N.Z.A.C.G.D.L.L.P.*.:.,.;.5.3.4.t.t.0.Q 7.:.&.1XB 1Xn $.*.z O . + $ 6 5 1 9 s 9 t 9 j h h l l l ..$.X.%.-.-.-.+.+.-.;.+.X.X.....l l k k m k m M M B B 1X1X3X4X4XqXrXrXyXyXyXkXkXkXkXkXzXkXkXkXlXjXjX!.!.W.H.F.L.",
"wX|.&X&XOX=X@X=Xg.@X@X@X@X+X@X+X+X&XDXDXPXPXPXIXIXIXGX-XCX%.P.&.B &.1XB &.1X&.&.&.&.&.&.&.P.B &.1XP.P.*.=.&.P.B =.P.U.$.L.L.(.d.(.`.|.jXkXzXnXCXCX*.$.5XP.N 1X#.P.1X<XB &.&.1X&.P.B 3X<Xf z.l.c.B.Z.Z.C.C.G.H.L.P.1X*.:.-.>.6.4.y.t.0.0.Q o.N <XP.&.1X*.5   . $ : 1 6 0 9 8 9 9 j j j k k M l $.$.%.%.%.-.-.-.;.-.-.+.+.X. .....l | l k k m m M B B 1X1X1X4X4X8XrXrXyXyXyXkXmXmXkXkXmXhXzXlXkXlXjX{.{.[.R.R.H.I.",
"1XB B B U.jXLXDX+X@X=Xh.g.g.g.JXg.g.JX@XJXDXJXJXFXKXKX,XuX$.*.K.1X&.B B 1X&.&.&.&.&.&.1X&.B &.B &.&.&.B 1X1X&.B P.1X=.#.P.1Xg n.z.^.[.wXrXmXvXCXaX<X*.K.1X&.F.=.1X&.&.&.B 1X&.&.B 1X&.1X&.k.a.c.c.B.S.C.A.G.J.I.P.1X2X2X:.5.5.5.t.4.[ 0.W W Y V B M t $ . $ $ : 6 0 8 0 a a s j h b h x m M M B $.$.*.*.-.-.:.-.-.-.X.X.%.........l l k M m M N &.&.1X2X2X4XqX8X8XrXyXsXkXmXmXmXMXxXhXhXhXhXPXlX].|.[.[.R.[.A.U.",
"K.<X&.&.B P.L.Y.=.~.xXLXDX@X@Xg.g.=Xg.g.g.JXJXJXKXKXbXyX5X=.P.V B &.1X&.1XB B 1X1XB &.B 1XB &.1XB 1X&.B &.B &.1XP.n 2X&.P.%.K.B.k.N.D.P.6XaXZXBX5.#.3X$.n B 1X&.P.&.B 1X&.1XB 1X&.B B 1XN C.z.s.b.B.Z.C.T.T.H.I.U.P.1X2X:.>.>.5.6.3.4.[ t.I I I & & @ O O $ 1 8 8 8 0 a s s s s b b x N N B B B *.*.*.*.*.:.-.:.-.-.-.-.%.X.$...l l M l M M M B $.1X*.2X2X4X8XrXyXyXyXkXmXkXMXzXxXbXIXhXIXPXLXLX&X|.'.`._./.E.R.",
"B B 1X*.*.2X$.$.P.P.L.U.U.P.$.&.!.{.LXDXDX+X+X*XgXwXU.V B P.1XP.B 1X1X&.&.&.1X&.&.1X&.B 1X&.B &.&.1XB 1XB &.B 1X&.&.1XP.P.#.1X: , i b l +.6.y.w.pXV 1X$.1XP.*.K.B &.&.&.&.B 1XB *.P.K.1Xn B m.a.m.c.Z.Z.A.G.H.H.I.U.4X2X6X:.>.5.5.4.1.[ ] ' R K % % $ $ 6 6 1 8 8 a s s s f c c v v F.L.N P.P.1X1X1X2X*.*.:.:.:.:.-.-.%.%.%...$...M l M M M B B &.2X1X2X8X8XtXrXtXtXsXmXmXmXmXbXbXIXFXIXFXJXJXJX+X+X$X).}././.R.",
"B &.B P.K.K.K.1X*.$.&.*.<X&.<X1XN L.P.P.P.P.*.*.<XB N P.P.1X1XB &.&.B &.B &.B &.B B &.1XB &.1X1X&.&.&.&.&.1XB &.&.1XB 1XB U.f : 1 8 t y ) ] 0.0.6.K.P.&.1X$.B 1X1X&.B 1X1XB &.&.&.P.K.B *.#.c.z.k.b.^.Z.A.A.T.R.I.Q.3X4X8X8X7X>.>.5.4.3.[ { ( U U - 7 0 0 i a a a d d f f f D.D.D.F.F.L.L.P.1X3X3X1X4X2X2X6X*.:.:.%.*.%.%.$...M M $.M M M B $.*.*.2X2X8X6X8XtXtXsXsXsXmXmXcXbXnXnXIXKX;XKXIXFX+X$X=X=X$X).`.`.E.",
"#.&.<XP.P.P.B Y.P.L.P.&.&.*.&.P.6X=.#.$.1XB &.1X1X<X<X1X&.B $.1XB &.&.B 1XB B &.1X&.&.1XB &.&.B &.1X1XB &.&.&.1XB 1Xn <X*.k : : 6 7 t y _ ] t.0.0.7XL.B B 1XP.1X&.B B &.1XB B &.$.P.Y.$.2X1Xb z.l.k.B.S.A.A.E.R.W.Q.U.3X4X8X7X7X;.>.5.+.3.3._ ) r t 9 9 s a a d d d f f C.C.D.G.H.H.H.L.Y.U.U.U.3X3X3X1X4X2X2X2X*.*.*.$.$.$.$.M M M M B M B *.*.1X2X2X8X8X9XtXtXsXsXmXdXvXcXnX,XGXUXUXIXzX{.F.4XQ.|.OXXXOXOXb.[.",
"<X<X&.P.1X&.*.*.2X&.n n B 1XK.Y.K.K.K.1X3X1XB K.&.n $.P.#.&.*.1X1X&.&.1X&.&.1X&.1XB &.B &.&.1XB B B &.&.1XB &.B P.B <X*.B 6 + $ 7 q r / / ( } t.S y.K.P.$.L.#.&.&.1X&.&.&.&.1X&.<XP.P.*.$.U.*.k.l.z.b.B.S.A.T.T.W.W.0X4X4X4X6X6X5.5.5.3.;.+.+.) k h j s a f d V.C.C.C.C.C.T.T.H.H.R.W.W.Q.Q.3X0X0X3X3X4X4X2X2X2X2X2X*.&.$.$.&.$.$.B $.&.$.*.1X2X2X4X2X8X8XtXpXtXyXsXmXmXMXvX,XGX:XGXhXH.N 1X5XM 1X:.I.).XX=XOX#X",
"<X&.B $.$.#.$.<X&.&.1X1X1X<XB n 1XP.B B B $.1X*.*.P.*.1X<X<X<XB B &.B &.B 1X&.&.&.&.B 1X1X&.1X&.1X&.B 1X1X&.&.&.1XL.1XN g   O 6 0 q r / ) ( } ! 0.0.,.1X2XP.#.&.B B 1X1X1X&.&.&.1X&.P.&.n L.5Xg z.z.c.Z.A.A.T.E.R.W.3X3X4X4X6X6X7X>.5.5.5.;.X.o.l m x f f f f C.C.C.A.G.T.T.R.R.R.W.W.W.Q.Q.Q.0X3X3X0X4X4X2X4X4X2X1X*.*.&.*.&.&.&.$.B &.1X*.2X*.2X8X6XtXtXpXsXsXsXsXiXvXvXAXCXUXGXuXN 3X<XC <X2X#.P.V 2XjXoXXX).",
"&.&.<X1XP.P.L.P.B 1XP.P.B $.*.&.n 1X1X*.&.<X1XP.P.K.&.B B &.P.B 1X&.&.1XB &.&.B B 1X&.&.B &.B &.1XB &.&.B &.B 1X#.P.B G.> ; 8 2 a j y | O.@.{ y.w.Q ZX<XB <X1X$.1X&.&.B B &.1XB N 6XB &.1Xn Q.$.l.j.k.B.Z.S.A.T.R.H.I.3X3X2X6X6X6X7X6X:.,.:.*.*.$.N v f C.C.C.C.C.C.A.C.C.G.G.G.R.H.W.W.W.W.Q.W.3X3X3X3X3X3X1X1X1X1X1X1X$.&.&.*.$.&.$.1X*.1X2X2X6X2X6X6XpX7XpXsXpXfXiXiXZXBXCXSXP.1XB $.1X1XP.P.1Xn 1XP.$.H.).z."
};
