/* XPM */
static char *_b46cc56db8e4ebe8ac5edf435d64e97kD6GmnS0dZyQNMDN[] = {
/* columns rows colors chars-per-pixel */
"500 500 256 2 ",
"   c #3C3BD4",
".  c #7D1BCD",
"X  c #7919CB",
"o  c #7D1ED1",
"O  c #751ED2",
"+  c #6A1DCE",
"@  c #5130D7",
"#  c #7D21D5",
"$  c #7D25DA",
"%  c #7D2ADD",
"&  c #7525D8",
"*  c #6926D7",
"=  c #7D2DE2",
"-  c #752CE1",
";  c #7D33E5",
":  c #7D3BEB",
">  c #7A36E8",
",  c #6C37E7",
"<  c #5639E2",
"1  c #3051D7",
"2  c #1A7ECD",
"3  c #1879CB",
"4  c #1D7ED2",
"5  c #1D75D2",
"6  c #1D69CE",
"7  c #227ED5",
"8  c #257EDA",
"9  c #2A7EDE",
"0  c #2674D9",
"q  c #2768D7",
"w  c #2D7EE1",
"e  c #2C76E2",
"r  c #337EE4",
"t  c #3C7EEC",
"y  c #377BE8",
"u  c #3769E6",
"i  c #3A56E3",
"p  c #5151EB",
"a  c #7C43EE",
"s  c #7E45F1",
"d  c #7D4BF4",
"f  c #764AF4",
"g  c #7E5BFA",
"h  c #7C55F7",
"j  c #6851F2",
"k  c #437CEE",
"l  c #447EF1",
"z  c #4B7DF3",
"x  c #587DF8",
"c  c #5168F3",
"v  c #6969FA",
"b  c #7E63FB",
"n  c #7D6CFC",
"m  c #7568FB",
"M  c #647EFB",
"N  c #6C7EFD",
"B  c #6875FA",
"V  c #7E74FD",
"C  c #747EFD",
"Z  c #7E7DFE",
"A  c #7474FC",
"S  c #7E61EF",
"D  c #4243DD",
"F  c #811BCE",
"G  c #8519CB",
"H  c #821DD1",
"J  c #8A1DD3",
"K  c #951DCF",
"L  c #8221D5",
"P  c #8225DA",
"I  c #8129DD",
"U  c #8B25D8",
"Y  c #9627D7",
"T  c #AF2ED5",
"R  c #822DE2",
"E  c #882CE3",
"W  c #8233E5",
"Q  c #8236E9",
"!  c #823BEC",
"~  c #8A37E8",
"^  c #9238E9",
"/  c #A738E3",
"(  c #C439D2",
")  c #8243EE",
"_  c #8244F2",
"`  c #824BF4",
"'  c #874BF6",
"]  c #815CFA",
"[  c #8354F8",
"{  c #9751F3",
"}  c #AE51EC",
"|  c #8163FC",
" . c #816CFD",
".. c #8A67FB",
"X. c #9668FB",
"o. c #8174FE",
"O. c #807FFE",
"+. c #8B7EFE",
"@. c #8B74FD",
"#. c #947EFD",
"$. c #9B7EFC",
"%. c #9877F9",
"&. c #9E60EF",
"*. c #BC7EED",
"=. c #B77AED",
"-. c #A47EFA",
";. c #AA7DF6",
":. c #BB7EF1",
">. c #B47CF4",
",. c #AE69F3",
"<. c #BB46DC",
"1. c #CF50D5",
"2. c #DE7CCE",
"3. c #DC7ED4",
"4. c #D47EDC",
"5. c #DA7EDA",
"6. c #D876D6",
"7. c #D66CD8",
"8. c #E37ECD",
"9. c #E477CB",
"0. c #E27ED1",
"q. c #E376D3",
"w. c #E269D0",
"e. c #CC7EE4",
"r. c #C37EEB",
"t. c #C87BE8",
"y. c #D27EE2",
"u. c #C76FE9",
"i. c #C757E3",
"p. c #1B81CD",
"a. c #1886CC",
"s. c #1D81D2",
"d. c #1D8AD3",
"f. c #1C95CE",
"g. c #2181D5",
"h. c #2581DA",
"j. c #2981DD",
"k. c #258BD7",
"l. c #2797D7",
"z. c #2FAFD5",
"x. c #2C81E2",
"c. c #2C8AE2",
"v. c #3381E5",
"b. c #3B81EC",
"n. c #3784E9",
"m. c #3891E8",
"M. c #39A8E3",
"N. c #4282EE",
"B. c #4481F2",
"V. c #4B81F4",
"C. c #4A89F5",
"Z. c #5C81FA",
"A. c #5582F7",
"S. c #5097F3",
"D. c #6381FC",
"F. c #6C81FD",
"G. c #678AFB",
"H. c #7481FE",
"J. c #7E81FE",
"K. c #7E8BFE",
"L. c #758BFC",
"P. c #7E93FC",
"I. c #7D9BFB",
"U. c #7697FA",
"Y. c #6897FA",
"T. c #51ADEC",
"R. c #7DBDED",
"E. c #7AB7EE",
"W. c #7DACF5",
"Q. c #7EA3FA",
"!. c #7CA8F8",
"~. c #7EB4F3",
"^. c #7CBAF2",
"/. c #69B0F3",
"(. c #44BADC",
"). c #3AC4D2",
"_. c #50CFD5",
"`. c #7DDDD4",
"'. c #7DD5DD",
"]. c #7DDADA",
"[. c #76D9D7",
"{. c #6ED9D5",
"}. c #7DE3CD",
"|. c #77E3CB",
" X c #7DE1D2",
".X c #76E1D2",
"XX c #6AE2CF",
"oX c #7DCCE4",
"OX c #7DC3EB",
"+X c #7CC8E8",
"@X c #7ED2E2",
"#X c #77D3E2",
"$X c #6EC6E9",
"%X c #56C7E3",
"&X c #8181FE",
"*X c #8B81FE",
"=X c #818BFE",
"-X c #8B8BFC",
";X c #9381FD",
":X c #9B81FC",
">X c #9889FA",
",X c #8193FD",
"<X c #819CFC",
"1X c #8A97FB",
"2X c #9796FA",
"3X c #BC81ED",
"4X c #A381FA",
"5X c #AA82F7",
"6X c #B781F3",
"7X c #AC98F4",
"8X c #82BCED",
"9X c #81ADF5",
"0X c #81A4FA",
"qX c #83A8F8",
"wX c #81B4F4",
"eX c #82BBF2",
"rX c #87B4F6",
"tX c #97AFF2",
"yX c #AEADEC",
"uX c #BBB9DC",
"iX c #DD81D4",
"pX c #D581DD",
"aX c #DB81DA",
"sX c #D889D7",
"dX c #DA8ED3",
"fX c #E381CD",
"gX c #E587CB",
"hX c #E281D2",
"jX c #E287D5",
"kX c #E295CE",
"lX c #D0AFD3",
"zX c #CC81E4",
"xX c #C381EC",
"cX c #C884E9",
"vX c #D282E2",
"bX c #C58BEC",
"nX c #C7A7E3",
"mX c #82DDD4",
"MX c #82D5DD",
"NX c #82DADA",
"BX c #8AD9D8",
"VX c #90DAD4",
"CX c #B0D1D3",
"ZX c #82E3CD",
"AX c #87E4CB",
"SX c #82E1D2",
"DX c #89E1D3",
"FX c #95E2CE",
"GX c #81CCE4",
"HX c #81C3EB",
"JX c #83C9E8",
"KX c #82D2E2",
"LX c #88D5E2",
"PX c #8DC5EA",
"IX c #AAC6E2",
"UX c #C6C5CF",
/* pixels */
"H.C Z C G.M H.O.C C Z C C &XZ C O.Z Z Z Z O.&XO.O.O.O.O.O.O.O.O.O.O.O.O.O.O.O.O.Z Z Z O.Z Z Z Z Z Z Z O.Z O.O.O.O.Z J.Z Z &X&XZ O.O.O.O.O.O.O.O.O.O.Z Z Z O.O.Z Z O.O.O.O.Z O.Z O.O.O.Z Z O.O.O.O.O.O.Z Z O.Z Z &XZ Z Z Z J.Z Z O.O.Z O.O.O.O.O.O.O.Z O.Z Z O.Z O.O.Z Z O.O.O.+.Z O.O.J.Z O.+.Z Z O.O.+.J.J.Z O.+.O.Z +.O.+.*X+.;X+.O.*XJ.O.J.H.C H.Z N G.Z C B O.O.C J.C C Z J.C H.C Z Z Z Z O.O.O.Z Z O.O.O.Z C Z Z C Z Z Z Z Z Z Z Z Z Z Z Z Z Z O.O.J.C Z Z C Z O.Z O.Z Z O.O.Z C Z Z Z Z J.Z C Z Z H.Z Z C Z Z Z Z O.Z Z O.O.O.O.O.O.O.O.O.O.O.O.Z Z Z Z Z Z Z O.Z O.Z Z Z O.O.O.O.O.@.Z Z J.O.Z Z Z O.O.Z O.Z Z Z O.O.O.O.O.O.O.O.O.O.O.Z Z O.O.Z Z O.O.O.#.O.&X-.;X;X:X;X;X@.&XJ.O.Z N Z.F.F.F.x H.H.F.J.Z Z Z Z O.+.O.O.O.Z O.O.O.O.Z Z O.O.O.O.&XO.O.O.O.O.O.O.O.Z Z Z Z Z Z Z Z Z Z Z Z Z Z Z O.O.O.O.Z Z Z O.O.O.Z O.Z Z O.J.Z Z Z J.Z C Z Z Z Z Z Z Z Z Z Z Z Z Z Z &XZ O.Z Z O.Z Z O.O.O.O.O.O.O.O.O.+.O.O.O.O.O.O.&XO.O.Z Z O.Z Z Z Z Z Z Z Z Z Z Z Z J.O.O.O.O.O.Z O.O.O.Z Z Z Z O.Z O.Z +.+.Z $.*X+.#.+.+.&X*X:XO.Z +.&X",
"L.G.Y.U.Y././.W./.^.^.OX^.^.OX^.OX^.^.^.^.^.^.eXeX^.^.eXeX^.eXeXeXeXeX^.eXHXHXeX^.OXOX^.^.OXOX^.^.^.^.^.OXeX^.eXeXeXeX^.^.^.^.eXHXeXeX^.eXeXOX8XeX^.^.R.OX8X^.^.eX^.HX^.eXeXOX8X8X8XeXHX^.eXHX^.eX^.^.eX^.^.^.^.OX^.OX^.R.^.OXOX^.R.R.^.^.HXeXHXHXR.OX8XHX8XR.HXeXeXR.R.8XeXeXeX8XrXtXwXwX9XrX9X!.qXqXqXqXW.W.!.qXqXQ.tXqX2X1X,X1X2X-X-XZ &XJ.F.F.G.L.Y.Y.Q.!./.!.qX/.~.~.~.wXwXE.E.^.^.^.^.R.eX8XeXOX^.R.R.eXOXOX8XOXOXeXOXOXOXOX+XOX+X+X+XoX+XOX+XJXOX+X+X+X+X+X+X+XJX+XJX+XJXGXoX+XoX+X+X+XJXoXoXoXGXoX+XoXoXoXoXoXoXJXoXGXGXGXGXGXGXGXGXGXGXJXJXGXGXGXGXGXGXGXJXJXJXJXJX+XJXPXGXJXJXJXJXJXJXJX+XJXJX+XJXJXJXJXJXGXJXJXJXJXJXHXHXHXHXHX8XOXHXHXHX8XR.8X8XHXHXtX8XPXtXtXtXtXtX2X2X=X=XJ.L.Y.Y.Y.U./.T.^./.E.eXR.OXR.OX8X8X8XeX^.R.eXeXeXeXeX^.8XeXeX8X^.R.^.eX8X8XeXHX8XOX^.OXOXOXR.OXOXR.HX^.^.^.^.^.eX^.^.eXOX^.^.HX^.^.^.HXR.R.R.^.OXR.^.OXOX^.OXOXOXHXHXOXOXOXHXOXOXOXHX^.HXOXOXHXOXHXHXJX8XHXHX8X8XPX8XHX8XeXHX8XeXeXR.eXR.eX8XeXOX8XOXHXOXOXOX8X8XOXOXHXOX^.^.8XeX8XR.eXR.8XeXR.R.R.OX8XeXR.8X^.8XrXR.rXrX8XtXtX2X2X>X>X-X+.@.o.",
"G.G.G.Y.T./.%X$X$X$XOXoX#XGXGX@XGXoXoXoXoXGXGXKXGXGXGXKXKXGXKXGXGXGXGXKXGXGXGXKXGXKXKXMXKXGXKXKXGXoXGXGXGXGXGXGXoXKXoX@XoXoXGXKXKXGXKXGXGXKXGXGXGXKX@XoXKXGXGX@XKXGXGXMXGXoXGXKXMXGXGXKXGXGXoXGXGXGXGXKXGXGXGXoXoXGXGXoXoXGXGXGXoX'.'.oXKXKXMXKXKXKXKXKXKXKXMXKXKXKXGXMXGXKXGXLXGXLXJXJXJXHXPXOXHX8X8X8XOXHXHXHXPX8X8X8XrXrXtX2X2X-X;XO.=XJ.L.U.Y.Y.U./.T.~./.$X^.OX$XOXOXOX+X+X#X+X#XoX@X@XoX@XMXGX#X@XMX@XKX'.[.MX'.'.NXMX'.MXKX'.'.'.@X'.'.'.@X'.'.@X@X].#X@XMX@XMX'.'.'.].NXMX[.[.'.].@X].].MX[.].MX].].].].].].].NXNXNXMXNXMXBXNXNXMXNXNXNXNXNXNXNXNXMXNXNXNXNXNXNXNXNXNX'.MXMX'.NXNXNXNXNX].MX].@X'.NXMXMXNXMXMXMXLXKX'.MXMXMXMXMXKXMX'.'.MXMXMX'.'.MXMXMXBXLXLXPXPXIXyXtXtX7X1X,XG.Y.Y./.S.Y./.T.$X#X$XKX@X@X@XLXMXGXGXMXGXGXGXGXGXGXoXGXGXGXGXGXGXKXGXGXGXoXGXGXGXKXKXKXKXGXMXGXoXGXKXKXoXJXoX@XGXKXoXKX@XGXGXGXGX@XMXGXGX@X'.MXoXKX@X@X'.'.#X'.'.MXMX'.@X@X'.MXMXNX'.'.'.@XKXMXKXMXMXMXMXMXMXMXMXMXNXMXMXMXMXGXGX@XMX@XoX'.KXKXKX'.'.'.@XMXKX@XMXKX'.MXKXKXKXKXMXGXGXMXMXGXGXGXoXMXGXGXGXMXKXoXLXLXMXPXLXPXPX8XyXtXtX7X2X*X*XZ ",
"Y.Y.S.T.T.T.$X%X{.{.#X[.[.].`.[.mXNX`.`.`.`.mXNX`.`.mXmXNXmXmX XmX`.mX`.`.mX].`.NX`.`.`.`.`.`.`. X`.`.mX`.mX`.`.NX`.`.NXmX`.`.mX`.`.`. XmX`.`. XmX X[.`.`.NX`.`.`.`.mXNXmX`.].mXmXmXNXSXmXNXmX].mX`.mX].`.].`. X[.`. X`. X`.`.SX`.mX`.`.`. X`.`.SX X`.SXZX`.mXSXSXmX`.mXmXmXBXBXLXBXMXMXMXBXBXMXNXBXMXNXMX'.KXKXBXBXGXIXIXIXIXtXyX2X2X,XK.K.L.G.S.T./.T.%X$X$X$X[.@X'.@X[.[.'.[.'.].[.].[.NX`.NX`.SX[.`.SX[.mX[.[..X`..X`. X`. X XSX X`..XmX].]. X`.[. X X X X X X X X`..X X X[.mX.X X X.X.X X.X}..X X X X`. X}. X`.`. XmX}.`. XmXZXmXmXSXAX`.`. XZX X`. X X`. X}.SX XZXmX`.SXSXmXZX`. X`.mX`.mXSXmX X X`.mXZX XmX`.`.`.SXmX].`.}.mXSXSXmXSXSX`.DXmXmX XZXmXDXBXVXDXVXCXIXIXuXyXyX7X2X=XP.G.Z.Y.T.T.%X_.%X{.{..X`.`.`.MXBXNXmXBXmXmXZXmXmXmX`.mXmXmXmXmXNX].`.`.`.`.`.`.NX`.`.NX].`.].`.`.].NX].`.`.`..X`.NX.XmX`.].mXmX`. X`.mX`.`.`.`.`.[..X`.`.[.`.[.`.mXSX X`.`. X X`.SX`.`.}. X X X X}. X}.DXmXSXmXmXBXmXmXmXmXBXmXmXmXmXmXmX`.mX`.`.`. X`.SX`. XSX`.ZXmXmXNXSXmXmXBXmXmXmXmXmXmX`.`.[.`.`.mXmXmXmXNXBXBXVXVXIXCXIXIXyXtX7X2X2X1X,X",
"Y.T.T.T.(.%X_.XXXXXX}..X.X}.}.}.ZXZX}.}.}.}.ZXZXZXZX}.ZXZXZXSXZXZXZXSX}.ZXZX}.}.ZXSX}.}.ZXZXZX}.}.}.}.ZXZXZXZXZX}.}.|.}.}.}.}.}.ZXZX}.ZXZXZX}.ZXZX}.}. XZXZX}.}. X}.ZXDXZXZX}.SXSXSX}.ZX X}.}.}.}.ZX}.ZXZX}. XZX}. X X X}. X}. X}.}.}.}.}.}.ZX}.}. X}.ZXZXSXZXSXZXZXZXDXDXDXAXAXZXSXDXSXmXZXmXmXmXmXSXSXmX`.`.mXDXVXDXCXVXIXIXIXyXyXtX2X=X=XM Y.S.S.T.%X%X%XXXXX|..X|.}..X.X}.|.|..X.X|. X}.}.}.ZXZX}.}.}.}.ZX|.|.ZX|.|.SXZX|.SXZXZXZX}.}.ZXZXZXZXSX}. X}. X}. X}.ZXZXZXZX}.}.}.AX|.}.ZX}.|.}.}.}.ZX}.}.ZXZX|.ZX}.}.}.|.}.}.}.}.ZXZXZXZXZXZXZX}.ZXZXZXZXZXZXZXZXZXZXZXZXZXZXZXZXAXZXZXZXZXZXZXZXZXZXZX}.ZXAXZXZXAXZXZXZXZXAXZXZXZX}.ZX}.}.}.}.}.}.ZX}.}.|.SXZXZXFXFXFXCXCXCXCXuXyX7X2X1XI.G.S.m.(.(._._.XXXXXX.XZX}.}.ZXZXZXAX}.ZXZXZXZXZXZXZXZXZXZXmXZXZXmXZXSX}.}.}.}.}.ZX}.}.ZX}.}.}.}.ZXZXZX}.SX|.}.ZX X}.}.}.SXZXSXZX}.}.}.}.}.}. X X}.}. X|.|.|.|..XZX}.}.}.}. X}.|.|. X|.}.}.}.}.ZXZXZXZXZXZX X}.SXZXZXZXZXZXZXZX}.ZX}.}. X}.}.}.}.|.}.}.}.}. X}.}.}.ZXZXZXSXZX X XZX}.SX}.ZXZXZXZX|. XZX}.}.SXSXZXDXDXFXFXFXFXCXIXyXyXyX7X2X-XK.",
"S.C.M.T.z._.XX_.XXXX.X.X.X}. X XZX}.}. X}.}.ZXZXZXSX XZXSX}.SX}.SX}.ZXZX}.ZX}.}.}.ZXZXZX}. XZXZX}.}.}.}.ZX}.ZX}.ZXZX}.ZXSX}.}.ZX X XZX}.}. XZX}.ZX}.}.}. X}.}. XZXZX}.SX}.SXZXZXSXZXZXSXZXZXZXZXZX}.SX}.}.}.}.}.}.}.}.}.}.}.}.}. X X}.ZXZXZX}.}.}.ZX}.}.ZX}.ZXZXZXZXZXZXZXAXZXDXAXAXAXAXSXDXAXZXmXZXSXZXmXSX}.ZXDXFXDXFXVXCXCXIXuXyXyX2X-XL.G.S.T.M.(._._.XXXX_.XX{..X X X.X}..X.X|.|.}.}.}.|.}. XZX}.}.}.}.}..X.XSX X}.ZX X XZX.X`.}.}.ZXZX}.}.}.}.}. X X}.}.}.}.}.}.}.}. X}.}.SX.X.XSX}. X X X XZX X[.`. X X`. X`. X`.`.mX`.ZX`.`. XZXmXZX}.mX}.mX`.ZX}.}.ZX X`.`.mXmXmXSXSXSXZX}.}.}.ZX}.ZX}.SXSXSXSX X X X`.SXmX XSXSX X}.ZXmXSXSXmXmXZXDXmXZXZX`.}.}.DXDXSXDXFXFXCXCXUXUXlXnX7XtX2XQ.S.S.M.z.z.).)._.XXXXXXZXSXZXZXZXSXZXZX XZXZXZXZXZXZXSXZXZXZXZXZX}.ZX X X}.}.}.}. X}.}.ZX}.}.}.}.}.}.}.}.SX X XSX X|. X}.}.}.ZX}.}.}.SXZX}. XZXZX}.}.|. X X X`.SXSXmX XmXSXSX XmXSXSXSX`.`.mXSX XSXmXmXZXDXZXSXDXDXSXSXZXAXSXSXZXSX XZXZXZX}.}.ZX X XmXZX XZXZXDXZXmXZXZXZXZXZXZXZXZXZXZX}.ZXZX}. X}. XZXZXZXZXZXZXVXFXFXFXCXCXUXUXuXyX7X2X>XL.",
"S.M.M.z.).)._._.XXXX.X}..X}.}. XmX}. X}. X XSXZX}. XSXSX X}.mX}.}.ZXSX}. X}.ZXZXZXZX}.ZXZXZXZXZX XSX XSXZXZXSXZXZX X X X X X}.ZXSXSXSXSXSX XSXmX}.SXZX`.}.}.SXZX XZXZXZX}.ZX}.DX}.SXZXZXZX}.ZX}.ZXZXZXSX XSX}.}.SX X X`. X XSX X X}.`. XSXSXmX XZX`. XSXZXmXmXmXZXDXDXZXZXAXAXAXZXAXAXSXAXAXZXZXAXZXZXZXZXZXZX}.AXAXAXFXFXCXUXCXuXnX7XtX1XQ.S.T.M.z.(.).)._.XXXX.X.X|.}.}.|.}.|..X|.|. X}. X}. XZXmX}.mXmX X`.}. X X XmX`. X`.`.`. X`.SXmXmXmXSXmX X[..X`.[.mX[.`.mXNXNXNX].`.'.].[.[.MX].[.NX].MXMX].'.MX@X].'.NXNXMXMXMXLXMXMX'.NXMXmXBXMXMXNXMX].'.MXMX'.NX'.mXNXNXNXNX`.mXNXMXBXNXNXNXNXNX'.`.NXmXmXmX].mXmXmXNX`.mXmXmXmX`.mXSXmX}.}.ZXSXmX`.mX`. X XmXDXmXAXFXFXCXCXUXUXlXuXnX7X1XY.S.T.z.z.z.).)._.XXXX.XmX`.mXZXSXmXmXZXSXSXZXZXSXZXZXZXSXZXZXZXZXZX}.}.ZX}.ZX}.|.}.}.ZXZXZXSXZX}.ZXSXSX XSX}.}.ZX X}. X XZXmX}.}. X}.SXmX X}. XmX X X X X.X X X`.SX X`. X`.SX`.`.`. XSXZXmXSXmXmXmXZXmXmXDX`.mXDXDX XmX`.mXZXmXZX X X X X}.}.ZX}.`.`.ZX X|. X X X}.}. XmXDXZX}. XZXZXSXZXmXZX X XZXZXZXSX XZXDXZXDXFXFXFXCXCXUXUXlXlXuXnX5X2X,X",
"S.M.M.z.z.)._._.{._.[.'.[.'.'.].MX'.'.'.'.MXMXMXMXMXMXMXNXMXMXMX@X].].@X'.].@X].].'.].MX].MX'.'.].'.'.MXMXMX].'.].LXMX'.].NX@XKX@X'.'.'.@X'.@X'.'.KX@XMX'.@X'.'.'.MX'.KX'.@X'.MXNXMXMXMXMXMXMXMX'.'.MX'.].'.].MXNXMXMX'.'.@X].@X'.'.'.KXMX'.'.@X'.'.'.MXMX'.MXMX@XMXMXMXMXMXMXMXBXMXMXNXmXBXBXmXmXmXSXmX`.mXZXSXDXFXFXCXFXUXUXlXlXlXyX7X1XU.S.T.M.z.z.z._._.XXXX{.[..X[.[.[.].'.[.@X[.[.@X'.'.'.oXMX'.'.'.].@X@X'.KX@X'.KXKX@XKXMX@XKX@XoXKXGXoXGXoX@XoXoXoXGXoXoXJXoXJXoXoXoXJXJX+X+XJX+XoX+X+XJXJXHX+XHX+X+XOXOXHXOXOXOXHXHXHXOXR.R.JX8X+XHXHX+X8XJX+XHXJXHXJXHXOXOXJXJXOXJX+XJXJXHX+XoXHXJXoXJX+XJX+X+XJXJX+XGXGXGXGXGXKXGXGXoXKXKX@XKXoXKXoXKXKXMX@X'.KXMXMXVXLXCXCXUXlXUXlXnXnX7X>XG.m.m.k.z.z.).)._.%X%X#XMX'.'.MXMXMXMXNX].KX'.'.'.MX'.NXMXMXNXNX'.].'.].NXNXNX@X].].].LXMXNX].].NXMXMXNX].'.MX'.MX].'.MX'.@XMX'.'.'.'.KX'.MXGXGX@X'.'.'.@X@X@X'.@XKXKX@XKX@X@XoX'.@X@XKXKX@X@X@XoXoX@XGX@XGX'.'.MXKX'.KXMXKXMXMXGXMX'.MX@X'.@X@X'.MXMXMX'.@X'.GXGXMXGXMX@XMXKX@XMX@X'.MXNXMXGXKX'.'.'.'.MX@X'.MXMXBXBXBXFXCXUXUXUXlXnXnXyX7X>X,X",
"m.m.l.f.z.z.).%X%X+XoX$XKX+X+X+XJX+XJXJXOXOXJXHX+X+X+XoXJX+X+XJX+XOXJXOXJXOXOXOXHXJXOXOXJX+XJXJXOXJXOXJXOX+XJXJX+XJX+XJXOXOXHXOXJXOXJXHXOXHXJXOXHXOXoXHXR.+XR.oXOXOXHXHXOXJXJXJXJXoXOXJXJXJXJX+XOXHXJX+X+X+X+XJXGXJX+XoXoX+XJXJXHXJXR.OXR.OXJXOXHXHXOXOXOXHXHXJXJXJXOXJXJXJXJXGXGXGXGXGXMXMXGXMX'.MXMXMXMX'.NXMXKXVXVXIXCXUXUXlXlXnXnX7X2XG.S.m.z.z.f.).).)._.{.#X#X[.+X@XoX#X#XoXoX+X+XOXJXOX+XHXOXOXOXOXOXOXOXR.OXOX8X8XR.8XR.eXR.~.R.8X8X8X8XOXOXR.R.R.eX~.E.~.E.wXeXwXwXwXwXR.^.R.~.wXwXwX~.W.~.~.E.~.wX~.W.!.qXW.qXW.W.W.9X9XqX0XqX!.W.wXE.wXE.9X8XwXE.9XE.wXE.wXW.E.wXwXE.8XwX8X8XR.eXeX8X8XE.R.^.^.eXeX^.eXeX^.^.8X8X8XeXHXeXR.eXR.8XR.HXeXR.R.8XeXR.8X8XPXIXIXyXlXlXlXlXlXnX7X2XY.S.l.M.f.f.z.z.%X/.%X+XHXOXHXOXHXHX+XHX+XJXJXHXJXJXJX+XGXJXGXMXGXHXoXoXoXOX+X+X+X+X+XoXJXoXJX+XGXoX+X+XoXoXJXoXJX+XOXJXOXHXOXOXR.R.OXHXHXHXHXOXR.OXOXOXOXOXR.OXOXR.R.8X8XR.^.OX^.^.R.^.wXwXeX8X8XE.wXR.8X^.R.HXHXeXHXHX8XHXJXOX+XJXJXJXGXHXOXR.R.oXHXOX+X8X8XR.R.8XR.8XHXR.8XHXHXHXHXHXOXJXHXJXHXOXOXOX8XHXR.JXJXPXPXPXIXIXCXlXlXlXlXkXnX7X4XL.",
"m.M.l.f.f.z.M.(.T./././.eXrX~.^.wXE.~.E.E.wXwXwX9X9X9XwXW.wX9XwXwX~.W.wXW.~.W.~.~.~.wX~.wXeXwXwXwX~.W.~.W.W.~.~.~.~.8XwX8X~.wX~.wXwX~.wXwXwXwXwX8XwX9X8X8X9X8X8X9XwXwXwXwXwX~.W.!.W.W.wX9X9XW.~.W.W.wXW.W.W.~.qX~.qXW.W.W.W.9XW.9X9X9X9XW.W.W.!.qXW.qXW.W.!.qX9X9XW.W.W.wXwXrXwXrX8XwXrX8X8X8X8X8X8X8X8XOXHXHXHXPXPXPXIXIXlXlXlXlXlXnX7X*XU.C.m.l.f.z.z.(.(.$X%X$X+X$XE.R.OX^.R.^.^.E.^.^.eXwXwXwXwXwXwXW.W.!.!.W.!.qXQ.!.qX!.!.qXW.!.!.W.!.!.W.!.qX!.qXqX!.qXqX!.!.!.Q.!.!.!.qXQ.Q.0XI.I.<XI.I.I.I.<X0X<X<X<X<X<X<X<X,XP.,XP.,XU.I.<X0X<XQ.I.<X1X1X,XU.P.P.=X1XU.P.<X<X<X<X<X<X<X0X0X!.!.Q.!.!.qX0XqX0X0XqX!.qX0X0XqX0X!.!.qX!.0X0X0X!.0X!.qXqXqX!.qXqX0XqXqXqXqX7XyXyXnXkXkXkXdXsX3X>XH.B.x.k.z.f.z.M.M.T././.!.!.qXW.qXqXW.W.~.wXwXwXwX~.~.eX9X9XE.E.wXE.E.8XwXwXwXeXwX~.wXwX!.9XW.W.W.W.9X~.wX9XW.~.W.W.~.wXwXwXwXwXwXwXwXwX~.wX~.wXwXwX~.W.!.!.!.Q.Q.qXqXQ.0X0X0X0X0X0X0X0X!.Q.Q.!.qX9XqX0X0X0X0X0X0XqXqX9XqXqX!.W.!.qXW.W.9XW.9XW.W.W.9XE.9X9XE.8X9X9X8X8XwXwXwXwXwXwX~.~.wXwXwXwXwXwXwXwX~.wXE.8XwXrXrX8XyXyXnXlXlXkXlXkXnX3X5XJ.",
"n.k.d.f.f.z.M.T.T./.Q.Q.<X<XU.I.I.<XI.<X<X<X<X<X<X<X<X<X<X<X<X<X<X0X0XI.<XQ.Q.I.I.I.I.I.I.<X<X<X<X<X0X<X0XI.I.Q.<XI.<XI.<XI.I.I.<XI.I.I.I.I.<XQ.P.I.I.I.,XU.I.I.I.<X<XI.<X<XI.,X<X,X<X<X<X<X<X<X0X0X<X<XI.Q.I.<X<X<XI.P.I.I.I.<XI.I.U.I.I.I.<X<X<XI.<X<X<XI.I.0X0X<XI.<X<X<XI.Q.<X0X9XqX9X9X9XE.wXW.9X9X!.!.0XqXqXtXtXtXnXlXlXkXkXkXdX7X1XG.S.c.f.f.f.z.M.(.T././.!.W.!.!.qX!.Q.Q.I.Q.I.<XI.I.I.<XI.<X<XI.I.P.I.<X<X,XP.,XP.,X,XP.P.P.P.P.,X,X,X,X1X<XP.P.P.P.P.,X,X,X,XK.P.,XK.K.K.K.K.=XK.K.=XK.K.=XJ.L.=X=XJ.K.L.=X,X,X,X,XP.,X=X=XK.K.=XJ.=XL.K.,X,X,X,X,XU.1X,X=XK.K.K.=X=XL.K.=X=XP.P.K.K.=X=X=X=X=XK.K.=XP.P.,X,X,XP.P.,X,X,X,X,X,XP.,X,X,X,XP.,X,XP.P.,X,X2X7X7XnXdXkXkXdXsX7X2XY.m.k.f.f.f.l.l.M.S.Y.U.I.I.<X<X1X<XU.I.<XI.I.<X<XI.I.I.<X<X0X<X,X<XI.<XI.I.I.I.0X0X<XI.0X<X<X0X<X0X<X0X<X<X<X<X<XQ.0XI.I.I.I.I.I.I.I.I.P.I.P.<X,X<X,XP.P.P.<XP.P.I.,XP.,XP.P.,XP.P.,X,X<X,X,X,X,XP.P.,X,XP.P.P.P.P.I.,X<X1XI.I.I.I.I.I.,X<X<X,XP.P.<X<X<X<X,X<X<XP.U.<X,XP.P.P.P.<X,XI.I.P.P.I.I.<X<X<X<X<XI.<X<X1X0X2XtX7XnXlXkXkXkXkXbX7X7XJ.",
"m.k.k.f.d.l.m.C.S.L.K.L.=X=XJ.K.O.O.=XJ.&XJ.&X&X=X=XK.J.K.K.K.K.K.=X=X=X=X=X=XJ.J.J.&XJ.J.J.J.=XK.=XJ.J.=X=XJ.J.J.=XZ &XJ.&X&XO.J.J.J.J.J.J.J.J.&XZ J.&XO.O.J.J.J.J.J.J.J.=X&X=XK.=XK.=X=X=X=X=XK.K.P.K.K.K.J.=XK.K.K.K.K.=XK.=X=X=X=X=X=XJ.K.K.=X=XJ.=XK.J.J.J.&X&X=X=X&XJ.K.K.&X=X=XK.L.=X=X,X=X=X,XL.U.<X0XI.Q.1X2XyXnXnXkXkXkXjXnXbX>XG.N.k.k.f.f.f.m.m.Y.Y.U.P.L.,XP.K.J.K.=X=XK.J.J.J.J.J.J.J.=XJ.K.K.K.K.=XJ.=X=X&X=XJ.K.=XJ.J.J.J.=X=XO.J.J.J.J.J.J.&X=X&XJ.O.=X=XJ.J.&X=X=X&X&X&X&X&X&X=X&X&X&X&XO.&XO.&X&X&XO.O.O.O.O.O.O.O.O.O.&X&XJ.H.J.J.=X=XJ.L.-X*X=X&XJ.Z K.&X=X&XJ.K.&X&X&XJ.J.&X&XK.J.=XJ.&XJ.J.K.J.K.J.=XK.J.J.K.K.J.K.K.K.J.=XJ.K.J.=XJ.=X&X=X>X7XbXsXsXfXjXdXsX3X>XG.C.j.k.a.a.h.c.m.Y.Y.L.K.K.J.K.J.=XK.K.O.&XO.&X&XJ.J.J.&X&X=XJ.=X&XL.J.=XK.J.K.J.K.K.&X=XK.J.=XK.J.K.K.K.K.K.K.=X=X&XH.J.J.=XZ J.J.J.J.J.=XJ.J.J.K.J.K.=X=XK.J.J.=X=X=XJ.=XK.K.K.K.J.K.&XJ.&XK.J.=X&X=X=XK.=XJ.K.K.J.K.=X=XK.J.K.J.K.=X,X=X=X,X=XZ Z O.Z V Z Z Z O.&XJ.&X=X&XJ.J.=XJ.J.J.J.=XJ.J.K.J.Z O.&XJ.&XK.*X&X;X7X7XcXsXdXjXjXjXvX6X5X=X",
"m.k.k.a.d.k.m.S.S.U.P.L.=XK.L.=X=XJ.=X=X=XJ.J.K.K.K.K.K.=X=XK.,XK.P.K.=X=X=X=X=X=X=X=X=XK.J.K.=XK.K.=X=XK.=X=X=X=X=X=XK.=X=X=XK.K.=X=X=X=X=X=XK.=X=X=XK.K.=X=X=X=X=X=XK.K.=XK.=X=X=XK.K.K.=XK.P.P.K.=XP.K.K.K.=X=X=X=X=XK.K.J.K.J.J.K.&X=X=X&X&XJ.&XJ.=X=X&X=X=X=X=X=X&XK.=X=XK.P.P.,XP.P.P.=XP.1XP.K.,XK.J.K.-XJ.-X>X2X3XnXjXkXdXdXsX3X;XG.b.k.d.d.f.d.m.m.Y.G.L.P.U.K.K.,X=XK.=XK.=XK.=X=X=X=XK.=X=XK.K.K.K.K.K.J.K.=XP.=X=XK.=XK.=X=X=X=X=X=X=XK.K.=X&X=XJ.O.J.J.&X=X&X&X=X&XJ.K.=XJ.=XK.=XK.K.K.K.=X=X=X&XK.=X=X&X&XO.J.J.J.H.J.K.=X=X=XK.K.-X=XZ Z Z Z Z Z J.J.&X=X=XK.K.K.=X&X&X&X&X&XO.&X=X=X=X=X=XJ.=X=X=XJ.J.&X=XO.&X&X&X=X=X=X=X=X=X=XK.K.K.=X=XK.=X-X=X:X5X3XsXdXgXgXsXvX3X-XG.B.j.s.d.a.d.c.N.S.L.L.K.K.=XJ.=X=X=XJ.=X=X=XK.=X,X=XK.K.-XP.K.,X,XP.P.K.,XK.K.L.=X=X=X=X=X=X=X=XK.K.K.K.=X=XK.K.=X=X=XK.=X=X=XK.=XK.=X=X=X=XK.K.K.P.K.=XJ.=X&X=XJ.&X&XK.K.J.K.J.K.=XJ.=X=X&X=XJ.K.K.J.K.K.K.K.J.K.K.K.&X=X=XJ.K.K.K.J.K.J.L.=XK.=X=X=X=X=X=X=XK.K.-XK.K.=XK.K.J.K.K.K.=X=X=X=X=X=X=X=X=X=XK.K.L.=X,X1X7X7XbXdXdXgXkXsXvX3X7X&X",
"y 8 4 a.a.h.n.C.D.H.O.Z +.Z J.O.=X&X&X&X&X=X&XJ.Z O.Z O.O.O.O.V O.Z O.o.Z Z Z O.J.J.&XZ &X&XO.Z O.O.O.Z Z V O.&XJ.J.&X&X&XJ.J.&X&X&XJ.&XJ.J.&X&XJ.&XJ.&X&XJ.Z Z &XJ.O.O.O.J.Z Z O.Z O.O.o.O.o.Z O.o.O.O.@.O.O.O.O.o.O.O.o.Z O.O.O.o.O.O.o.Z Z Z Z Z o.Z Z V o.O.O.O.C Z O.O.&XZ &XO.J.J.Z o.O.&XZ J.-X=XJ.Z J.Z &X;X:X4X3XsXsXjXgXfXpX*.+.Z.C.x.d.d.d.l.n.n.S.G.J.=XJ.&XJ.&XO.&XO.O.O.O.O.O.&X&XJ.&X&XO.Z Z O.@.O.O.O.o.O.O.o.O.Z V Z Z o.O.o.O.Z V V Z O.O.O.O.O.O.O.V Z &XO.Z O.O.O.o.o.O.o.O.Z o.o.O.O.O.O.V Z Z J.&X&X&XJ.&X&X&XJ.Z Z o.o.O.Z Z Z Z O.&X&XO.O.O.O.O.o.O.o.O.Z Z Z O.O.O.O.O.O.V V Z O.O.Z Z Z Z Z V Z O.Z Z Z O.Z V V V O.o.O.Z O.O.o.Z O.O.O.$.-.*.zXaX8.fXjXvX3X;XF.b.x.4 4 3 8 w t x B C Z Z Z O.O.Z O.Z O.&X&XJ.J.J.&XJ.Z &XO.H.O.&XJ.O.Z J.&XO.O.&XO.O.o.O.O.O.O.O.o.V O.o.o.O.@.C o.&XZ &XJ.&X&XJ.Z Z Z Z Z O.O.o.O.O.Z Z Z &Xo.O.O.O.O.O.O.O.O.O.o.O.o.O.O.Z O.Z O.Z O.o.o.O.O.o.O.@.Z o.Z O.Z V Z Z O.o.o.O.Z O.&XJ.O.Z &X&X&X&XZ Z O.O.&XO.&X&XJ.Z J.Z Z Z O.&X&X&X&X&XJ.*XJ.+.Z *X$.5XbXpXkXjXjXiXpX6X-.O.",
"n.j.s.p.s.9 t z x N Z C O.Z Z O.Z Z O.Z J.O.O.Z O.O.O.O.&XO.O.O.O.O.O.O.Z V Z &XJ.&XZ O.&X&XO.Z O.O.O.O.Z Z Z J.O.O.O.O.O.O.O.O.O.Z O.O.O.O.O.O.O.O.O.O.&XO.Z Z Z O.O.O.O.O.O.O.O.O.O.O.O.O.O.O.O.O.O.o.O.O.O.O.O.O.O.O.Z Z O.V Z Z Z Z Z O.&X&X&X=X&XJ.Z Z Z Z O.Z Z &XO.O.+.&X+.Z V V Z Z Z &XO.Z Z Z Z =X=XJ.L.-X;X>X3XzX5.hXgXfXvXbX;XD.b.c.4 4 2 d.v.b.Z.F.J.Z J.O.Z Z Z &XO.O.O.O.O.O.O.Z Z &XO.O.O.Z O.O.O.O.O.O.O.O.O.O.O.O.O.O.Z O.Z Z J.J.J.Z O.O.Z Z Z O.o.O.O.O.O.O.O.O.O.O.O.O.O.O.O.O.O.O.O.O.O.O.Z Z Z Z O.O.&X&X&XO.Z Z Z O.o.Z V Z O.&XO.Z O.&XO.O.O.Z Z Z Z o.O.o.O.O.O.O.O.O.O.O.O.@.O.o.o.O.Z Z O.Z Z Z O.O.O.Z Z Z O.o.O.O.O.O.O.o.O.Z O.O.&X:X5X6XzXiXhXgXiXvXxX:XD.b.x.p.d.p.h.x.N.x D.L.J.Z Z O.O.Z Z Z Z O.J.Z Z &X&XO.Z o.o.Z o.Z Z o.Z Z &XO.O.O.O.O.O.O.O.&Xo.O.O.O.O.Z Z Z Z Z Z J.&XO.O.O.O.&X&XZ J.J.Z J.&X&X&XZ Z Z Z Z Z Z Z Z O.O.O.Z O.O.Z Z o.Z O.Z Z Z Z &XZ Z O.O.Z O.O.V O.O.&X=X=X&XZ Z O.O.Z Z V Z &XJ.O.O.O.O.&XO.O.O.J.J.J.J.J.Z Z J.&XO.O.O.O.O.O.Z Z &XJ.O.C +.O.O.-.;.t.5.2.9.fX3.pX3X4XJ.",
"m.k.g.a.p.j.n.A.x H.J.J.Z J.J.O.J.O.&XO.O.O.O.O.O.=X&X&XJ.&X&XZ O.&X&X=XJ.=XJ.J.O.O.O.&XJ.Z &X&X&XJ.&X&X&X=X&XZ O.O.O.O.O.O.O.O.O.O.O.O.O.O.O.O.O.O.&XO.Z O.O.O.&XJ.O.Z &X&X&X&XO.&XJ.J.&X=XO.&X&X&XJ.=XJ.&X=XJ.&X&XJ.&X&X&X=X&X=X&XJ.&X=XJ.Z =XJ.J.J.J.J.=X=X=X&XJ.J.J.O.&XZ Z Z &XJ.J.J.&XJ.J.J.&XO.Z O.O.O.o.O.+.$.$.xXvXaXgXjXjXsXcX-XG.b.w s.4 4 4 v.N.x M C J.J.O.&XO.O.J.O.O.O.O.O.J.Z &X&XO.O.&X&XJ.J.=XJ.&XJ.&X=XJ.&X&X=X&X&X&XJ.O.=XJ.&X&X&X&XO.O.&X=X=XJ.J.=X=XO.O.&XO.J.&X=XJ.=XO.&X&XJ.&X&XJ.J.&XJ.J.J.&X&X&XO.O.J.Z J.*X&X&XK.J.K.=X&XO.O.O.O.O.Z &X&XJ.&X=X&XK.J.&X=XJ.J.&XJ.J.J.&XK.J.J.=XJ.&XJ.=X&X&X=X&X&X&XO.J.J.&X&X&X=XJ.&X&X=XJ.&X=XJ.J.&X=X:X5X6XvXsXgXfXaXvX3X:XF.b.j.p.s.a.h.x.N.Z.G.J.J.&XJ.O.O.J.=XJ.O.O.J.&XO.O.J.*XJ.Z J.K.&X-XL.=XJ.J.Z J.&XJ.O.&X&XJ.&X&X&X&X&X=XJ.&X=XJ.&X=XJ.Z O.Z O.O.O.O.O.&XO.O.&XO.O.O.J.&X&X&X=X&X&X&X=X&XO.&X&X&XO.&X&X&X&XK.=X&X&X&X&X&X&X&XJ.&XJ.=X&X=X&XJ.J.J.J.J.&X&XJ.J.J.=XJ.Z O.O.O.O.O.O.Z O.O.O.O.O.O.O.O.O.O.+.Z O.&XO.O.O.&XO.&XZ Z &XZ +.O.*X4X-.cXpXhXfX2.5.vXxX5XO.",
"y 0 2 3 4 h.b.z Z.F.*XJ.&XO.H.O.&XO.O.O.O.O.Z &XO.O.O.O.O.O.O.O.O.Z Z Z O.Z Z Z Z O.O.O.O.O.O.O.O.Z O.Z Z Z O.O.O.O.O.O.&XO.O.O.O.O.O.O.O.J.O.O.O.Z O.O.O.O.O.O.&XZ O.O.O.O.&XO.O.O.O.Z O.O.O.O.O.O.O.O.O.O.o.O.O.O.O.O.O.O.O.O.Z O.O.Z O.O.O.O.O.O.O.Z O.Z Z Z O.O.O.O.O.O.Z O.O.&X&X&X&XO.&XZ O.O.Z O.O.O.+.J.J.-X;X4X3Xe.3.0.8.0.aX=.;XG.V.h.s.s.s.k.w l x N Z A &XZ O.&XZ O.Z O.O.O.O.O.O.O.O.O.O.O.Z Z O.Z O.O.O.O.O.O.O.O.o.Z O.O.O.O.O.V O.Z O.O.&XO.Z O.Z o.O.O.O.O.O.O.Z O.O.O.O.O.O.O.O.O.O.O.O.O.O.O.O.Z O.O.O.O.O.O.Z Z O.Z Z O.Z O.O.O.&XZ &XZ O.O.O.Z O.Z O.Z Z Z O.O.O.O.O.O.O.O.O.O.Z O.O.o.O.O.O.O.O.O.O.O.O.O.o.Z O.O.O.O.O.o.O.O.O.O.O.O.Z O.Z $.-.:.y.3.2.8.hXaXr.#.M t j.4 3 2 3 v.z z C A J.Z Z O.O.O.O.O.O.O.O.O.O.O.&XO.&X&X&X&XO.Z Z o.O.O.Z &XO.O.O.O.o.O.Z O.J.o.O.O.Z O.O.Z O.Z O.Z O.O.O.Z &XO.O.O.O.O.O.O.O.O.O.O.Z O.O.O.O.O.O.o.o.O.O.O.O.O.O.O.O.O.O.O.O.O.O.O.O.O.O.O.O.O.O.O.O.O.O.O.Z O.O.O.Z Z O.Z O.O.O.O.O.&XO.O.O.Z &XO.&XZ O.O.O.O.O.O.O.O.O.&XO.O.O.&XJ.O.O.*XC +.Z *X$.5Xe.pXhXgXiXiXpXxX5XJ.",
"t 8 s.2 g.8 v.A.Z.F.&XH.+.O.J.O.Z O.O.O.O.O.O.O.O.O.O.O.O.O.O.O.O.O.&XO.O.O.&XO.&XO.O.O.O.&XO.O.O.O.O.O.O.O.&XZ O.O.O.O.O.O.Z O.O.O.O.O.O.O.O.O.O.&XO.O.Z &XO.&XO.O.O.O.O.O.O.O.O.O.O.Z O.O.O.&XO.O.O.O.O.O.O.O.O.O.O.O.O.O.O.O.O.O.Z O.O.O.O.O.Z &X&XZ O.&XO.Z O.O.O.O.O.O.&XO.O.O.O.&XO.O.O.Z O.O.O.J.O.J.&XZ Z O.;X-.6XvXsXhXfXiX4.3X;XM B.8 a.p.p.j.x.V.z C O.C &XO.O.J.O.O.O.&XO.O.O.O.O.&XO.O.O.O.O.O.O.&XO.&XO.O.O.Z O.O.O.O.O.O.O.O.O.O.Z O.O.O.O.O.O.Z O.O.O.O.O.Z O.O.O.O.O.O.O.O.O.Z O.O.O.O.O.O.O.O.O.O.O.O.O.O.O.O.O.O.&XO.O.O.Z &XO.O.O.O.O.O.O.O.O.O.O.O.O.O.&XO.O.O.O.O.O.O.O.O.O.O.O.O.O.O.O.O.O.&XO.O.Z O.O.O.O.O.O.O.O.O.O.Z O.O.O.O.O.O.J.+.O.:X-.>.zXaXfXfX0.vX3X:XN b.8 s.s.p.4 v.A.z H.C &XJ.O.O.O.O.O.O.O.O.&XZ &XO.Z O.J.Z J.O.O.&XO.O.&XO.O.O.O.O.O.J.&XO.O.O.&XO.O.O.O.O.Z O.O.O.O.O.O.O.O.O.O.O.O.O.O.O.O.Z &XZ &XO.&XO.O.O.O.O.O.O.O.O.Z O.O.O.O.O.O.O.O.O.O.O.O.O.O.O.O.O.Z &XO.O.O.O.O.O.O.O.O.O.O.O.O.O.O.O.&XO.Z O.O.O.O.O.O.O.O.O.O.O.O.O.O.O.O.O.O.Z &XZ O.O.Z O.O.&XC *XZ *X:X>.r.pXfXfXfX3.pX6X5XJ.",
"t 8 g.2 4 7 t V.x H.J.J.O.O.J.&XJ.O.Z O.O.O.O.O.&XZ O.O.O.O.O.O.O.O.O.O.O.O.O.O.O.O.O.O.O.O.&XZ O.O.O.O.O.O.O.O.&XO.O.Z O.O.&XO.Z &XO.O.O.O.O.O.&XO.&XZ O.O.&XO.O.O.O.O.O.Z Z O.O.O.Z J.O.O.O.Z O.O.O.O.O.O.O.O.&XZ O.O.Z O.O.O.O.O.O.O.O.Z O.O.O.O.O.O.O.O.O.O.&XZ Z &XO.O.O.O.O.O.O.O.O.O.O.O.O.O.J.&XO.&X&XJ.Z +.;X4X:.zXiXfXiXhXpXxX#.M l 8 g.p.p.7 w V.A.F.O.C &XZ O.&XO.&XO.&X&XZ &XZ O.Z O.&XO.O.O.O.O.O.O.Z O.O.O.O.O.O.O.O.O.O.O.O.O.O.Z &XO.O.O.&XO.O.O.O.O.O.O.O.O.O.O.O.O.O.O.O.O.O.O.O.O.O.O.O.O.O.O.O.O.O.O.O.Z O.O.O.O.&XO.O.O.O.O.Z O.O.O.O.O.O.&XO.Z O.O.O.O.O.O.O.O.O.O.O.O.O.O.O.O.O.O.O.O.O.O.Z O.O.O.O.O.O.O.O.O.O.&XO.O.O.O.&XO.O.O.O.O.O.O.$.4X:.zX3.fXfX3.vXxX:XD.B.9 s.s.2 s.w z V.F.H.O.O.O.O.O.O.O.&XZ &XO.O.Z O.O.O.Z O.O.O.O.Z O.&XZ O.O.O.O.O.O.O.J.O.O.O.Z O.O.O.O.O.O.O.O.O.O.O.O.O.O.O.O.O.O.O.O.O.O.&XO.&XO.O.O.O.O.O.O.O.O.O.O.O.O.O.O.O.O.O.O.O.O.Z O.O.O.O.O.O.O.O.O.O.&XO.O.O.O.O.O.O.O.O.O.O.O.O.O.O.&XO.&XZ O.O.O.O.O.O.O.O.O.O.O.Z Z &XO.O.O.O.O.O.O.O.&XO.J.*XC +.Z &X-.5XxXvXiXfXfXiXvXr.-.Z ",
"v.8 p.p.s.h.b.z x F.O.H.O.&XZ J.&XO.O.&XZ O.O.O.O.O.O.O.O.Z O.O.O.O.O.O.O.O.O.O.O.O.O.O.&XZ O.O.O.O.O.O.O.O.O.&XZ O.O.&XO.O.O.O.O.O.O.O.O.O.O.O.O.O.O.O.O.O.Z O.O.O.O.O.O.&XO.&XO.O.Z -X=XS O.O.O.O.O.O.O.Z O.O.O.O.O.O.O.O.O.O.O.O.O.O.O.O.O.O.O.O.O.&XO.O.O.O.O.O.O.O.O.O.O.O.O.O.O.O.O.O.O.O.O.O.J.Z O.&XO.Z Z *X;X4X6XvXiX0.iXhXpXxX#.x V.8 g.s.p.h.v.B.A.F.Z N &XZ &XZ O.O.O.O.O.O.O.O.O.O.O.O.O.O.O.O.O.O.O.O.O.O.O.O.O.O.O.O.O.O.O.O.O.O.O.O.O.O.O.Z O.O.O.O.O.O.O.O.O.O.O.O.O.O.O.O.O.O.O.O.O.O.O.O.O.O.O.O.O.O.O.O.O.O.O.O.O.Z O.O.O.O.&XO.O.&XZ &XO.Z O.O.&XO.O.O.O.O.O.O.O.Z O.O.O.O.O.O.O.O.O.O.Z O.O.O.O.O.O.O.O.O.O.O.O.O.Z O.O.O.O.J.O.O.O.O.Z +.O.%.5X*.zXiXfXfXiXaXxX#.D.b.9 s.s.4 s.v.V.z F.H.&XO.O.O.&XO.Z O.O.O.O.O.O.O.&XO.O.O.O.O.O.O.O.O.O.O.O.O.O.O.O.O.&XO.O.O.O.&XO.&XO.O.O.O.O.O.O.O.O.&XZ O.O.O.O.J.O.O.O.O.O.Z O.O.O.Z &XO.O.O.O.O.O.O.O.O.O.O.Z O.O.O.O.O.O.O.O.Z O.O.Z O.O.O.Z O.O.O.O.O.O.O.O.O.&XZ O.O.O.O.Z O.O.O.O.O.O.O.&XO.O.O.O.O.O.&XO.O.Z O.O.O.O.O.Z &XJ.O.Z &XH.*XZ *X$.;.zXpXhXfXfXiXpX6X5X&X",
"b.h.p.2 g.h.b.z x H.&XH.O.O.J.O.J.O.Z &X&XO.O.O.O.O.O.O.&XZ O.O.O.O.O.O.O.O.Z O.O.O.O.Z O.O.&XO.O.O.O.O.O.O.O.Z &XO.Z &XO.&XO.O.Z &XO.O.O.O.&XO.O.O.Z &XO.O.O.O.O.O.Z &X&XZ O.O.Z O.O.O.O.O.O.O.O.O.O.O.O.O.O.O.O.O.O.O.O.O.Z O.O.O.O.O.O.O.O.O.O.O.O.Z O.&XO.O.O.Z O.O.O.Z O.O.O.O.O.O.O.O.O.O.O.O.J.Z O.J.O.&XJ.*X;X-.:.y.3.0.8.3.4.xX#.M B.h.2 p.p.h.v.V.A.H.Z H.&XO.O.&XO.Z O.O.O.O.O.O.O.O.O.O.O.O.O.O.Z &XO.Z O.O.O.O.O.&XZ &XO.O.O.O.O.O.O.Z &XO.Z &XO.O.O.O.O.O.O.O.O.O.O.O.O.O.O.O.&XO.O.O.O.O.O.O.O.O.Z O.O.O.O.O.O.O.O.O.O.O.&XO.O.Z O.O.O.O.O.O.O.&XO.O.O.O.O.O.O.O.O.O.O.O.O.O.O.O.O.O.O.O.O.O.O.O.O.O.Z O.O.O.O.O.&XZ O.O.O.O.&XZ O.Z O.O.O.O.&XO.Z $.4X:.zXiXfXfXaXvXxX:XD.B.j.s.4 2 g.v.V.V.F.C O.O.O.O.O.O.O.O.O.Z &XO.O.O.O.O.O.O.O.O.O.Z &XO.O.O.O.O.&XO.O.O.O.O.O.&XO.O.O.Z Z &XO.Z O.O.O.O.O.&XO.O.&XO.O.O.O.O.O.O.O.O.O.O.O.O.O.O.O.O.O.O.O.O.Z O.O.O.O.O.O.O.O.O.Z O.O.&XO.O.O.O.O.O.O.O.O.O.O.O.O.O.O.O.Z O.O.&XO.O.O.O.O.O.O.O.O.O.O.Z &XO.O.O.O.&XO.O.&XO.O.O.&XZ O.O.Z J.Z *XZ +.O.*X-.;.cXpX8.fXiXiXpX6X5XJ.",
"v.8 p.2 p.8 y A.Z.H.&XZ O.&XH.&X&XO.O.O.O.O.O.O.O.O.O.O.O.O.O.O.O.O.&XO.O.&X&XO.O.O.O.&XO.O.Z O.O.O.O.O.Z O.O.O.Z O.O.O.O.Z O.O.O.O.O.O.O.O.Z O.Z O.O.O.O.O.O.O.O.O.O.O.O.O.O.O.O.O.O.O.&XO.O.O.O.O.O.O.O.O.O.O.O.O.Z &XO.O.&XO.O.O.O.Z O.O.O.O.O.O.O.O.O.Z O.O.O.&XO.O.O.&X&XO.O.O.O.O.O.O.O.O.O.O.&XZ O.J.&XJ.H.*X;X-.>.e.3.0.0.0.6.xX+.M B.h.s.p.p.7 v.l x N J.F.O.O.O.Z O.O.O.O.&XZ &XZ O.O.Z O.&XO.O.O.O.O.&XO.O.&XO.O.O.Z O.O.O.Z O.O.O.O.O.O.O.O.O.O.O.Z O.O.O.O.O.O.O.O.O.O.O.O.O.Z O.O.O.O.O.O.O.O.O.O.&XO.O.&XO.O.O.O.O.O.O.O.Z O.O.&XO.O.O.O.O.O.O.O.Z &XO.O.O.O.O.O.O.O.V O.O.O.O.O.O.O.O.O.O.O.O.O.O.O.&XO.&XO.O.O.O.O.O.O.O.O.O.O.O.J.O.&XJ.O.O.+.Z :X4X>.zXiXfXfXhXpXr.;XD.B.9 s.2 p.4 w V.x F.C &X&XO.Z O.O.&XZ O.O.O.O.O.&XO.Z O.O.O.O.O.&XZ O.&XO.&XZ Z O.O.O.O.Z O.O.O.O.O.O.O.O.O.&XO.O.O.O.O.Z O.O.Z O.O.O.&XO.O.&XO.O.Z O.O.O.&XZ O.&XZ O.O.O.O.O.O.O.O.O.O.O.O.O.&XO.O.O.O.O.O.O.O.Z O.O.O.O.O.O.O.O.&XZ &XO.O.O.O.O.O.O.O.O.O.O.Z &X&XO.Z O.Z &XO.O.O.O.O.O.O.O.O.O.O.O.J.Z J.&XH.O.Z +.:X5Xt.pXhXfXhXiXvXxX5XZ ",
"t 8 s.2 7 8 v.A.x H.&XH.+.O.H.&XZ &XO.O.O.O.O.&XO.O.O.O.O.O.O.O.O.Z Z O.O.O.&XO.O.Z O.O.&XZ O.O.O.O.Z &X&XO.O.O.O.O.O.O.Z O.O.O.O.O.&XO.&XO.Z O.&XO.O.O.O.O.O.&XO.O.O.O.Z O.O.O.O.O.O.O.O.Z O.O.O.O.O.J.O.O.O.O.O.O.Z O.O.O.O.O.O.O.O.O.O.O.O.O.O.O.O.O.O.O.O.&X&XO.&XZ O.O.&XO.O.Z O.O.O.O.O.O.O.&XZ J.O.J.&XZ J.*X;X4X3XzX3.9.0.hXaX:.#.D.N.h.s.p.p.h.v.V.Z.F.O.H.O.O.O.O.O.&XO.O.O.O.O.O.O.O.O.&XZ O.O.Z O.O.O.O.O.O.O.&XO.O.O.O.O.&XZ &XO.O.O.O.O.O.O.O.O.&XO.O.O.O.O.O.O.Z O.O.O.O.&XO.Z &XO.O.O.O.O.O.O.O.O.O.O.O.O.O.O.O.&XO.O.O.O.O.O.O.O.O.O.O.Z O.O.O.O.&XO.O.O.O.O.O.O.O.&XO.C O.O.O.O.Z &XO.O.O.O.O.O.&XZ &XZ O.O.O.O.O.O.O.Z O.O.O.O.J.O.O.O.O.Z *XZ :X4X3XzXiXfXfXiXpX*.;XD.B.9 s.4 p.s.v.z V.H.C O.O.O.&XO.O.O.O.O.O.O.O.O.O.O.&X&XO.O.O.O.O.O.O.O.O.O.O.O.O.O.O.&XZ O.O.&XO.O.&XO.O.O.O.O.O.O.O.O.O.O.O.O.O.&XO.Z O.O.Z O.O.&XO.O.O.O.O.O.O.O.O.O.&XO.O.O.O.O.O.O.O.O.O.O.O.&XZ O.O.O.O.O.O.O.O.O.Z Z &XO.O.O.O.O.O.O.O.O.O.J.O.O.O.Z O.O.O.&XO.O.O.O.O.&XZ O.Z O.O.O.O.O.O.&XZ J.Z Z *XH.*XZ &X$.>.xX4.3.8.2.iXpX3X;.J.",
"y 7 4 2 4 7 y z x H.&XJ.O.&XJ.&XJ.O.O.Z &XO.O.Z J.O.O.O.O.O.O.O.O.&XO.O.O.O.Z O.O.&XO.O.O.O.O.O.&XO.O.O.O.O.O.O.O.O.O.O.&XO.O.O.O.O.O.O.Z O.&XO.O.O.O.O.O.O.O.Z O.Z &XO.&XO.O.O.O.O.O.O.O.O.&XO.O.O.O.O.O.O.O.O.O.O.&XO.O.O.&XO.O.O.O.O.O.O.O.O.O.&XZ O.O.O.O.O.O.O.O.O.O.O.Z O.O.&XO.O.O.O.J.O.O.O.J.&X+.J.O.&XZ +.:X-.6XzXiXhX0.3.5.xX;Xx k j.2 2 s.7 9 V.x F.&XH.O.&XO.J.O.Z O.O.O.O.O.O.O.O.O.O.&XO.O.&XO.O.O.Z &XO.O.Z O.O.O.&XO.O.O.O.O.O.O.&XO.Z &XO.O.O.O.&XZ O.O.O.O.O.O.O.O.O.O.O.O.O.O.O.O.O.O.O.O.Z O.O.O.O.Z O.O.O.Z O.O.O.&XO.O.O.O.O.Z &X&XO.O.O.O.Z O.O.J.O.O.O.O.O.O.O.-X,XS O.O.&XZ O.O.O.O.O.O.O.O.O.O.O.O.O.O.O.O.O.&XO.O.&XO.J.O.&XJ.O.J.*XJ.:X4X>.e.5.fXfXiXpXxX:XD.l j.s.2 p.s.x.V.z F.N &XO.Z O.O.O.O.O.O.O.O.&XZ O.O.O.O.Z O.&XO.O.O.O.O.O.O.O.O.O.O.O.O.O.O.O.O.Z O.O.&XO.O.O.O.&XZ O.&XO.O.Z &XO.Z O.O.O.O.O.O.O.O.O.O.&XZ O.O.O.O.O.Z O.O.O.O.O.O.O.O.O.O.Z O.O.O.O.O.O.O.O.O.O.O.O.O.&XO.O.O.O.O.O.O.Z &XO.O.O.O.O.O.O.&XO.O.O.Z O.O.O.&XO.O.O.O.&XO.O.Z &XO.O.O.O.J.&XZ O.J.*XZ +.:X5XzXpXfXfXiXiXy.r.;.Z ",
"t 8 2 2 7 7 t z x H.O.C O.O.Z J.Z Z &XO.&XZ O.O.&XO.Z &XO.O.O.&XO.O.O.O.Z O.O.O.O.O.O.O.Z &XO.O.O.O.&XO.O.O.O.J.&XO.O.O.Z O.O.O.O.O.Z O.O.O.O.O.O.O.&XO.O.O.O.O.&XZ O.O.O.O.O.O.O.O.O.O.O.O.Z O.O.O.&XZ &XZ O.O.&XO.O.&XO.O.&XO.O.O.O.O.O.O.&XO.O.O.Z O.O.O.O.O.O.O.O.O.Z O.O.O.O.O.Z O.O.O.O.O.O.&XJ.O.O.J.&XJ.J.&X;X-.6Xy.aX8.3.hXaXxX:Xx b.x.4 p.g.4 n.k x F.O.H.&XO.O.Z &XO.O.O.&XO.O.O.O.O.O.O.O.O.O.O.O.O.Z O.O.O.&XO.O.O.O.O.O.Z O.O.O.Z &XO.O.O.O.O.O.O.O.O.O.O.O.&XO.O.O.O.O.O.O.Z O.O.O.O.O.O.&XO.Z &XO.O.O.O.O.O.O.O.O.O.O.O.O.O.O.O.O.O.O.O.O.Z O.O.O.O.O.O.O.O.O.O.&XZ O.&XZ O.O.O.O.O.O.O.O.O.O.O.O.O.O.O.J.O.O.O.O.O.O.Z O.O.O.O.O.Z &XO.J.O.&X+.Z :X-.3Xe.6.fXfX3.5.xX:XM b.9 g.p.4 g.r l A.C N O.O.O.O.O.O.O.O.O.O.O.O.O.O.Z O.O.&XO.O.O.O.O.O.O.Z &XO.O.O.O.O.O.O.O.O.O.O.O.O.O.O.O.&XO.O.Z O.O.O.O.O.O.O.O.O.O.O.O.O.O.O.O.O.O.&XZ O.O.O.Z O.O.O.O.O.O.O.O.O.Z &XO.O.O.O.O.O.Z &XO.Z &XZ O.O.O.O.O.&XO.O.Z &XO.Z &XO.O.O.O.O.O.O.O.O.O.O.O.O.Z &XO.O.O.O.O.O.Z &XO.O.O.O.O.O.O.O.&XZ J.*XH.+.;X5XxXpXhX8.fXiX4.r.-.O.",
"r 9 p.2 p.9 b.z D.H.&XH.&X*XJ.*X&XJ.O.O.O.O.O.O.O.O.O.O.O.O.O.Z O.&XO.O.&XO.O.O.O.O.O.O.O.O.&XZ O.O.Z O.O.O.O.O.O.O.O.O.&XO.O.O.O.O.&XO.O.O.O.O.O.O.Z O.&XO.O.O.O.O.O.&XO.O.Z O.O.O.O.O.O.O.&XO.O.O.O.O.O.O.O.O.O.Z O.O.O.O.Z O.O.O.Z &XO.O.Z O.&XO.&XO.Z &X&XZ O.O.O.O.&XO.O.O.O.O.&XO.O.O.O.O.O.O.Z J.O.J.O.Z J.+.#.4X3Xe.0.8.iX2.6.3X#.Z.B.9 4 2 2 g.r z A.F.&XC &XO.O.O.&XO.O.O.Z O.Z &X&XZ O.O.Z O.O.O.O.O.&XO.O.O.Z O.O.O.O.O.O.&XO.O.O.O.O.O.O.O.&XZ O.O.O.O.O.O.O.Z O.O.O.O.O.O.O.&XO.Z O.O.O.O.O.O.O.O.O.O.O.O.Z &XO.O.&XZ O.O.J.O.O.O.O.O.O.&XO.&XO.O.O.O.O.O.&XZ Z &XO.O.O.O.O.O.O.O.O.O.O.O.O.O.O.O.Z &XO.O.O.O.O.O.O.O.O.&XO.O.O.J.O.&X&XO.J.O.Z *X&X#.-.6Xe.3.8.fX5.5.*.#.M B.j.7 p.s.s.v.V.z H.N &XO.O.O.O.O.O.O.O.O.Z &XO.O.&XO.O.Z O.O.O.Z &XO.O.&XZ O.O.O.Z &XO.O.Z &XO.O.O.Z O.Z O.O.O.O.&XO.O.O.Z O.O.O.O.O.&XZ &XO.O.O.&XZ O.O.O.O.O.&XO.&X&XO.O.&XO.O.&XZ O.O.O.O.O.O.O.O.O.O.O.&XO.O.O.O.&XO.O.O.O.O.O.O.O.O.O.O.O.O.O.O.O.Z &XO.O.O.O.O.O.O.O.&XO.O.Z O.O.O.O.O.O.O.O.O.O.O.&XO.J.+.J.+.:X>.xXaXfX8.iX2.4.xX>.O.",
"r 8 7 2 p.8 v.z x F.O.H.O.O.J.O.Z &XO.O.O.O.O.O.O.O.O.O.O.O.Z O.O.O.&XO.O.&XO.O.O.&X&XO.O.O.O.O.&XZ O.O.O.O.O.O.O.O.O.O.O.&XO.O.O.O.&XZ O.O.Z O.&XO.O.O.Z O.O.O.O.O.O.Z O.O.&XO.J.O.O.O.O.O.&XO.O.O.O.O.O.O.O.O.Z O.O.O.&XZ O.O.O.Z O.O.&XZ O.O.O.O.O.O.O.O.O.O.Z O.O.O.O.O.O.O.O.O.O.Z O.O.Z O.O.O.Z &XO.&X*XJ.H.*X#.4X:.e.iX0.0.0.5.*.#.Z.l x.s.3 2 h.r B.A.N O.C &XO.O.O.O.O.&XO.O.O.O.&XO.O.O.O.&XO.&XO.O.O.O.O.O.O.O.O.O.O.O.O.O.O.O.O.O.O.O.O.O.O.O.O.O.O.O.&XO.O.&XO.O.&XZ &XO.O.O.O.O.&XO.Z Z &XO.O.O.O.O.&XO.O.O.O.O.&XO.O.O.O.O.O.O.O.O.O.O.Z O.O.&XZ O.O.Z O.O.O.O.O.O.O.&XZ O.O.Z &XO.O.J.O.&XO.O.O.O.O.O.O.O.O.O.O.&XO.O.O.O.O.O.O.O.J.O.Z &XO.&X*XZ :X-.>.zX5.8.8.5.5.*.#.M b.x.s.2 s.s.w V.z H.N O.O.O.O.O.O.&XO.O.O.&XZ O.&XZ O.O.O.&XO.O.&XO.O.O.O.O.O.O.O.O.O.O.O.&XZ O.O.O.&XZ O.O.O.O.O.O.O.O.O.&XO.&XO.O.O.O.O.O.O.O.O.O.O.Z O.&XO.O.O.O.O.O.O.O.Z O.O.O.O.O.O.O.O.O.O.O.O.O.O.O.O.O.O.O.O.Z O.O.O.O.O.O.O.O.O.O.O.O.Z &XO.O.&X&XZ O.O.O.O.O.O.O.Z O.O.&XO.O.O.O.Z O.&XO.O.O.O.Z &XJ.+.Z +.:X;.r.aXiXfX2.iXpXxX4XJ.",
"b.8 2 2 2 7 b.V.Z.F.*XH.*XO.H.&XJ.J.O.O.Z &XO.O.O.O.O.O.&XO.O.&XZ O.O.O.O.Z O.O.Z O.O.O.O.O.O.O.O.O.O.O.O.O.O.O.Z &XO.O.O.Z O.O.O.O.O.O.O.O.&XO.O.O.Z &XO.O.&XZ O.&XO.O.O.O.O.O.O.O.O.O.O.O.Z O.O.O.Z &XZ &XO.O.&XO.O.O.O.O.O.O.O.&XO.O.O.O.O.O.Z O.O.O.O.O.O.O.&XO.O.O.O.&XZ O.O.O.&XO.O.O.&XO.O.O.O.&XO.&X&XZ J.*X#.4X*.y.5.8.3.0.5.*.4Xx t x.s.2 4 g.w z A.N O.H.O.O.O.&X&XO.Z O.O.O.O.O.O.O.O.O.O.O.Z O.O.O.O.J.O.O.O.O.O.O.O.O.O.O.O.&XZ O.O.O.&XZ O.O.O.O.O.Z O.O.Z O.O.Z O.O.O.O.O.O.O.O.O.&XO.O.O.O.O.Z O.Z O.O.&XO.O.Z O.O.O.O.O.O.O.O.&XZ O.O.O.&XO.O.O.O.&XO.Z &XO.O.O.O.O.O.&XO.O.O.O.O.O.O.Z O.O.O.&XO.Z &XO.O.O.&XZ O.O.O.O.&XZ O.O.J.O.&XZ &XZ O.J.:X-.3XvX3.8.0.3.aXr.$.M b.w 7 p.3 s.w V.A.C F.&XO.O.O.O.O.O.O.O.O.O.O.O.O.O.O.O.O.O.O.O.Z O.O.O.O.O.O.O.Z &XO.O.O.O.O.&XZ O.O.&XO.O.O.&XO.O.Z O.O.O.O.Z O.O.O.O.&XO.Z O.O.O.O.&XO.O.O.O.Z &XO.O.O.O.O.O.O.O.O.&XO.O.Z Z &XO.O.&XO.O.O.O.O.O.O.O.O.&XZ O.O.O.O.O.O.&XZ O.O.O.O.O.O.O.O.O.O.O.J.O.O.O.O.O.O.O.O.&XO.O.&XO.Z O.O.O.O.J.Z J.*XH.*X:X5Xr.pX2.8.hXiXpX3X5XJ.",
"v.8 2 2 p.9 t z x H.&XH.*XZ H.&X&XZ O.O.O.O.&XO.Z &XO.O.O.O.O.O.O.Z O.O.O.O.O.O.O.O.&XO.O.O.O.O.O.O.O.O.Z &XO.O.O.O.&XO.O.O.O.&XO.O.&XO.Z O.O.O.O.Z &XO.O.O.O.O.O.Z &XO.O.&XO.O.Z &XO.O.O.O.O.O.&XO.O.O.Z &XO.O.O.O.O.O.O.O.O.O.O.&XO.O.O.Z &XO.&XO.O.O.O.O.O.O.O.O.O.O.O.Z O.O.O.O.O.O.Z O.O.O.O.O.J.&XO.&XO.J.J.+.#.-.:.e.3.9.0.3.4.*.#.x B.9 4 p.2 4 r l A.F.O.H.O.O.O.Z &XO.Z &XO.O.O.O.O.O.O.O.O.O.O.&XO.O.O.O.Z O.O.O.&XO.O.Z O.O.O.O.&XO.O.O.&XO.O.Z &XO.O.O.O.&XO.O.&XO.Z O.&XO.O.O.O.O.O.O.O.O.Z O.O.&XO.O.O.&XZ O.&XO.O.O.Z O.O.Z O.O.O.O.O.O.O.O.O.O.O.O.Z O.O.O.O.O.O.O.O.O.Z O.O.&XO.O.O.&XZ O.O.O.Z O.O.O.O.O.O.Z O.O.O.&XO.O.O.O.+.J.O.O.&XZ J.+.J.:X-.:.e.3.8.8.3.5.6X#.M t j.7 p.p.g.r l V.Z F.&XO.O.O.O.O.O.O.O.O.O.O.O.O.O.O.O.Z &XO.O.O.O.O.O.O.O.O.O.O.Z O.O.O.O.O.O.O.Z &XO.O.O.O.O.O.O.&XO.O.O.&XZ O.O.O.O.O.O.O.O.Z O.O.O.O.O.O.O.O.Z O.Z &XO.O.O.O.O.O.Z O.O.&XO.O.O.O.Z O.O.&XO.O.O.&XZ &XO.O.Z O.O.O.O.O.O.O.&XZ O.O.O.&XO.O.O.O.O.O.&XZ O.O.&XO.O.O.&XZ O.O.O.&XO.O.O.O.&XO.J.+.J.*X$.5XzXvX3.8.fXiXpX:.;.J.",
"r 8 2 2 2 8 r z x H.+.H.*XZ Z &X&XJ.O.O.&XZ Z O.O.O.O.&XO.O.O.O.O.&XO.O.O.O.J.O.O.O.Z O.O.O.O.O.O.&XZ O.O.O.O.O.O.O.O.O.O.O.O.Z O.O.O.O.&XO.O.O.O.O.O.O.O.O.O.O.O.O.O.O.O.Z O.O.O.O.O.O.O.O.&XO.O.O.O.O.O.O.O.&XO.O.O.O.O.O.O.O.O.O.O.O.O.&XZ O.O.O.O.&XO.O.O.O.O.O.O.&XO.&XO.O.Z &XO.&X&XO.O.O.O.O.Z &XO.Z O.&XC ;X$.5X:.e.aX8.hX0.5.*.#.x B.9 2 s.4 4 v.V.x F.O.C &XO.O.&X&XO.O.O.O.O.O.O.&XO.&XZ Z &XO.Z &XO.O.O.&XO.&XO.Z O.O.&X&XZ &XO.O.O.&XO.O.O.O.O.Z O.O.O.O.Z O.O.O.O.O.O.O.O.&XO.O.O.O.O.O.O.&XO.O.O.O.O.O.Z O.O.O.O.O.O.&XO.O.&XO.O.O.O.O.O.O.O.O.O.O.O.&XO.O.&XO.O.O.O.O.O.&XO.O.O.O.O.O.O.O.O.O.O.O.O.O.O.Z O.O.O.O.O.O.Z O.O.O.O.Z J.O.O.J.&XJ.*XJ.:X5X:.e.3.8.8.3.4.3X#.N N.j.s.p.p.4 r V.z H.N &XO.O.O.O.O.O.O.O.&XO.O.O.Z &XO.O.O.O.O.O.O.O.O.Z O.O.O.&XO.&XO.O.O.O.O.&XO.O.O.O.O.O.O.O.O.O.O.Z O.O.O.O.O.O.O.O.O.O.O.O.&XO.J.O.O.O.O.O.O.&XO.O.O.O.Z O.J.O.O.&XO.O.O.O.&XZ O.O.O.O.O.O.O.O.Z O.O.O.Z &XO.O.O.Z &X&XO.O.O.O.O.O.Z O.O.O.O.O.O.O.O.O.O.Z O.Z &XO.O.O.O.O.Z O.O.&XO.J.O.J.+.C *X:X;.r.pXhX8.iXiXvXxX5XO.",
"b.9 p.p.g.7 t k D.F.O.H.&X&XH.&XJ.J.O.O.O.O.O.O.O.O.O.Z &XO.O.Z O.O.O.O.O.O.O.O.&XZ O.O.O.O.Z &XO.O.&XO.O.O.O.O.O.O.O.Z O.O.O.O.&XZ Z &XO.O.O.O.Z O.O.O.&XO.O.O.&XO.O.O.O.O.O.O.O.O.O.O.O.O.&XZ Z O.O.O.O.O.O.Z O.O.O.O.O.O.O.O.O.&XO.O.O.O.O.O.O.O.O.Z O.O.O.O.O.O.O.Z &XO.&XZ O.O.&XO.O.O.O.O.O.O.J.&XO.&XO.J.J.*X#.-.:.e.iX8.2.0.y.:.4Xx k w s.2 2 s.v.l A.F.O.H.&XO.O.O.O.O.O.O.O.O.O.O.&XZ O.O.O.O.O.&XO.O.O.O.O.O.Z O.O.O.O.O.O.O.Z O.O.O.Z O.O.O.&XO.O.O.O.O.O.O.O.O.O.Z &XO.O.Z Z O.O.O.O.O.O.J.O.O.O.O.O.O.O.O.O.O.Z O.O.O.O.Z O.O.&XZ O.O.O.O.O.O.O.J.O.O.O.O.O.O.O.O.&XO.O.O.O.O.O.O.O.O.O.Z O.O.O.&XO.O.Z &X&XO.O.O.&XO.O.O.O.Z &XO.Z J.O.O.Z J.J.O.Z :X-.3XvXiX8.fX3.5.:.#.N b.x.7 2 2 s.w V.A.C F.O.O.O.O.O.O.O.O.Z O.O.O.O.&XO.O.O.O.O.O.J.O.O.O.&XO.O.O.O.O.O.O.Z &XO.O.Z O.O.O.O.O.O.O.&XO.O.O.&XO.O.Z O.O.O.&XO.O.O.O.O.O.O.O.O.O.O.O.O.O.O.O.O.O.O.&XO.O.O.O.O.O.O.O.O.O.O.O.O.&XO.O.O.O.Z O.O.O.O.&XO.O.O.O.O.O.&XO.O.O.O.O.&XZ O.O.&XO.O.O.O.O.O.O.Z O.O.O.O.O.O.O.O.O.O.O.O.O.J.O.J.+.H.+.:X;.cXaXhXfX0.fX4.3X5XZ ",
"v.9 2 2 2 9 t V.M A o.C O.Z J.O.Z &XO.O.O.O.O.O.O.O.O.O.Z O.O.&XZ &XO.O.O.O.O.O.O.O.O.O.&XZ O.O.O.O.O.O.O.O.O.O.&XZ O.&XO.O.Z &XO.O.O.O.O.O.O.O.&XO.O.O.Z O.O.O.O.O.Z &XO.Z &XO.O.O.O.&XZ O.O.O.&XO.O.O.O.O.O.O.O.O.Z &XJ.O.O.O.O.Z O.O.O.O.O.O.O.O.O.O.O.J.O.O.&XZ O.O.O.O.O.O.O.O.Z O.O.O.O.O.O.J.Z &XO.Z &XJ.J.+.#.-.r.e.aXfX0.2.4.bX;XD.b.9 s.p.s.h.r V.x F.J.Z &XO.O.O.&XO.O.O.O.O.&XZ O.O.O.O.O.O.O.O.Z O.O.O.O.O.O.O.&XO.O.O.O.O.O.O.&XZ O.O.&XZ O.O.O.O.O.O.O.O.O.O.O.&XO.O.O.&XO.O.O.O.O.O.O.O.O.O.O.&XZ O.O.O.O.O.O.&XO.O.&XO.O.&XO.O.O.O.&XZ O.O.O.O.O.O.O.O.O.O.&XZ Z O.O.O.O.O.O.Z O.O.O.&X&XO.O.Z &XO.O.O.O.O.O.O.Z O.O.&XO.O.O.O.O.J.O.O.&XZ J.&XZ $.-.>.vX3.8.fXaX5.3X#.M y 8 g.p.2 k.w B.A.N H.&XO.O.O.O.&XO.O.O.O.&XO.O.Z O.&XZ O.O.O.O.O.O.O.O.O.O.&XZ O.O.O.O.O.O.&XO.O.O.O.O.O.Z &XZ O.&XZ O.O.O.&X&XO.O.Z Z &XO.O.O.O.O.O.O.O.Z &XZ &XO.O.O.&XO.O.O.O.O.O.O.&XZ O.O.O.O.O.O.Z O.O.O.&XO.O.&XO.O.O.O.&XZ O.O.O.Z O.O.O.O.O.O.O.O.O.Z O.O.O.O.O.&XO.O.&XO.O.O.&XZ O.O.O.O.O.O.O.Z &XJ.+.Z +.$.5Xr.vXfX8.iXiXaXxX5XJ.",
"y 8 s.2 4 7 y l x C C C &XO.J.Z O.J.O.O.O.O.O.O.O.O.O.&XO.&XO.O.O.O.O.O.O.O.Z &XO.O.O.&XO.O.O.O.&XO.O.O.O.&XO.O.O.&XO.O.O.O.O.Z O.O.O.O.O.Z O.O.O.O.O.O.O.O.&XO.O.O.&XO.O.O.O.O.O.O.O.O.O.O.O.O.O.&XZ O.O.Z O.O.O.Z O.O.O.O.&XZ O.Z O.O.O.O.O.O.O.O.O.&XO.&XO.O.O.O.O.O.O.O.O.O.O.O.O.O.O.O.&XZ O.O.O.Z O.O.&XO.J.*X$.-.3Xe.5.8.fX3.4.3X$.M l 9 s.4 2 h.n.l x H.&XH.O.O.&XO.O.&XZ O.O.O.O.O.&XO.O.&XO.O.O.O.O.&XO.O.Z O.O.O.O.O.O.O.O.O.O.O.&XO.O.O.Z &XO.O.O.O.Z &XO.&XZ O.&XO.O.O.&XO.O.O.O.O.O.O.O.O.O.O.O.O.Z &XO.O.O.Z O.O.O.O.O.O.&XZ O.Z O.O.O.O.O.O.O.O.O.O.O.Z &XO.O.O.O.O.O.O.O.O.O.&XO.O.O.O.O.O.Z O.&XZ O.O.O.O.O.&XO.O.&XZ Z O.O.O.O.O.O.O.J.Z J.+.Z ;X4X3Xe.iX0.8.hXpXxX#.N t x.4 p.2 g.w B.Z.M H.O.O.O.O.O.O.O.O.O.Z &XO.O.O.O.O.O.O.O.O.O.O.Z O.O.O.O.Z &XO.O.O.O.O.&XZ O.O.O.O.&XO.O.Z O.O.Z O.O.O.O.O.O.O.O.O.O.O.O.Z O.O.O.O.O.O.O.O.O.O.J.O.O.O.O.Z &XO.O.O.O.O.O.O.O.O.O.O.&XO.O.O.O.O.&XO.O.O.O.O.Z O.O.O.O.O.&XO.O.O.O.O.O.O.O.O.O.O.O.O.Z &XO.O.O.Z O.O.&XZ O.O.&XZ O.O.O.J.J.Z J.+.O.O.#.5Xr.pXfX8.fXiXaXxX5XZ ",
"n.9 4 2 4 x.y l D.H.J.C &XZ J.&XJ.J.O.O.O.O.O.O.O.O.O.Z O.Z O.O.O.O.O.O.O.O.O.O.O.O.O.Z O.O.O.O.Z O.Z &XO.O.O.Z O.O.O.O.O.O.O.&XO.O.O.O.O.&X&XZ O.O.&XO.O.O.Z O.Z &XZ O.O.O.O.O.O.O.O.O.,XS O.O.O.O.O.&XO.&XO.O.O.&XO.O.O.O.O.O.O.&XO.O.O.O.O.O.O.O.O.Z O.Z O.O.O.O.O.O.O.&XO.O.J.O.O.O.O.O.O.O.O.O.O.&X&XO.O.O.J.+.;X-.3Xy.aXfX8.8.e.xX#.D.t 9 4 4 2 8 9 l x M Z H.O.&X&XO.&XZ O.O.O.O.O.O.Z O.Z O.O.Z O.O.O.Z O.O.&XO.Z O.O.O.O.O.&XZ &XO.Z O.&XO.O.O.O.O.O.J.O.O.O.O.O.O.Z O.O.O.Z O.Z &X&XO.O.O.&XZ O.O.O.O.O.O.O.&XO.&XO.O.O.&XO.O.O.O.O.&X&XO.O.O.&XZ O.O.Z O.O.O.O.O.Z &XO.J.O.O.O.O.O.O.O.O.O.O.O.O.&XO.O.O.O.O.O.O.O.O.O.O.O.O.&XO.O.O.O.O.&XO.J.Z J.*XZ :X5X*.y.hX0.8.iX4.r.#.M b.x.s.2 s.g.x.V.x D.C O.O.O.O.&XZ O.O.O.O.O.O.O.O.Z &XO.O.Z &XO.&X&XO.O.O.O.O.O.O.O.&XO.O.O.O.O.O.O.O.O.O.O.&XO.O.&XO.O.O.O.O.O.O.O.O.O.&XO.O.O.Z &XO.O.Z &XO.O.O.O.O.Z O.O.O.O.O.O.O.J.O.O.O.O.O.O.Z Z O.O.&XZ O.O.O.O.O.O.O.&XO.O.O.O.O.Z O.Z &X&XO.O.O.Z O.O.O.O.O.O.O.&XZ O.&XO.O.O.O.O.O.O.O.&XZ O.&XZ &XJ.+.&X*X:X;.r.4.fXfXiXiX4.*.>.J.",
"r 9 s.3 4 7 y z x C J.C &XO.J.J.O.J.O.O.Z &X&XO.O.O.O.O.O.O.O.O.&XO.O.O.O.O.O.O.O.O.Z O.O.O.O.O.O.O.O.O.&XZ O.Z O.O.O.&XO.O.O.O.O.&X&XO.O.O.O.O.O.Z Z O.Z &XO.O.O.O.&XO.O.O.Z &XZ &XO.O.-XO.O.O.O.O.O.O.O.O.O.O.O.O.&XO.O.O.O.O.O.&X&XZ &XZ Z &X&XZ O.O.O.O.O.O.O.O.O.Z O.Z O.O.O.O.O.O.O.O.O.O.O.O.O.O.Z O.O.O.Z +.$.-.3Xe.pXfXfXiXpXxX$.D.B.7 4 3 4 7 r k x N Z J.O.&XO.O.O.&XO.Z O.O.&XZ O.O.O.O.O.&XO.&XO.O.O.&XO.O.&XO.O.O.O.O.O.O.Z O.O.O.Z O.O.O.O.O.O.O.O.O.O.O.O.O.O.O.O.O.O.O.O.O.&XZ O.O.O.O.O.O.O.O.O.O.O.Z &XO.&XZ O.Z O.O.O.Z O.O.O.O.O.O.O.O.O.&X&XO.O.O.O.Z O.O.O.O.O.O.O.O.O.O.O.Z &XO.O.O.O.O.O.O.O.O.O.Z Z O.O.O.O.O.O.O.O.O.O.O.&XO.J.O.H.+.O.$.-.=.y.5.hX8.iXpXxX#.D.t 9 4 4 p.8 x.b.Z.N C &XO.O.O.O.O.&XO.O.O.O.O.O.O.&XZ O.Z O.O.O.O.O.O.O.O.O.O.O.O.O.Z O.O.O.&XO.O.O.O.O.Z O.O.O.O.O.O.O.O.O.O.O.J.Z &XO.O.&XO.O.&XO.O.O.&XO.O.O.O.O.O.&XO.O.O.O.O.O.O.O.O.O.O.O.O.O.&XO.O.O.O.&XO.Z &XZ O.O.O.O.O.O.O.O.O.O.O.O.O.&XZ O.O.&XO.&XO.O.O.O.O.O.O.&XO.&XZ O.O.O.O.O.O.O.O.O.&XJ.Z J.*XO.+.:X-.cXpXiXfXiXiXpX*.5X&X",
"y 9 4 3 4 0 y l Z.C H.Z &XO.Z &XJ.O.O.O.O.O.Z O.J.O.O.O.O.O.O.&XO.O.Z &XO.O.O.O.O.O.&XO.O.O.Z &XO.O.&XO.O.O.O.&XO.O.O.Z O.O.O.O.Z O.O.O.O.O.O.O.O.&XO.O.O.O.O.O.O.O.O.O.O.O.O.O.O.O.O.O.C O.O.O.O.O.O.O.Z &XO.&XZ &XZ O.O.O.O.O.O.O.O.O.O.O.O.O.O.O.O.O.O.O.O.O.O.O.O.&XO.O.O.O.O.O.O.O.&XO.Z &XO.O.O.O.O.O.&XO.J.*X;X4X3XzXiXfXfX3.vX:.#.M b.9 4 4 3 8 w V.x N O.C O.Z O.O.O.O.O.&XO.O.O.O.O.O.O.&XO.O.O.Z O.O.O.Z O.O.O.O.O.&XZ O.&XO.O.O.O.O.O.O.O.O.O.O.O.O.O.O.&XZ O.O.O.&X&XZ O.O.O.O.O.O.O.O.O.O.&XZ O.O.O.O.O.O.O.O.O.O.O.O.O.O.O.&XO.O.O.O.&XZ O.O.O.O.O.O.O.O.O.&XO.O.O.O.O.O.O.O.&XZ O.&XZ O.O.O.&XO.O.O.O.O.O.&XO.O.Z &XO.O.O.O.O.&XO.O.O.O.O.O.J.+.O.%.-.>.y.0.8.8.3.4.xX#.D.t j.s.p.p.h.w B.Z.M H.&XO.O.O.O.O.O.O.Z O.O.O.O.O.O.O.O.&XO.O.Z O.O.O.&XZ O.O.O.O.O.O.&XO.O.Z O.J.O.O.O.O.O.Z &XO.O.O.&XO.O.O.O.O.O.O.O.O.O.O.O.Z O.O.O.Z O.O.O.O.O.O.O.O.O.O.O.O.&XZ O.O.O.O.O.O.O.O.O.&XZ O.O.O.O.O.&XO.O.O.O.O.J.O.&XZ O.O.O.O.O.O.O.O.O.O.Z O.O.O.O.O.O.O.O.O.O.O.Z &XO.O.&XO.O.O.Z &XJ.Z J.*X&X*X$.-.xXpXiXfXiXfXpXxX5XJ.",
"t 9 4 3 4 8 r k D.C J.C &X&XZ O.&X&XZ O.O.O.&XO.O.O.O.O.&XO.O.O.O.&XO.O.Z O.O.O.O.&XO.O.&XO.O.O.Z &XO.O.O.O.O.O.O.&XO.O.&XO.O.O.O.O.&XO.O.O.O.O.O.O.O.Z &XO.O.O.O.O.O.O.O.O.Z &X&XZ O.&XO.O.O.&XO.O.O.O.O.O.O.Z O.O.&XO.Z &XO.O.O.O.Z &XO.O.O.O.O.Z O.O.O.O.O.O.O.O.&XO.O.Z O.O.O.O.O.O.O.O.O.Z O.O.J.O.O.O.O.O.Z *X;X4X6Xy.aXfXfX0.e.3X$.M t j.4 4 2 8 w l x B Z H.Z J.&XO.O.&XO.O.O.O.Z &XO.O.O.O.O.O.&XO.O.O.O.&XZ O.O.O.O.Z &XO.O.O.O.O.O.O.O.O.O.O.&XO.O.O.O.J.O.O.O.&XO.O.O.O.O.O.O.O.O.O.O.O.O.O.O.O.O.O.&XZ O.O.O.&XO.O.O.O.Z O.O.O.&XO.O.O.O.O.&XZ O.O.O.O.O.O.O.O.O.O.O.O.O.O.O.&XZ O.O.O.O.O.O.&XZ O.O.O.J.O.&XZ O.&XO.O.&XZ O.O.O.Z O.Z O.O.&XO.J.+.&X#.-.:.4.3.8.fX3.4.xX$.N b.x.s.2 s.g.x.V.Z.D.C O.O.O.O.O.O.O.O.&XO.O.O.O.O.O.O.O.O.Z O.&XO.O.O.Z O.O.&XO.O.O.O.O.O.&XO.O.O.O.O.&XO.O.O.Z &XO.O.Z O.&XZ O.O.O.O.O.O.O.O.O.O.O.&XO.O.O.O.Z &XO.O.O.O.O.O.O.&XZ O.O.O.O.&X&XO.O.&XO.O.O.O.O.O.O.O.O.O.O.O.O.O.O.O.&XO.O.O.O.O.O.O.O.O.O.O.O.O.O.O.Z O.O.O.O.Z &XO.Z &XO.O.O.O.O.&XO.J.O.O.J.+.O.O.$.;.zX4.hX8.fXiXpXxX;.J.",
"y w s.3 4 7 r l x H.J.C &XO.J.&XZ J.O.O.O.O.O.O.O.O.O.O.O.O.Z O.O.O.Z &X&XO.O.O.O.O.O.O.Z O.O.O.O.O.&XZ O.O.O.O.O.Z O.O.Z O.Z &XO.O.Z O.O.O.O.&XZ &XO.O.O.O.O.O.Z &XO.O.O.O.O.O.O.O.O.O.O.O.O.Z Z &XO.O.O.O.O.O.O.O.O.O.O.O.O.O.O.O.O.O.O.O.O.O.O.&XO.O.O.O.Z &XZ &XO.O.&XO.&XZ Z O.O.O.O.O.O.&XO.O.O.O.O.O.O.O.Z *X#.4X3XvX6.fXfXiXpX*.:XM t 9 g.2 2 7 v.l A.N Z C Z J.O.O.O.J.O.&XO.O.O.O.&XZ O.O.Z O.Z O.O.O.O.O.O.O.O.&XO.O.O.O.O.O.O.O.Z &X&XO.&XZ Z O.O.O.O.O.O.O.O.Z O.O.&XZ O.O.O.O.&XO.&XZ Z &XZ &X&XO.O.O.O.O.O.Z O.O.O.O.&XO.&XO.Z O.O.O.O.O.O.O.Z &XO.O.O.O.O.&X&XZ O.O.Z &XO.O.O.O.O.O.Z &XO.O.O.O.O.O.O.O.O.O.O.O.O.O.O.O.&XO.O.O.O.O.O.O.Z O.J.*XO.$.-.6Xe.iX8.8.3.y.xX#.D.b.j.4 p.2 g.w l Z.M H.&XO.O.O.O.O.Z &XO.O.Z &XO.&XO.O.O.O.&XO.O.O.O.O.&XO.O.O.O.O.O.O.O.Z Z O.O.O.O.O.O.O.O.O.O.O.O.O.O.O.O.O.O.O.O.O.Z &XO.O.O.O.O.Z O.&XZ O.O.O.O.O.O.O.O.&XO.O.O.O.O.O.O.Z O.O.Z O.O.O.O.O.&XZ O.Z O.&XO.O.O.O.O.O.Z O.O.O.O.&XO.O.&XZ Z &XZ &X&XO.&XO.O.O.O.O.O.O.O.O.O.O.O.O.O.O.O.J.&XZ &X+.O.+.:X4XxXvX0.gXhXiXpXr.5XJ.",
"t x.4 p.3 j.y l x C J.C &X&XJ.&X&XJ.O.O.&XZ O.Z O.O.O.O.O.O.O.O.O.O.O.O.&XO.&XZ &XZ O.Z O.O.O.O.O.O.O.O.O.Z &XO.O.O.O.O.O.Z O.O.&XZ O.O.O.O.O.Z O.O.&XO.O.O.O.&XO.&X&XZ O.Z O.O.O.O.O.O.O.O.O.O.&XZ O.O.O.O.O.O.O.O.Z &XO.O.O.O.O.O.O.O.Z &XO.O.O.&X&XO.O.&X&XO.O.O.&XO.O.O.O.O.&XO.O.O.O.O.O.O.O.O.O.O.O.O.O.O.C *X;X5X3XzX3.fXfXiXvX*.$.M t 8 4 4 a.7 0 B.x N Z H.&XZ &XO.O.Z O.&XO.O.O.O.O.O.O.O.&XO.O.O.O.O.&XZ &XO.O.O.O.O.O.O.O.O.O.O.&XZ O.O.O.O.O.O.O.O.O.O.O.O.Z O.O.O.O.O.O.O.O.Z &XZ O.O.O.O.O.O.&XO.O.O.O.O.Z O.O.O.O.O.&XZ O.O.O.O.O.O.O.O.O.Z O.O.O.Z &XO.O.O.O.O.O.O.&XZ O.O.O.&XO.O.O.O.&XZ O.O.O.O.O.O.O.O.O.O.O.Z O.&XO.O.O.O.O.O.O.O.J.O.J.*XZ ;X5X:.y.iXfX8.0.vX:.;XM b.h.4 s.2 h.x.B.Z.D.J.O.O.O.O.O.O.O.O.O.Z O.O.O.&XO.O.&XZ O.O.O.O.O.O.O.O.O.O.O.O.J.O.O.O.O.O.O.O.O.O.O.O.Z &XO.O.O.O.O.O.O.O.Z &XO.O.O.&XO.O.O.O.O.O.O.O.&XO.O.O.O.O.O.Z O.O.O.O.O.&XO.O.Z O.O.O.O.O.O.&XO.O.O.O.O.&XO.Z &XZ O.Z O.O.O.O.O.O.O.Z &XZ O.O.O.O.O.O.&XO.O.O.O.O.Z O.O.O.O.O.O.O.O.O.O.Z &XZ &XZ &XO.&X*X#.4Xr.pXiX8.fX3.4.xX5XZ ",
"y 0 4 3 7 8 r k x N Z H.&XZ Z &XJ.Z &XO.O.O.O.&XO.O.O.O.Z &XO.Z O.O.O.O.Z O.O.O.O.O.O.&XO.O.&XZ O.O.O.O.O.O.O.O.O.O.&XO.O.&XO.O.O.O.O.O.&XZ O.O.O.O.O.O.O.O.O.Z O.O.O.O.O.&XO.O.Z &XO.O.Z &XO.O.O.O.O.O.O.&XZ O.O.O.O.O.O.O.&XO.O.O.O.O.O.O.O.O.O.O.Z O.O.O.Z O.O.O.Z O.O.O.O.O.O.O.&XZ O.O.O.O.O.O.O.O.O.O.O.O.Z *X;X5X3Xy.aXfXfXhXvX*.$.F.B.8 g.4 s.h.v.l x F.Z H.O.&XO.O.&XZ Z O.O.O.O.O.O.O.O.O.O.O.O.O.O.O.O.O.O.O.O.Z &XO.O.&XZ O.O.O.O.O.O.O.O.O.O.O.O.O.O.O.O.O.&XO.O.O.O.O.O.O.O.&XO.O.O.O.O.O.O.O.Z O.O.O.O.O.&XO.O.O.O.O.O.O.O.O.Z &XZ &XO.O.O.&XO.O.O.&XZ O.O.O.O.O.O.O.O.O.O.O.O.O.O.Z &XO.O.O.O.O.O.O.O.O.Z &XO.O.&XO.O.O.O.O.O.O.O.Z &XZ J.Z J.*X*X;X4X3XvX3.hX8.0.y.*.#.M b.j.4 p.s.4 v.V.z F.C O.O.O.O.O.O.O.O.O.&XO.O.O.Z O.O.O.O.O.O.O.&XZ O.O.Z &XO.O.O.O.O.&XO.O.O.O.O.Z &XO.O.O.O.O.O.O.&XZ O.O.&XO.O.O.O.O.Z O.O.O.&XZ O.O.O.O.O.O.O.O.&XO.&XZ O.&XO.O.Z O.O.&XO.O.O.O.Z O.Z O.O.O.O.O.O.O.&XO.O.O.&XO.O.O.O.O.O.O.&XO.O.O.O.O.O.O.O.Z O.O.O.O.O.&XO.O.O.O.O.O.O.&XZ O.O.J.Z &XZ O.O.&X*X#.7X3XsXiXfXhXiXsXxX6XZ ",
"t 8 s.s.2 w r l x F.Z H.*XZ J.J.Z &XO.O.O.&XZ O.Z &XO.O.O.O.O.&XO.&XO.O.O.Z &XO.O.O.O.O.O.O.O.O.O.O.O.O.O.O.O.O.O.O.O.Z &XO.O.O.O.O.&XO.O.O.O.O.O.O.O.O.O.O.Z O.O.O.O.O.O.O.O.Z &XO.O.O.O.O.O.O.O.O.O.O.O.O.O.O.O.O.O.O.O.O.&XZ Z &XO.O.O.Z O.O.O.J.O.O.O.O.O.O.&XO.O.O.O.O.O.O.O.O.O.&XO.Z O.&XO.O.Z &XO.J.&XZ J.*X#.-.3Xy.3.fXhX0.4.:.#.F.b.7 4 4 s.7 x.V.A.M H.H.O.J.O.O.O.&XO.O.O.O.O.O.Z O.O.O.Z O.O.&XZ O.O.O.O.O.O.O.Z O.O.O.O.O.O.O.O.O.&XZ O.&XO.O.&XO.O.O.O.O.O.&XZ O.&XO.O.O.O.O.&XO.O.Z O.O.O.O.&XZ O.O.&XO.Z &XO.O.O.O.O.&XO.O.O.O.O.Z &XO.&XO.O.O.O.O.O.O.O.O.O.O.O.O.O.O.O.O.O.Z O.&XO.Z &XO.O.O.O.O.O.Z &XO.O.O.O.O.O.O.O.Z &XO.O.O.O.O.&XO.J.*XO.#.;.3XvX0.8.fXaX5.*.;XD.t x.2 2 p.4 w V.x N H.&XO.O.O.O.O.O.O.O.Z O.O.O.O.O.O.O.O.&XO.O.O.O.O.O.Z &XO.O.O.O.O.O.O.O.O.O.O.O.O.O.O.O.J.O.O.O.O.O.O.O.O.O.O.&XO.O.O.Z O.O.&XZ O.O.&XZ O.O.&XO.Z O.O.O.O.O.O.O.O.O.&XO.O.Z O.O.&XO.&XO.Z O.O.O.O.O.O.O.O.O.O.Z &XO.Z &XO.O.O.O.O.O.O.Z O.O.O.&XO.O.Z O.O.O.O.O.O.O.O.&XZ &XZ O.&XJ.O.O.J.O.Z O.#.*X>.xX4.3.fX2.3.e.r.3XJ.",
"b.9 3 2 4 4 y t Z.F.C H.&XO.J.J.Z J.O.O.O.O.O.O.O.O.O.O.O.O.O.O.O.Z O.O.O.O.O.O.O.O.&XZ O.O.O.O.Z O.O.O.O.O.&XZ Z O.O.O.O.O.Z &XO.O.Z O.O.&XO.O.O.O.O.O.O.O.&XO.O.O.&XZ &XO.O.O.O.O.O.O.&XZ O.O.O.O.O.O.O.O.O.O.O.&XO.O.Z &XO.O.O.O.O.&XO.&XO.O.O.O.O.O.O.O.Z &XZ O.O.&XO.&XZ O.O.O.O.O.O.O.O.O.O.O.J.J.O.J.&XJ.J.*X#.-.*.vXaXfX8.hXvXr.#.D.N.9 4 4 2 7 w l A.F.Z H.O.&XO.O.O.&XO.&XO.O.O.O.&XO.&XZ &XO.O.O.O.O.O.O.Z &XO.O.&XO.O.O.O.O.O.O.&XO.O.O.O.O.O.Z Z O.O.O.O.O.O.O.O.O.Z O.O.&XO.O.Z O.O.&XO.O.O.O.O.O.Z &XO.O.O.O.O.O.O.O.O.Z O.O.O.O.&XO.O.O.Z O.O.O.O.O.Z &XO.O.O.O.O.O.O.O.Z &XO.&XO.O.O.O.O.O.O.O.O.O.O.O.O.O.O.&XO.O.O.O.O.O.O.O.O.O.O.O.O.O.J.+.&X:X5X>.zXhX8.8.5.aX3X#.D.N.j.p.2 s.s.v.B.x F.H.O.O.O.O.O.O.O.O.O.&XO.O.O.O.O.O.Z &XZ O.O.O.O.O.O.O.O.O.O.O.O.O.O.Z &XO.O.O.O.O.O.O.O.O.O.O.O.O.O.O.&XZ &XO.O.O.O.O.&XO.O.O.O.O.O.O.O.O.Z O.O.O.O.O.O.O.O.O.O.O.O.Z O.O.&XO.O.O.O.O.O.&XO.O.O.O.O.O.O.O.O.O.O.O.O.O.O.O.O.O.Z &XO.O.&XO.O.O.Z O.O.&XO.O.O.O.O.O.O.O.O.O.O.O.O.O.&XO.O.Z &XO.&X#.&X>.r.4.iXfXfXiX4.cX6XJ.",
"t 9 4 4 4 4 y B.x F.J.C &XO.Z &X&XO.O.O.&XO.O.&XO.O.O.O.O.&XO.O.Z O.O.O.O.O.O.Z O.O.O.O.O.O.O.O.&XO.O.O.O.O.&XO.&XO.O.O.O.Z O.O.&XZ O.O.O.Z &XO.O.J.Z &XO.O.O.O.O.O.O.O.O.O.O.O.O.O.O.O.O.O.O.O.O.O.J.O.O.O.O.O.O.Z O.O.O.O.&XO.O.O.O.Z &XO.&XZ O.O.O.&XO.O.O.O.O.O.O.Z O.O.O.O.&XO.O.Z Z O.O.O.O.O.Z O.+.J.&XZ Z *X:X-.3XvXaX2.8.0.pX:.:XM t x.4 4 2 g.x.l x N J.H.O.Z O.O.O.Z O.Z &XZ O.&XO.O.O.O.O.O.&XO.O.&XO.O.&XZ O.&XZ O.O.O.O.O.Z &XZ O.O.O.O.O.O.O.O.O.O.O.O.O.O.O.Z O.O.O.O.Z O.O.O.O.O.O.&XO.O.O.O.O.O.O.&XO.O.&XO.O.O.O.O.O.O.O.O.O.O.O.O.O.O.O.Z &XO.Z O.O.J.O.O.O.Z &X&XZ O.O.O.O.Z &XO.O.O.O.O.O.O.O.O.O.O.O.O.Z O.O.Z O.&XO.O.O.O.O.O.O.O.O.J.O.O.:X;.3XvXiX8.fXiXaX:.:XD.t x.2 2 s.g.9 z A.F.C &XO.O.O.O.O.O.O.O.O.&XZ O.&XZ &XO.O.&XO.O.O.O.Z O.O.O.O.O.Z &XO.O.&X&XZ O.O.O.O.Z O.O.O.O.O.O.O.O.O.O.O.Z O.&XZ O.&XZ O.O.O.&XO.Z O.O.O.O.O.O.O.O.O.Z &XZ &XO.O.O.O.O.&XO.O.O.&XO.O.O.O.O.O.O.O.O.O.Z O.Z &XO.O.O.O.O.O.O.&XO.O.O.O.&XO.&XZ O.O.&XO.&XZ O.O.O.O.O.O.O.O.O.O.O.O.J.O.O.J.&XZ O.;X*X;.xXpXiXgXiXfX4.*.3XJ.",
"t 0 7 3 4 x.r B.Z.N H.H.*XO.Z J.J.J.O.O.O.O.O.Z O.O.O.&XO.Z O.O.&XO.O.O.&XO.O.&XO.O.O.O.&XZ O.O.O.O.O.&XZ O.O.O.O.O.O.O.O.&XO.O.O.O.O.O.O.O.O.O.O.O.O.O.O.O.O.O.O.O.O.O.Z &XO.O.O.O.&XZ O.O.O.O.O.O.O.O.O.O.Z &XO.O.O.O.O.O.Z O.O.O.O.O.O.O.O.O.O.O.O.Z O.O.O.O.O.O.O.O.O.O.O.O.Z O.O.&X&XO.O.O.O.O.J.J.O.Z O.J.J.*X;X-.6XvXaX8.0.hXvX3X:XF.b.x.h.4 3 s.x.l A.F.J.H.O.&XO.O.O.&XO.&XO.O.O.Z O.O.O.O.O.O.O.O.O.Z O.O.O.O.O.O.O.O.O.J.O.O.O.O.O.O.Z &XO.O.&XO.O.O.O.O.Z &XO.O.&XO.O.&XO.O.O.O.O.O.Z &XZ O.O.O.O.O.O.O.Z O.O.Z O.O.O.&XZ O.O.O.Z &XO.O.Z &XO.O.O.O.O.&XO.O.O.O.O.O.O.O.O.O.O.O.O.&XO.O.O.O.O.&XZ O.&XZ O.O.O.O.O.O.O.O.&XO.Z O.O.O.O.O.&XO.&XO.J.+.&X#.5X>.vXiX8.fX5.aX3X#.D.b.x.2 p.s.7 v.V.V.F.C O.O.O.&XO.O.O.O.O.&XO.O.O.Z O.O.O.O.O.O.O.O.O.&XO.O.&XZ O.O.O.O.O.O.O.O.O.O.O.J.&XO.O.O.O.O.O.O.&XZ O.O.O.O.O.O.O.O.O.O.Z O.O.O.&XO.O.O.O.&XO.O.O.O.O.O.O.O.O.O.&XO.O.Z O.O.O.Z Z O.O.O.Z &XO.O.O.O.&XO.O.O.O.O.O.O.O.&XO.Z O.O.O.O.O.O.O.O.O.&XO.O.O.O.O.O.J.O.&XO.Z &XZ &XO.O.J.O.O.J.&XJ.&X#.&X>.3X4.aXfXfXiXvXxX;.J.",
"t e 4 2 5 8 w t Z.F.Z H.&XJ.Z &XO.J.O.O.O.O.&XO.&XO.O.Z O.O.O.O.O.O.O.O.O.O.O.O.O.O.O.O.&XZ O.O.O.O.O.O.O.O.&XO.O.O.O.O.O.O.O.O.O.O.O.O.&XO.O.Z O.O.O.O.O.Z O.O.O.O.O.O.O.O.&XZ O.O.&XZ O.O.O.&XO.O.&XZ &XO.O.&XO.O.Z O.O.Z O.O.&XZ O.O.O.&XO.O.O.O.O.O.O.Z &XO.&XO.O.&XO.O.Z O.&XO.O.Z O.O.O.O.O.O.Z O.O.J.O.J.H.*X;X-.3XzX3.fXfXhXpX*.:XD.l 7 4 4 3 7 w l A.M H.H.O.J.O.O.O.&XO.O.O.O.O.Z &XO.O.O.O.O.O.O.O.S O.O.O.O.O.O.O.O.O.O.O.O.O.O.O.O.O.Z &XO.O.O.O.&X&XZ O.O.O.O.O.O.O.O.O.O.Z &XO.O.O.O.&XO.Z &XO.O.O.Z O.O.O.O.O.O.O.&XO.O.&XO.O.O.O.O.O.Z O.O.O.O.O.O.O.Z &XO.O.O.O.O.O.O.O.O.O.Z O.O.O.O.O.O.O.O.&XZ O.&XO.O.O.O.O.O.Z O.O.O.&XZ O.O.O.O.J.Z J.+.Z ;X5X:.zX3.fXfXaXaXxX;XD.B.x.2 s.s.7 v.z V.F.C &XO.O.O.O.O.&XO.O.O.O.Z O.O.O.O.O.O.O.O.O.O.Z &XO.O.O.O.&XZ O.O.O.&XO.O.O.O.O.O.O.O.Z &X-X&X&X&XO.O.O.O.O.O.O.O.O.O.Z O.&XO.O.O.O.O.Z O.O.O.&XZ O.O.O.&XZ O.O.O.Z O.O.O.O.O.O.O.&XO.O.O.O.O.O.O.O.O.Z O.O.Z O.O.O.O.O.Z O.O.&XO.O.O.O.O.O.O.O.Z O.Z O.O.O.O.O.O.O.O.O.O.Z &XO.O.J.&XZ J.O.Z &X;X+.>.3X4.3.gXfXiX4.r.>.J.",
"y 9 4 2 3 4 r B.x H.H.C *XZ J.J.J.J.O.O.Z O.O.O.O.O.O.O.O.O.O.O.O.O.O.O.O.O.O.O.&XZ O.O.O.O.O.O.O.O.O.J.O.O.Z O.O.O.O.O.&XO.&XZ O.O.O.O.O.O.O.&XO.O.O.O.O.&XO.&X&XZ J.O.O.O.O.O.O.O.O.O.O.O.Z O.O.O.O.O.Z O.O.O.O.O.&XO.O.&XO.O.O.O.O.O.O.Z O.O.O.O.O.O.O.O.O.O.Z O.O.O.O.O.&XO.Z O.O.&XO.O.O.O.O.O.J.J.O.J.&XJ.J.*X;X$.3Xe.aXfXfXiXpX*.:XF.B.9 4 2 p.8 v.B.A.N J.H.O.O.O.O.O.Z O.O.O.O.O.O.O.O.&XO.O.O.O.O.-X,XO.&XO.O.O.Z &XO.O.O.O.&XO.&XO.O.O.O.O.O.O.O.O.Z O.O.O.&XO.O.O.O.O.O.O.O.O.O.O.O.O.O.O.O.O.O.O.O.O.&XO.O.O.O.Z O.O.O.O.O.Z O.O.O.O.O.O.&XO.&XO.O.O.&XO.O.O.O.O.&X&XO.O.O.Z O.O.O.O.Z &XO.O.O.O.J.O.O.O.O.O.O.O.O.O.O.&XO.O.O.O.O.O.O.O.O.J.J.J.*XJ.$.;.6Xe.hX8.fX5.5.3X;XZ.l x.p.p.2 s.v.V.x N C O.O.O.O.O.O.O.O.O.O.O.&XO.&XO.O.Z &XO.O.O.O.O.O.Z &X&XO.O.O.O.O.O.Z O.O.O.O.O.O.&XO.O.O.S L.&XZ &XZ O.O.O.&XO.Z O.O.&XO.O.O.O.O.O.O.&XO.O.O.O.O.&XO.O.O.O.O.O.&XO.O.O.O.O.O.O.O.O.O.O.O.O.O.J.O.O.O.&XO.O.&XO.O.O.O.O.O.O.O.Z O.Z &XO.O.O.O.O.O.&XO.&XZ O.O.O.O.O.O.O.O.O.O.&XZ O.O.O.Z &X&XO.*X+.5X3XpX3.fXfXiXpXxX6XJ.",
"b.9 4 2 4 j.w k x N C C O.O.J.&XO.J.O.O.&XZ O.O.O.O.O.O.O.O.O.O.O.O.O.O.O.O.O.Z O.O.O.Z O.O.O.&XO.O.O.O.&XZ O.O.O.Z &XO.O.O.O.O.O.O.C -XO.O.O.O.&XO.O.O.O.O.&XO.O.O.O.O.O.O.O.O.O.&XO.O.&XO.O.O.O.O.O.O.O.O.O.O.O.O.O.O.O.O.&XZ O.O.O.O.Z O.O.O.O.O.O.O.&XO.O.O.O.O.O.O.O.O.O.Z O.O.O.O.O.O.O.Z O.O.O.O.O.O.&XZ J.*X;X-.3XzXaXfX8.hXpX3X$.F.N.e 7 4 2 4 e l x F.J.H.O.&XO.O.O.&XO.O.O.Z O.O.O.O.Z O.O.O.O.O.C O.Z O.O.O.O.&XO.O.O.O.O.Z O.O.Z &XO.O.O.O.O.O.O.O.O.O.O.Z O.&XO.O.Z O.O.O.O.O.O.J.O.O.Z &XO.O.O.O.O.O.&XZ O.O.&XO.&XZ O.Z O.O.O.O.O.O.O.O.O.Z O.O.Z &XO.O.O.O.O.Z O.O.Z O.&XO.O.O.O.&XO.O.O.O.O.O.O.O.O.O.O.Z &XO.O.O.O.O.O.O.O.&XO.O.O.O.Z O.H.*XO.$.;.:.zX0.hXfXaX6.3X;XZ.t x.a.p.2 g.r z z H.C O.&XO.O.O.O.O.O.O.O.O.O.O.Z O.O.O.&X&XZ O.Z O.O.O.O.&XO.O.O.O.O.&XZ O.O.&XO.O.O.Z O.O.O.&XZ O.O.O.O.O.O.O.Z O.&XO.&XO.O.O.O.O.O.O.O.&XZ O.O.O.O.Z O.O.O.&XO.O.Z &XO.O.O.Z O.O.O.O.O.O.O.O.O.Z O.O.O.O.O.&XO.&XO.O.&X&XO.&XZ O.O.&XZ O.O.O.O.O.O.O.O.O.O.O.O.Z O.O.O.O.O.O.O.O.O.&XZ O.J.&XJ.O.;X;X>.3XpXiX8.8.hXpXr.=.J.",
"b.w s.p.p.4 v.l z N J.J.&XO.Z &XJ.O.O.O.O.O.O.O.Z &XO.Z &XO.O.O.O.O.J.O.O.O.O.&XO.O.O.&X&XO.Z O.O.O.O.O.O.O.O.O.O.&XZ O.O.O.O.O.O.O.O.,XS O.O.O.Z O.O.O.O.O.Z O.O.O.O.O.O.O.O.O.O.Z O.O.Z O.&XO.O.O.O.O.O.O.&XZ O.O.&XZ O.&XO.O.O.O.O.O.&XO.O.O.&XZ O.O.O.O.Z &XO.O.&XZ &XO.O.&XO.O.O.O.O.O.O.&XO.&XZ O.O.&XO.J.J.*X;X-.*.y.3.fX2.jXvXxX#.M k 0 7 4 2 7 w k x N Z H.O.J.O.O.O.J.O.O.O.&XO.O.O.&XO.O.O.O.O.O.O.O.O.O.&XO.O.Z O.&XZ O.O.O.O.O.O.O.O.O.O.&XZ O.O.O.O.&XO.O.O.Z O.O.&XO.O.O.O.O.O.O.O.O.O.O.O.O.&XO.Z &XO.O.O.O.O.O.O.O.O.&XO.O.&XZ O.O.O.O.O.O.O.O.O.O.O.O.O.O.O.O.O.O.&XO.O.O.O.O.O.Z O.O.O.O.O.O.Z &XO.O.O.&XZ O.O.O.O.O.&XO.Z O.O.O.O.O.&XO.J.+.O.#.;.>.zX3.0.fXiXpX3X;XD.t x.p.p.p.h.r z z N N &XO.O.O.O.O.O.O.O.O.O.O.O.O.O.O.O.O.O.O.O.&XO.O.O.O.Z O.O.O.O.O.O.O.O.O.Z O.O.O.O.O.O.O.O.O.O.O.O.O.O.O.O.&XO.O.O.Z O.O.O.O.&XZ O.O.O.O.O.O.&XO.O.O.&XZ O.O.O.O.O.O.Z &X&XO.O.O.O.O.&XZ O.O.&XO.O.O.O.O.O.O.Z O.O.Z O.O.O.O.O.O.O.O.O.O.O.&XZ O.O.O.O.O.O.O.&XO.Z &XO.O.O.O.O.O.&XO.O.Z &XJ.&X;X*X;.3XpXsX8.0.jXsX*.;.J.",
"t 9 g.3 s.7 y l A.N C J.O.O.J.Z J.&XO.O.O.O.O.O.O.O.Z &XO.O.O.O.O.&XO.O.O.O.O.O.O.O.O.O.O.O.O.O.O.O.O.O.O.O.O.Z O.O.O.O.O.O.O.O.O.O.O.O.Z &XO.O.O.O.O.O.O.O.O.O.O.&XO.O.O.O.O.O.O.O.O.O.Z &XO.O.O.O.O.O.J.O.O.O.O.O.O.O.O.O.O.O.O.O.O.&XO.O.O.O.O.O.O.O.O.&XZ O.O.O.O.O.O.O.O.O.&XO.O.O.O.O.Z O.J.&XO.J.O.Z O.J.C *X#.$.*.zX5.fXfXiXaX*.:XN B.x.7 2 4 s.w B.z N Z H.O.&XZ O.O.Z O.O.&XO.O.O.O.Z O.O.O.O.O.Z &XO.O.O.O.O.O.&XO.O.&XO.O.O.O.O.&XO.Z &XO.O.Z O.O.&XO.O.O.O.O.O.O.Z O.O.O.O.O.O.&XO.O.Z &XO.O.O.O.O.O.O.&XZ O.O.&XZ O.O.O.Z O.O.O.O.O.&XO.O.O.Z &XO.O.O.&XZ O.O.Z &XO.O.Z &XO.O.O.&XO.&XO.O.O.O.O.O.O.O.&XO.O.O.O.O.O.O.O.O.O.Z O.O.O.J.&XO.&XZ J.+.O.$.-.3Xy.3.hX8.iX4.:.;XM k h.s.d.2 4 v.V.z H.F.O.O.O.O.O.O.O.O.Z &XO.O.O.Z O.O.&XZ O.O.&XZ O.O.O.O.O.O.O.Z &XO.O.O.&XO.O.&XO.O.&XO.Z O.O.O.O.O.O.O.O.O.O.O.Z &X&XO.O.O.O.O.O.&XZ O.O.&XO.&XZ O.O.O.O.O.O.O.O.O.J.O.O.O.O.O.O.O.O.O.O.O.O.O.O.Z O.O.O.&XO.O.O.O.O.O.O.O.&XZ Z O.O.O.O.O.O.O.O.O.O.O.O.O.O.O.O.O.O.O.O.O.O.O.O.O.Z O.O.O.&XJ.O.;X;X;.*.pXiX8.8.fX3.r.5XZ ",
"b.9 s.p.4 7 v.t A.F.C J.&X&XJ.&XZ &XZ &XO.O.O.O.O.O.O.O.O.O.J.O.O.Z O.O.O.O.O.O.O.O.O.&XO.Z &XO.O.O.O.O.Z &XO.&X&XO.O.O.Z &XO.O.O.O.O.O.O.O.O.O.O.O.O.O.O.O.&XZ O.Z O.O.O.O.O.&XO.O.O.&XO.O.O.Z Z &XO.O.O.O.O.O.O.O.Z &X&XZ &XO.O.O.O.Z O.O.O.O.O.O.O.O.O.O.O.O.O.O.O.O.Z &XO.O.Z O.O.O.O.O.&XO.&XO.O.J.O.&XO.J.J.*X;X5X6Xe.3.8.fXfXpXxX#.N N.j.4 s.3 s.w l A.C Z H.&X&XO.O.&XJ.O.Z Z O.O.&XO.O.&XZ O.&XO.O.O.O.O.O.O.O.O.Z O.O.Z O.O.O.Z &XO.O.O.O.O.O.&XO.O.O.O.O.O.O.O.O.&XO.O.&XZ O.O.O.Z O.O.O.O.O.O.O.Z &XO.O.O.O.O.O.O.O.Z &XO.&XO.O.O.O.O.Z O.O.O.O.O.O.O.O.O.O.&XO.O.O.&XO.O.O.O.O.O.Z O.O.O.O.O.&XO.O.&XZ Z O.O.O.O.O.O.O.O.O.O.&XZ &XO.J.O.O.&XJ.J.+.O.:X-.6XvXiX8.hX3.4.3X;XF.b.x.2 2 p.h.r V.A.N N &XO.O.O.O.O.O.O.O.O.&XZ O.&XO.O.O.O.O.O.O.O.&XZ O.O.O.O.O.O.O.O.O.O.O.Z O.O.O.O.O.O.O.&XO.O.Z &XO.O.O.O.O.O.O.O.Z O.O.O.O.O.O.O.O.O.O.Z O.O.O.O.O.O.O.&XO.&XZ O.O.O.O.O.O.O.O.&XO.O.&XZ O.O.O.&XO.O.O.O.O.O.&XZ O.&XO.O.O.O.O.&X&XO.O.O.&XZ O.O.O.&XO.Z O.O.O.O.O.Z &XO.&XO.O.O.&XO.O.O.Z J.O.#.*X;.*.pXiXfX0.iXpXxX6XJ.",
"b.9 4 2 4 g.v.k x F.C C &X&XJ.J.Z J.O.O.O.O.Z O.Z &XO.O.O.O.Z O.O.O.O.O.O.Z &XO.O.O.O.Z &XO.Z O.Z &X&XZ O.O.O.O.O.O.O.O.&XZ O.O.O.O.O.O.O.O.O.J.Z &XO.O.O.O.O.O.O.O.O.O.O.Z O.O.O.O.O.Z O.O.O.&XO.O.O.O.O.O.O.O.O.O.O.O.O.&XO.O.O.O.Z O.O.O.O.O.O.O.O.O.O.O.Z O.O.O.O.O.O.O.O.O.O.O.O.O.O.O.O.O.O.&XO.J.O.O.+.J.J.*X;X4X3Xe.5.fXiXhX6.xX#.F.l 9 7 4 4 s.w l z N J.C O.Z O.O.O.&XO.&XO.O.Z O.&XO.&XZ O.O.&XO.Z &XO.Z &XO.O.O.O.O.O.O.O.O.O.O.&XO.O.O.O.O.O.O.O.O.Z &XO.O.O.O.O.O.O.O.O.O.&XZ O.O.O.O.O.O.O.O.&XZ O.O.Z O.O.O.O.O.O.O.O.&X&XZ O.O.Z O.O.O.O.O.O.Z O.O.O.O.Z O.O.O.Z O.O.O.O.O.O.O.O.O.Z &XZ O.O.O.O.O.O.O.O.O.J.O.Z &XO.O.O.O.O.O.O.J.O.O.&XJ.J.*XO.:X5X:.vXaX8.fX3.4.:.#.D.b.x.2 2 s.4 x.V.x C F.O.O.O.O.O.O.&XO.O.O.O.O.&XO.&XZ O.O.O.O.O.O.O.O.O.O.Z O.O.O.O.O.&XZ O.Z O.O.O.O.O.O.O.O.&XO.Z &XO.O.O.O.O.O.O.O.O.O.O.O.O.O.O.O.O.O.O.O.Z O.O.O.&XZ O.Z O.O.O.O.O.O.O.O.O.O.O.Z &XO.O.O.O.O.O.O.&XO.O.Z O.O.O.O.O.Z O.O.O.Z O.O.O.O.O.O.O.O.O.&XZ O.O.&XO.&XO.O.&XO.Z O.Z O.&XO.Z O.O.Z &XJ.O.*X*X5X=.4.aX8.iXfX4.xX5XJ.",
"t 9 p.p.2 g.v.N.A.N J.J.&XZ J.J.&XJ.O.O.O.O.&XO.O.O.O.O.O.O.&XO.O.O.O.O.O.&XZ O.Z O.O.O.O.O.&XO.O.O.O.O.O.O.O.&XO.Z &XO.O.O.O.O.&XZ O.O.O.O.O.O.O.O.O.O.&XZ O.O.O.O.O.O.O.&XZ O.Z O.O.O.&XO.O.O.O.O.Z &XO.O.O.&XO.O.O.O.O.Z O.O.O.O.&XO.O.O.J.O.O.O.Z &XO.O.&XO.Z &XO.O.O.O.Z &XO.O.O.O.Z &XO.O.J.O.O.J.O.J.&XZ Z *X;X4X3XvXaXfXfXiXaX3X#.F.k 9 4 2 4 g.w l z N J.C O.Z O.O.O.O.O.O.O.O.O.O.O.O.O.O.O.O.O.O.O.O.O.O.O.O.O.Z &XO.O.O.O.O.O.O.Z O.O.&XZ O.Z &XO.O.O.O.&XZ O.O.&XO.O.O.&XO.O.O.O.O.Z O.O.O.O.O.O.O.O.O.&XO.Z O.O.&XO.O.O.Z O.O.O.&X&XO.O.O.&XO.O.&XO.O.O.&XO.O.O.O.O.O.O.Z &XO.O.O.O.O.O.O.O.O.&XO.O.O.O.O.O.O.O.O.O.O.O.O.O.O.O.O.O.J.O.O.J.J.Z +.&X:X-.3Xy.3.fXhX3.4.*.#.M t x.4 a.2 8 r B.A.N H.&XO.O.O.O.O.O.O.O.O.O.O.O.O.O.O.Z &XO.O.&XO.O.O.O.O.&XO.O.O.Z &XO.O.O.&XO.O.Z &XZ O.O.O.O.O.O.O.O.O.Z &XO.Z &XO.O.O.O.&XZ &XO.O.O.Z &XO.&XO.O.O.O.O.O.O.O.O.O.O.O.O.O.&XZ O.O.O.Z O.O.O.&XZ O.O.Z O.O.&XO.O.O.O.O.O.O.O.O.&XO.O.O.O.&XZ O.O.O.O.O.&XO.O.O.Z O.O.O.O.&XO.O.O.Z O.&XO.O.O.Z J.O.#.;X;.3XpXiXfXiX2.aXzX5XJ.",
"b.j.s.p.p.s.v.N.x F.H.Z O.O.Z &XO.J.O.O.O.&XZ O.O.O.&XO.O.O.O.O.O.O.O.O.O.O.&XO.&XO.O.O.O.&XZ O.O.O.O.O.O.O.O.Z Z &XO.O.O.O.O.O.O.O.&XO.O.O.O.O.O.O.&XO.O.O.O.O.O.O.J.O.Z O.O.&X&XO.O.O.O.O.Z O.&XZ O.O.O.O.O.Z O.O.O.O.O.O.O.O.&XO.O.O.Z &XO.O.&XZ O.O.O.O.O.O.O.O.O.O.&XO.O.&XO.O.O.&XO.O.O.O.Z &XZ J.O.O.O.J.J.*X#.$.6XzXaXfXhX3.pXxX:XF.B.9 4 s.3 s.w t A.F.J.C &XZ O.&XO.&XO.O.O.O.O.O.Z O.O.O.O.O.O.O.O.O.O.O.&XZ O.O.O.O.O.O.O.O.O.Z O.O.O.O.O.O.O.O.O.O.O.O.O.O.O.O.&XO.O.&XO.O.O.O.O.O.&XO.&XZ O.O.O.O.O.O.Z O.&XO.O.O.O.O.O.O.&XZ O.O.O.O.O.O.O.O.O.O.Z O.O.O.O.O.O.&X&XO.O.O.&XO.O.O.O.O.O.Z &XO.Z O.Z O.O.O.O.O.O.O.Z O.O.O.O.O.O.O.O.J.O.O.&XO.J.+.O.:X5X:.pXiX8.8.0.y.xX#.M t c.s.p.2 7 v.B.A.F.N &XO.O.O.O.O.O.O.Z O.O.O.O.Z &XO.Z &XO.O.O.O.O.&XO.O.Z O.&XO.O.&XO.O.O.O.O.O.O.O.&XO.O.O.O.O.O.O.O.O.O.O.O.O.O.O.O.&XO.O.O.O.O.O.O.&XO.O.O.O.Z &XO.Z O.O.O.O.Z O.O.O.O.O.O.&XO.O.O.O.O.&XO.O.O.O.&XO.O.Z O.&XO.O.O.O.Z O.O.O.&XO.O.O.O.O.&XZ O.O.O.O.O.O.O.J.O.O.O.O.Z &XO.O.O.O.J.O.O.O.O.J.O.;X;X-.r.pXaXfXhX3.aXxX;.H.",
"b.j.s.3 4 g.n.N.x F.H.C &XO.J.&XJ.&XO.O.O.O.O.O.&XO.O.O.O.O.O.O.&XZ &XO.O.Z O.O.O.O.O.O.O.O.O.O.&XO.O.O.Z O.O.O.O.O.O.O.O.O.O.O.Z O.O.O.&XO.O.O.Z &XZ O.O.O.O.O.O.O.O.O.&XO.O.O.O.O.O.O.O.O.&XO.O.O.O.O.Z O.O.O.O.O.O.&XO.O.Z O.O.O.O.O.O.O.O.O.O.O.O.&XO.O.O.O.O.O.O.&XZ O.O.O.&XO.O.Z O.O.O.O.&X&X&XJ.O.&XO.J.J.*X;X-.3XzXaXfXiXiXaXxX:XN B.w 7 4 2 g.w B.z M J.C &XZ O.O.&XZ O.O.Z &XO.&XO.O.O.O.O.O.O.O.O.Z O.O.O.O.&XZ &XO.O.O.Z &XO.&XO.O.O.O.O.O.O.J.O.O.O.O.Z &XO.O.Z O.O.Z O.O.O.O.O.O.O.O.O.O.O.O.O.O.O.O.&XO.O.O.O.O.O.O.O.O.O.O.O.&XO.O.O.O.O.O.O.O.&XO.O.O.O.O.O.Z O.O.Z O.Z O.O.O.O.O.O.O.O.O.&XO.&XO.O.&XO.O.O.O.O.O.&XO.O.O.O.&XO.J.O.&X&X&XJ.+.O.;X-.:.e.iX8.fX3.y.3X#.Z.t 9 4 p.p.8 n.B.x H.H.O.O.O.O.O.O.O.O.&XO.O.O.O.O.O.O.O.O.O.O.O.O.O.O.O.O.&XO.Z O.O.O.O.&XO.O.Z O.O.O.O.O.O.&XO.O.O.Z O.&XZ O.&XZ O.&XO.O.O.Z O.&XZ O.O.O.O.O.Z O.O.O.O.&X&XO.O.O.&XO.O.O.O.O.O.Z O.O.O.O.Z O.O.O.O.O.Z O.O.&XO.Z O.O.O.O.&XO.O.O.Z O.O.O.O.O.O.O.Z &XO.O.O.O.O.O.O.O.O.O.O.O.O.O.O.O.Z O.O.J.O.J.J.;X;X-.3Xy.iX8.hXhXaXxX>.J.",
"b.w s.p.s.g.n.N.A.F.C Z &X&XJ.J.J.Z &XZ O.O.O.&XZ O.O.Z O.&XO.O.O.&XZ O.O.&XZ &XO.O.O.O.O.O.&XZ O.O.Z O.&XO.O.O.O.O.O.O.O.O.J.O.&XO.Z &XZ O.Z &XO.O.&XO.O.O.Z O.O.O.O.O.O.O.O.O.O.O.O.O.O.O.&XZ O.O.Z &X&XO.O.O.&XZ O.Z O.O.&XO.O.Z O.O.O.O.O.O.O.O.O.Z O.&XO.O.O.O.O.Z O.O.Z O.O.O.O.O.O.&XO.O.J.O.O.J.O.&X+.J.Z &X#.$.*.zXaXfXfXiX5.xX-.N l w 7 3 4 7 w l z F.J.H.O.Z O.O.O.&XO.O.&XZ O.O.&XO.O.O.O.O.Z O.O.&XO.O.O.O.O.O.O.Z O.O.Z O.O.&X&XZ O.Z &XO.O.O.O.O.O.Z O.O.&XZ O.O.Z O.O.O.O.O.O.O.O.O.&XO.&XO.O.O.O.O.O.O.O.O.O.O.O.O.O.O.O.O.O.O.O.O.O.O.O.O.O.Z O.&XO.O.O.O.Z O.O.O.&XO.O.O.O.O.Z O.O.O.O.&XZ O.O.O.O.O.O.O.O.&XO.&XZ &X&XZ O.Z O.J.O.O.J.J.&X+.O.:X4X3Xy.iX8.8.5.5.3X*XM t 9 4 p.s.7 v.N.A.C C &XO.&XO.O.O.O.O.O.O.O.O.Z O.O.O.O.O.O.O.O.O.O.Z O.O.O.O.O.O.O.O.O.Z O.O.&XO.O.O.O.O.O.Z O.O.O.&XO.O.O.O.O.O.O.O.Z O.O.O.O.O.O.O.O.Z &XO.&XO.O.O.O.&XO.O.O.&X&XO.O.Z O.O.&XO.O.Z &XO.O.O.O.O.Z O.O.O.O.O.&XZ O.O.O.O.O.&X&XO.O.O.O.O.O.O.O.Z O.O.O.O.Z &XO.O.O.O.O.O.O.O.Z &XO.O.&XO.O.O.O.J.&X+.;X-.3XvXiX8.0.fXaXr.5XH.",
"n.j.k.p.p.4 n.B.A.H.Z C &XJ.Z J.O.J.O.O.O.O.O.O.O.O.&XO.O.Z O.O.Z O.O.O.O.O.O.O.O.O.&XZ O.O.O.O.O.O.&XO.O.O.O.O.&XO.O.O.O.O.O.O.O.O.O.O.O.O.O.O.O.O.O.O.O.O.&XO.O.O.O.O.O.Z &XO.O.O.&XZ O.O.O.O.&XO.O.O.O.O.O.O.O.O.O.O.O.O.O.O.O.&XO.Z &XO.&XZ O.&XO.O.O.Z O.O.Z O.O.O.O.O.&XO.O.Z &XO.O.Z O.O.O.&XO.J.O.Z &XZ J.*X:X4X6Xe.aXgXjXhX5.r.$.N k e 0 4 2 0 0 t z F.J.H.O.&XO.O.&XZ O.O.O.O.O.O.O.O.O.O.Z &X&XO.O.O.O.O.O.O.O.&XO.O.O.O.&XO.O.O.O.O.O.O.O.O.O.O.O.O.O.&XO.O.O.O.O.O.&XO.O.O.J.O.O.O.O.O.Z O.O.Z &XO.Z &XO.O.O.&XZ O.&XZ O.O.O.O.O.O.O.O.J.O.O.O.O.&XO.Z O.O.O.O.&XO.O.O.O.O.O.O.O.&X&XO.O.O.O.O.O.O.O.O.O.Z &XO.O.Z O.O.O.O.O.O.O.O.O.J.O.O.&XZ Z *XZ :X5X6Xy.3.8.8.3.5.:.#.Z.t j.s.3 k.h.9 z Z.H.B &XO.Z O.O.O.O.O.O.O.O.O.&XO.O.O.O.O.O.O.&XZ O.O.O.O.O.O.O.O.&XZ O.O.O.O.O.O.&XZ O.O.O.O.&XZ O.O.O.O.O.O.O.&XZ O.&XO.O.Z &XO.O.O.O.O.O.O.O.O.O.O.O.O.O.Z O.O.Z O.O.&XO.O.O.O.O.&XZ O.O.&XO.O.&XO.O.O.O.O.O.O.O.O.O.O.O.Z O.O.Z &XZ &XO.O.O.&XO.O.O.O.O.O.O.O.O.&XZ O.O.O.O.O.O.O.Z O.O.J.Z J.J.;X;X-.3XpX6.8.2.iXaXxX5XJ.",
"y 9 4 a.s.s.y l x F.H.C &X&XZ &XO.J.O.O.O.O.&XZ O.O.O.O.O.O.O.O.O.O.O.O.O.O.O.O.Z O.&XO.O.O.O.O.O.O.O.O.J.O.O.O.Z O.O.O.O.O.O.Z O.Z &XO.O.O.O.O.O.O.Z &XZ O.O.O.O.O.O.O.&XO.O.Z Z O.O.O.O.O.O.O.O.O.&XZ &XZ O.O.O.&XO.O.O.O.O.Z &XO.O.O.O.O.O.O.O.O.O.Z O.O.O.O.&XO.O.O.O.O.O.O.O.Z &XO.O.O.J.O.O.Z O.&XO.Z &XZ J.*X;X:X>.zXaX8.fX0.aXr.:XF.V.8 h.2 2 g.x.b.z N Z C O.J.O.O.&X&XO.O.O.O.O.O.&XO.O.&XO.O.O.O.O.O.Z &XO.O.O.O.O.O.O.O.O.Z &XO.O.O.Z O.O.O.O.O.O.O.O.O.Z &XO.O.O.O.O.O.O.&XO.O.O.O.&XO.O.Z O.O.O.O.O.O.O.&XO.O.O.O.O.O.O.O.O.O.&XZ O.O.O.O.O.O.O.O.O.O.O.O.O.Z O.O.O.O.O.&XZ O.Z O.O.O.O.O.&XO.Z &XO.O.O.O.O.O.O.O.O.O.Z O.O.O.O.O.O.O.O.J.&XZ J.*XZ :X;.=.vX3.fX8.hXvX*.#.D.b.9 s.2 2 7 n.l A.Z F.O.O.O.O.O.O.O.&XO.Z O.O.O.O.O.O.O.O.&XZ &XZ O.&XO.O.O.O.&XZ O.O.&XO.O.O.O.&XO.O.Z O.O.O.O.O.O.O.O.O.O.O.O.O.O.O.O.&XO.O.Z &XO.O.O.&XO.O.O.O.&XZ O.O.O.O.O.O.O.O.O.O.O.O.O.Z O.O.O.O.O.&X&XO.O.Z &XO.O.O.Z O.O.O.O.O.O.J.O.O.O.O.Z O.O.O.&XO.O.Z O.O.Z O.O.&XZ O.O.&XZ O.O.&XO.O.O.O.O.J.J.O.&X;X;X-.3Xy.iXfXjXfXaXxX;.J.",
"n.w g.p.s.g.v.l x F.Z C &XO.Z &XJ.O.O.O.O.O.O.O.O.&XZ O.O.Z &XO.O.&XO.&XO.O.&XZ O.O.O.O.O.O.O.O.&XO.O.O.O.O.O.O.O.O.O.O.O.O.O.&XO.O.O.O.O.O.O.O.&XO.O.O.&XO.O.O.O.O.O.Z O.O.O.&X&XO.O.&XO.O.O.O.O.O.O.O.O.O.O.O.O.Z &XO.O.O.O.&XZ O.O.O.O.O.O.O.O.&XO.O.O.O.O.O.O.O.O.O.O.&XO.O.O.O.O.O.O.O.O.O.Z &XO.J.O.J.&XO.J.*X;X-.>.zXaXfXfX3.iX*.:XN V.9 7 2 2 s.w t z N Z N O.Z O.O.O.O.Z O.O.O.O.Z Z O.O.Z O.O.O.O.O.O.O.O.O.Z &XZ &XO.O.O.O.O.O.O.O.&XO.O.&XO.O.O.O.&XZ &XO.O.O.O.O.O.O.O.O.Z O.O.O.O.Z O.O.&XO.O.O.O.O.O.Z O.O.O.O.O.O.O.O.O.O.O.O.O.O.O.O.O.O.&XZ O.O.O.O.Z &XO.O.&XO.O.O.O.O.O.O.O.O.O.O.O.O.O.O.O.O.O.O.O.Z &XO.O.O.O.&XO.O.O.O.O.O.O.O.Z Z J.Z +.&X:X4X3Xy.iX8.8.3.aX6X#.D.b.9 p.a.2 7 n.l A.C F.&XO.O.O.O.O.O.O.O.&XO.O.O.O.O.O.O.O.O.O.O.O.O.O.Z &XO.O.O.O.O.O.Z O.Z &XO.O.O.O.&XO.O.O.O.O.O.&X&XZ O.Z &XZ &XO.O.O.O.O.O.O.O.&XO.O.O.Z O.O.O.O.O.O.O.O.Z &XO.O.O.O.O.O.O.&XO.O.O.O.O.O.Z O.O.&XO.O.O.O.&XO.O.O.O.O.O.O.O.O.O.O.&XO.O.O.O.O.O.&XZ O.&XO.O.O.O.O.O.O.O.O.O.Z O.&XO.O.O.&XO.J.J.+.#.-.3Xy.iXfXiX3.aXxX>.J.",
"n.9 s.s.s.k.v.V.x F.Z H.&XJ.Z &XO.J.O.O.O.O.O.O.O.O.O.&XO.&XO.O.O.O.O.Z O.O.O.O.O.&XZ &XO.O.O.O.Z O.O.O.O.O.O.O.O.O.O.&XO.O.O.O.&XO.Z &XO.&XO.O.Z O.O.O.O.O.O.O.O.O.O.&XO.O.O.O.O.O.O.O.O.O.O.O.O.&XO.O.O.O.O.O.O.&XO.O.O.O.O.O.O.O.O.O.Z O.O.O.O.O.O.&XO.O.O.O.O.O.O.O.O.Z O.O.O.Z O.O.O.O.&XZ O.&XO.J.O.J.&XZ J.*X;X$.>.zXiXhXfX0.aX3X:XH.V.9 7 4 2 4 w l z M Z C O.O.O.O.O.J.O.Z O.O.O.&XO.O.O.O.O.O.Z &X&XO.O.O.O.&XO.O.Z O.O.O.O.O.O.O.O.Z O.&X&XZ &XZ O.Z O.&XO.O.O.O.O.O.O.O.O.O.O.O.O.&XO.O.O.O.O.O.Z &X&XO.O.O.O.O.O.Z O.J.O.O.O.O.&XO.O.O.Z &XO.O.&XO.O.O.O.&XZ O.O.O.Z &XO.O.O.O.O.O.O.Z Z &XO.O.O.O.O.&XO.O.O.O.O.&XO.&XZ &XO.O.Z O.&XO.O.&XO.O.J.+.Z $.-.*.e.3.fX8.3.4.:.;XD.y 9 p.s.4 g.r N.x J.F.&XO.O.O.O.O.O.O.&XO.&XZ O.O.O.O.O.O.O.O.O.O.O.O.O.O.O.O.O.O.O.O.O.O.O.O.&XZ O.Z O.O.O.O.O.O.O.Z O.O.O.&XO.O.O.Z Z O.O.O.O.O.O.Z Z O.O.&XO.O.O.O.O.O.O.O.O.O.O.O.&XO.O.O.O.O.O.Z Z &XO.O.O.O.O.O.Z O.O.O.O.O.O.O.O.O.O.O.O.O.O.O.O.O.O.O.O.O.O.O.&XO.O.O.&XO.&XO.O.O.O.O.O.&XO.O.O.O.O.Z J.&XJ.#.;X-.6XpX3.fX8.3.4.r.>.Z ",
"n.8 s.2 s.g.v.V.x H.J.H.O.J.Z &XJ.J.O.O.O.O.O.O.O.O.O.O.O.Z &XZ O.O.O.O.O.O.O.O.O.O.O.O.Z &XO.O.O.O.O.O.O.O.O.&X&XO.O.Z O.O.O.O.O.O.O.O.O.Z O.O.O.O.O.O.O.O.O.&X&XZ O.O.O.O.O.O.O.Z &XO.Z &XO.O.O.Z O.O.O.O.O.O.O.O.O.Z O.O.O.O.O.&XO.O.&XO.O.O.O.O.O.O.O.O.O.O.O.O.O.J.O.O.O.O.O.&XO.O.O.O.O.O.&XZ O.J.O.&X&XZ Z *X;X-.6Xe.4.fXfXfXpXcX$.H.V.x.g.3 2 g.x.t A.N Z H.O.Z O.O.O.&XO.&XO.O.O.O.O.&XO.O.O.O.O.O.Z O.O.O.O.O.O.&XO.O.&XZ O.O.O.O.O.O.O.O.O.O.O.O.O.O.O.O.O.O.O.O.&XZ &XO.Z &XO.O.O.Z O.O.O.O.&XZ O.O.Z O.O.&XO.O.O.&XO.O.O.O.O.O.Z O.&XZ O.O.O.O.O.O.&XZ O.O.&XO.O.O.O.O.O.O.&XZ O.&XO.&XO.O.O.O.O.Z O.Z O.O.&XO.O.Z O.O.O.O.O.O.&XO.O.O.&XZ O.&XH.+.O.#.5X*.4.0.8.8.iX4.:.+.M t x.4 p.4 g.v.V.V.H.F.&XZ O.O.O.O.O.O.O.O.O.O.O.O.J.O.&XO.Z &XZ &XO.O.O.O.Z &XO.O.O.&XO.O.&XO.O.O.O.&XO.O.O.O.&XZ O.O.O.O.O.O.O.&XO.O.&XO.O.Z O.O.O.O.&XO.O.O.Z &XO.O.Z &XO.O.O.J.O.O.Z O.O.O.O.O.O.&XO.O.Z &XO.O.O.O.&XO.O.O.O.&XZ O.O.&XZ O.O.O.O.O.O.O.O.&XO.Z O.Z O.O.O.O.O.O.O.Z O.&XZ O.O.O.O.Z O.&XO.&XO.O.J.;X;X5X:.4.3.8.3.fX5.xX;.Z ",
"n.8 s.p.s.k.r V.x F.J.C +.O.Z &XJ.Z &XO.O.O.O.O.O.&XO.O.O.O.O.O.&XZ O.O.O.O.O.O.O.&XZ O.O.O.O.O.O.O.O.O.O.O.O.Z O.O.O.&XO.O.O.O.O.&XZ O.O.&XO.O.O.O.O.O.O.O.O.Z O.O.Z &XO.O.O.O.O.O.O.O.O.O.O.O.O.&XZ O.O.O.O.&XO.O.O.O.O.O.O.O.Z O.O.Z O.O.O.O.Z O.O.O.O.O.O.O.O.O.O.O.O.&XO.O.O.&XO.O.O.O.O.O.O.Z &XJ.O.&XO.O.H.*X;X$.3Xe.pX8.fX3.pXxX:XH.V.j.7 4 3 s.w t z F.C H.O.Z Z &XO.Z O.O.O.O.O.O.O.Z O.O.O.O.O.O.O.O.Z O.O.O.O.Z &XO.O.O.O.O.O.O.O.O.O.O.O.O.O.O.O.O.O.O.O.O.O.O.O.Z &XZ O.O.O.O.O.O.&XO.O.Z O.O.O.O.&XO.O.Z O.O.Z &XO.O.Z O.O.O.O.Z O.O.O.O.O.O.&XO.O.O.O.J.O.O.O.O.O.Z &XO.&XO.Z &XO.O.O.O.Z O.O.&XO.O.O.&XZ O.&XO.O.O.&XO.O.O.O.O.O.Z O.&XO.O.J.+.O.$.5X>.e.3.8.8.aX5.3X#.D.t x.s.p.2 h.x.V.A.H.F.O.O.O.O.O.O.O.O.O.Z O.O.O.O.O.O.O.O.O.O.Z &XO.O.&XZ O.O.O.O.O.Z O.O.&XO.O.O.O.O.O.O.O.O.O.O.&XO.O.O.O.O.O.O.O.Z O.O.O.&XO.O.O.O.O.O.O.O.&XO.O.O.O.&XO.O.O.O.O.O.Z &XO.O.&XO.O.O.O.O.O.O.&XO.O.O.O.O.O.&XO.O.&XZ O.O.O.O.&XO.O.Z O.O.O.Z O.O.O.&XO.O.O.O.O.O.O.O.O.O.O.O.O.O.O.O.O.&XZ &XZ O.J.;X#.-.:.4.3.fX0.0.4.r.;.Z ",
"r 8 g.p.s.h.y V.x N H.H.&X&XZ &X&XZ O.O.O.Z &XO.O.Z O.O.O.O.O.O.O.O.O.O.&XZ &XO.O.O.O.O.O.&XZ O.&XZ O.&XO.O.O.O.&XZ O.O.Z &XO.O.O.O.O.O.O.Z O.O.&XZ O.&XO.O.O.O.&XO.O.O.Z &XO.O.O.O.&XZ O.&XZ O.O.O.O.O.&XO.O.Z O.O.O.O.Z &XO.O.&XO.O.&XO.O.J.O.&XO.O.O.O.O.O.O.O.O.Z &XO.Z &XZ O.Z &XO.O.O.O.O.O.J.Z J.O.J.&X+.Z +.;X:X6XzXiXhXfX0.pXcX-.N z 9 4 4 s.4 w N.V.N J.H.J.Z O.J.&XZ O.&XO.O.Z O.O.O.&XZ &XO.O.Z &XO.&XO.O.O.O.O.O.O.Z &X&XO.O.O.O.O.O.O.&XZ &XZ O.O.O.O.&XO.O.O.O.&XO.O.O.O.O.O.O.O.O.O.O.&XO.&XO.O.Z O.O.&XO.O.O.O.O.O.&XO.O.&XO.O.O.O.&XO.O.Z Z O.O.O.O.O.O.O.O.O.O.O.O.O.O.O.O.O.O.O.O.O.&XO.O.O.O.O.O.Z O.O.O.O.O.O.Z O.O.O.O.O.O.O.O.Z O.O.Z *XZ $.5X*.vX3.8.8.5.4.6X#.Z.t 9 s.p.4 g.x.l x Z C &XO.O.O.O.O.O.O.&XO.&XZ O.O.O.O.O.O.O.O.O.O.&XZ O.O.O.O.O.O.O.O.&XZ Z O.O.O.O.O.&XZ &XO.O.Z O.O.&XO.O.O.O.O.O.&XO.O.O.O.O.O.O.&XO.O.Z O.Z O.O.O.O.O.O.Z O.O.O.O.O.O.O.O.Z O.O.&XO.O.Z O.Z O.O.O.O.O.O.O.O.O.O.O.&XZ O.O.O.O.O.&XO.O.O.&XO.O.O.O.O.O.O.O.O.O.&XZ &XZ O.O.O.O.O.O.O.&XZ &X@.O.Z #.;X-.xX4.5.8.0.0.5.t.>.O.",
"b.8 4 3 s.7 y V.x H.J.H.&XJ.Z J.&XJ.O.O.O.&XO.O.Z O.O.O.O.O.O.O.O.O.&XO.Z &XZ O.O.O.O.O.O.O.O.O.O.&XO.O.O.O.O.O.O.O.O.O.O.O.O.O.O.O.O.O.O.O.O.O.&XZ O.O.&XO.O.O.Z O.O.O.O.&XO.O.O.O.O.O.O.O.O.O.&XO.O.&XO.O.O.O.O.&XO.O.O.O.O.O.O.O.O.O.O.O.O.O.O.&XO.O.O.O.O.O.O.O.O.O.O.&XO.O.O.&XO.O.O.O.O.O.O.&XO.J.O.Z &XO.C +.#.4X>.e.iX0.fXhX4.xX$.C z j.g.s.2 4 9 b.A.N J.C J.J.J.O.O.&XO.O.Z O.&XO.O.O.O.&XZ O.O.&XZ &XO.O.O.O.Z O.O.O.O.O.&XO.&XZ &XO.O.O.O.O.O.O.O.O.Z &X&XZ O.Z O.O.O.O.O.O.Z &XO.O.O.O.O.O.O.Z O.O.O.O.O.O.&XO.O.O.O.O.O.&XO.O.&XO.Z &XZ O.O.&XO.O.O.O.O.O.O.O.O.O.O.O.O.&XO.O.O.O.O.O.Z &XO.O.O.O.O.O.O.O.O.O.Z O.&XO.O.O.O.O.O.O.O.O.O.&XO.O.H.*XO.:X;.3X4.3.8.8.3.y.:.+.M t 9 p.p.s.g.n.l A.C N O.O.O.O.O.O.O.&XO.O.O.O.O.O.Z O.O.O.O.O.O.O.O.O.O.O.Z &XZ O.O.O.O.O.O.O.O.O.O.O.O.O.Z O.O.&XZ &XZ O.O.O.O.O.O.O.O.O.O.O.O.O.O.Z O.O.&XO.O.O.O.O.O.O.O.&X&XO.O.O.&XO.O.Z O.O.O.Z O.O.&XO.O.O.O.O.O.O.Z O.O.O.O.O.O.O.O.O.Z O.O.O.O.O.O.O.O.O.O.O.O.J.&XO.O.O.O.O.O.O.O.O.O.O.O.O.O.&XZ &XO.O.Z +.;X-.3Xy.0.8.0.q.4.r.;.Z ",
"n.j.4 2 4 7 n.V.x F.Z J.O.J.Z &XJ.Z &XO.O.Z O.O.&XO.O.O.&XZ O.O.O.O.O.O.O.O.O.O.O.&XZ O.O.O.O.O.O.Z O.O.O.&XZ O.O.O.O.Z &XO.Z &X&XZ O.O.O.O.O.O.O.O.O.O.O.O.Z &XO.O.O.O.O.Z O.O.O.&XZ O.O.O.O.O.O.Z O.O.O.Z &XO.O.Z O.O.O.J.O.O.O.O.O.O.O.O.O.O.O.Z O.O.O.O.O.O.O.O.O.O.O.O.O.O.O.O.O.Z Z &XO.O.&XO.O.Z O.O.O.O.Z O.#.4X>.e.iX0.fXhXaXxX-.N z j.h.4 2 s.x.t z D.C N &XJ.J.O.O.O.O.O.&XO.O.O.O.O.Z O.O.O.O.O.O.O.O.O.O.O.&XO.O.O.O.O.Z O.O.O.Z O.O.O.O.O.O.O.O.O.O.O.O.O.O.&XO.O.Z &XO.O.O.O.&XZ O.O.O.O.O.O.O.O.&XO.O.O.Z O.O.O.O.O.O.Z O.O.O.O.O.O.O.O.O.O.O.O.O.O.O.O.O.O.&XZ O.O.O.Z O.O.O.Z &XO.O.O.O.O.O.&XZ O.O.O.O.O.O.&XZ O.O.O.O.O.O.O.O.O.O.J.O.&XZ +.&X:X;.3Xy.3.0.8.5.aX*.+.x b.9 s.p.p.g.n.B.x Z B &XO.O.O.O.O.O.O.O.O.O.O.O.O.&XO.Z &XO.O.O.O.O.O.O.&XO.O.&XO.O.O.O.O.O.O.O.O.Z &XO.&XO.O.O.O.O.O.O.O.&XZ O.O.O.O.O.O.O.O.O.J.O.O.O.O.O.O.O.O.O.O.&XZ O.O.Z O.O.O.O.O.O.&XO.O.O.O.O.O.O.O.O.O.O.O.&XZ O.&XO.O.Z &XO.O.O.&XO.O.O.Z &XO.O.O.O.O.O.O.O.O.Z O.O.O.O.O.O.O.O.O.O.O.O.O.O.J.Z &XO.O.Z +.:X;.r.4.3.8.2.2.5.r.>.O.",
"b.9 p.p.2 8 b.V.x N J.H.O.J.J.J.J.J.O.O.O.O.O.&XO.O.O.O.O.O.O.O.O.O.O.O.O.O.O.O.O.O.J.&X&X&XZ J.O.O.O.O.O.O.O.O.O.O.O.Z O.O.O.O.O.Z J.Z &XJ.O.O.&XO.O.O.O.O.O.O.O.Z &XO.&XO.&XO.&XO.O.&XZ J.Z &XO.O.O.O.O.O.O.O.J.O.J.O.J.J.O.J.O.O.O.Z &XO.O.O.O.O.O.O.O.O.O.O.O.Z O.O.&XZ O.O.O.O.O.&XO.O.O.O.O.O.O.O.Z &X&X&XZ O.;X:X6XcXaXfXhXiXiXr.4XH.C.9 g.s.2 k.r b.V.D.Z C +.O.O.&XO.O.O.O.O.O.O.O.O.O.O.O.O.O.Z &XO.Z Z J.O.&XO.J.Z &XO.O.O.O.O.O.&XO.O.&XO.Z Z &XO.&XZ &XO.O.O.O.O.O.O.O.O.O.O.O.O.O.&X&XO.&XO.&X&X&XZ &XO.O.O.O.O.O.&XO.O.O.O.O.&XO.O.O.O.O.Z O.&XO.O.O.O.O.&XO.O.&XO.O.O.&XO.O.O.O.O.O.O.O.O.O.O.&XO.O.O.O.O.&XO.O.&XO.O.O.O.&X&X&XO.J.O.J.O.O.J.*XO.$.-.:.4.iX8.8.aX4.3X*XZ.n.x.p.p.2 g.v.N.Z.H.F.&XO.Z Z O.&XZ J.+.O.O.O.O.O.O.O.O.O.O.O.O.O.O.&XO.&XO.O.&XJ.O.&XO.O.O.O.Z O.O.O.O.Z O.O.O.O.O.O.O.O.Z O.O.O.O.&XO.Z Z O.Z O.O.O.O.O.Z &XO.O.O.O.O.O.&XO.O.O.O.&XO.O.O.O.O.O.O.O.O.O.O.O.O.O.O.O.O.O.O.O.O.O.O.O.O.O.O.O.O.O.O.O.&XO.O.O.O.O.O.O.&XO.&XO.O.O.O.O.&XO.Z O.O.Z O.O.J.O.J.O.O.#.H.*X:X4Xt.pXiX8.hXiXpXr.5X&X",
"y x.2 p.2 h.r z A.H.J.C &XJ.Z &XO.O.O.&XO.&XO.O.&XO.J.J.O.&X&XO.J.Z J.&XJ.O.J.&XO.O.O.O.O.O.O.O.&XJ.O.J.&XJ.&XO.&X&XO.&XO.&XO.&XO.&X&XZ O.O.O.O.&X&XJ.O.Z &XJ.Z &X&XJ.Z &XZ &XZ O.O.O.O.&XO.O.O.O.O.O.O.O.&XO.&XO.O.O.O.O.O.O.O.&XO.J.Z O.O.Z Z O.Z O.&X&XO.O.O.&X&XO.&XO.O.&X&XO.O.O.Z O.O.O.&XO.O.&XO.Z O.&XZ J.+.#.-.*.vXaX8.0.hX4.xX$.N l x.g.4 2 g.w t z N H.N O.H.J.Z O.&X&XJ.O.J.Z &XO.J.&XJ.J.Z &X&X&XJ.O.&XO.O.O.O.O.O.&XZ &X&X&XO.Z O.Z Z Z J.&XJ.J.Z O.O.O.O.O.O.O.O.O.O.O.&XO.O.O.O.O.O.J.Z J.Z Z Z J.J.J.Z J.&XJ.Z Z Z O.O.O.&XZ Z &X&X&X&X&X&XJ.O.&X&X&XO.O.J.O.O.&XJ.O.Z Z &XJ.&X&X&X&X&X&XJ.&XZ Z &XO.J.J.Z &X&XJ.Z J.O.&XZ Z J.O.J.O.&XO.O.Z +.O.4X5X>.4.3.8.8.3.pX6X;Xx n.x.s.2 g.8 r k x C N O.&X&X&XO.O.O.&XZ O.O.O.&XO.O.O.&XO.O.O.O.O.O.Z O.O.O.O.O.O.O.O.O.Z &XO.&XO.O.O.O.&X&XZ O.O.O.O.O.O.&XO.O.O.O.&XO.O.O.&XO.O.O.O.O.O.O.O.O.O.O.O.Z O.O.O.O.O.Z O.O.O.O.O.O.O.O.O.O.O.O.O.O.O.O.O.O.O.O.O.O.&XO.O.O.O.O.O.Z O.O.Z Z O.O.O.O.O.Z J.O.O.O.Z O.O.O.O.O.&XO.&X&X&X&XZ J.O.H.&XZ +.J.*X$.;.t.e.0.9.0.0.aXr.;.Z ",
"t 0 2 2 4 7 y l x N Z H.O.&XZ O.Z J.J.&XZ &XZ Z O.O.O.O.&XO.Z O.&X&X&X&XO.Z O.O.&XO.O.O.O.O.O.O.O.O.O.O.O.O.Z O.O.O.O.O.O.O.O.O.O.O.+.&X&X&X&XO.O.Z &XZ &X&XZ &X&XZ O.&X&XO.O.&X&XO.O.O.O.&XO.O.O.O.Z O.O.Z O.O.O.O.O.O.Z Z O.O.Z Z J.J.J.Z &X&X&XO.J.Z Z O.&XO.O.O.O.O.O.O.O.O.&X&XZ &X&XJ.&XO.O.Z O.&X&XJ.&X+.F.&X*X:X=.cX5.8.8.hX3.xX:XC B.w 7 s.2 s.j.t V.F.H.C Z J.O.O.O.O.O.O.&XO.&XZ O.O.&X&X&X&X&XZ Z J.O.O.O.O.O.O.O.O.O.O.O.O.O.O.&XO.&X&X&X&X&XZ O.&XO.O.O.Z &XO.O.O.O.O.O.O.O.O.O.O.O.J.&XO.&X&X&X&XO.&XO.&XJ.&X&XO.O.&XO.O.&X&X&X&XJ.Z Z &XO.Z J.Z Z O.Z Z Z &XZ J.Z O.&X&X&X&XZ Z Z Z O.O.&XZ &X&X&X&XO.&X&X&XO.O.&X&X&X&X&XO.J.&XO.O.O.&XO.O.J.*XO.$.-.xX4.5.fX8.3.4.>.+.Z.b.w s.2 2 8 v.N.x H.F.&XO.Z Z &XJ.J.&XJ.J.O.O.&XJ.&XJ.Z J.O.J.J.J.J.J.&XJ.J.H.J.J.&X&XO.&X&XZ O.O.O.O.O.O.O.O.O.O.Z &XO.O.O.O.O.Z O.Z Z O.O.O.O.O.Z O.&XO.O.O.O.O.O.Z O.&X&XO.O.O.&X&XO.O.O.&X&X&X&XO.O.O.O.O.O.O.O.O.O.O.O.O.O.O.O.O.Z J.&XO.O.O.&X&XJ.J.J.J.O.Z Z Z O.O.&XJ.O.&XZ &X&XO.O.&XO.&XO.O.&XO.J.J.Z O.Z O.#.-.*.pX3.8.3.3.3.r.>.Z ",
"t 9 h.2 2 7 y z A.F.J.H.*XJ.J.&XJ.O.&XO.&XO.Z O.O.O.O.O.O.O.O.O.O.O.Z Z O.&X&XO.O.O.Z O.O.O.O.O.O.O.O.O.&XO.O.O.O.J.O.J.J.&XZ &XO.O.Z Z O.O.Z O.&XO.Z &XO.O.&XO.O.O.O.O.O.Z O.O.Z &X&XJ.&XO.Z O.O.&XO.O.O.O.O.O.O.O.&XO.*XO.O.&X+.&XO.+.O.O.+.O.O.O.&X&X&XO.O.O.Z &X&XJ.Z &XJ.J.O.O.O.O.+.O.O.O.J.O.Z &XJ.Z O.O.Z *X#.-.>.zX5.0.2.0.5.r.$.C l 9 g.s.2 s.w b.V.D.H.H.*XO.O.O.O.Z O.O.O.O.O.&XO.O.O.Z Z O.O.&X&X&XO.O.O.O.O.&X&XO.O.O.O.O.Z &XZ O.O.Z Z &XO.O.O.O.O.O.O.O.O.O.&XO.O.O.O.&XO.O.O.O.O.O.O.O.Z &XO.O.O.O.Z &XO.O.O.O.O.O.Z Z Z O.O.&X&XO.&XO.O.O.&X&XO.O.&X&X&XO.&X&X&X&XZ &XO.O.O.&X&X&XO.O.O.&XZ Z O.O.&XZ Z O.O.O.O.O.Z O.Z &XO.O.Z O.&XZ O.O.H.*XO.%.;.r.y.3.8.0.5.4.:.+.x y w p.a.p.g.r V.x H.F.O.O.+.O.O.Z Z &X+.&XO.O.O.O.O.O.&XO.O.O.O.O.O.O.O.O.+.O.O.+.O.O.O.O.O.O.O.O.O.O.O.O.O.O.O.O.O.O.O.O.O.O.O.&XO.O.J.O.J.O.O.O.O.O.O.O.O.O.O.O.O.&XO.O.O.O.O.O.O.O.O.O.O.O.O.O.Z Z O.O.O.O.O.O.&XZ O.J.&XZ Z &X&XJ.&XZ Z O.O.Z O.O.O.O.O.O.O.+.*XO.O.O.O.O.O.O.O.&XZ &X&XZ O.Z J.&XZ O.Z &XJ.+.&X+.$.;.r.4.0.9.0.0.y.:.;.Z ",
"e w 4 2 4 8 e z A.H.Z H.O.Z Z Z O.O.O.O.O.O.O.O.J.&X&XJ.O.Z &X&X&XO.O.&XO.O.O.Z O.O.J.&XO.Z O.&XO.O.O.Z O.Z O.O.Z &XO.&X&XZ O.Z O.&XO.O.O.O.O.O.&X&XO.O.O.O.O.O.O.O.O.O.O.O.O.O.Z &XO.O.O.O.O.O.O.O.O.O.O.O.O.Z O.O.Z J.O.O.O.O.Z J.J.&X&XJ.Z &XJ.J.J.J.J.J.Z &X&XO.O.O.&X&XO.&X&X&X&XJ.&XJ.&XJ.J.Z &XO.O.Z &X+.C *X#.5X>.y.5.8.fX0.4.r.-.C V.w 7 4 2 7 r t z N Z C +.Z &X&XO.&XO.O.O.O.O.O.O.O.O.O.O.O.O.O.J.&X&XZ J.Z &XZ Z J.Z Z Z &X&XJ.&X&XO.O.J.O.O.Z O.&XO.O.Z Z O.O.O.O.Z J.Z Z J.Z Z Z Z O.O.&XO.&X&XO.O.&X&X&XO.&X&XO.O.O.O.O.O.&XO.&XO.O.&X&X&XO.&X&XZ &XO.O.O.Z O.O.J.O.O.&XO.O.O.O.O.O.&X&XO.O.&X&XO.O.O.O.O.O.O.+.O.O.O.O.O.&XO.&X&XZ &XJ.J.O.J.;X+.$.;.*.y.0.8.8.3.5.:.+.M t 0 2 2 2 g.r z x Z N O.O.Z &X&XJ.Z Z Z Z &XZ O.O.Z Z O.Z O.Z Z &XZ &XO.O.O.O.J.Z J.&XO.&XO.O.O.O.O.O.&XZ O.O.O.O.O.O.O.O.O.O.Z Z O.&XO.&XO.O.O.O.O.O.O.O.O.O.O.&XZ O.O.O.O.O.O.O.O.O.&XO.O.Z &XO.O.&XO.O.O.O.O.O.O.Z O.O.O.O.O.O.O.O.O.O.O.O.O.O.O.O.O.O.O.Z O.J.Z Z +.J.O.J.O.J.J.&XJ.&X&X&XO.&XO.O.&X&XZ J.&X+.O.O.$.;.r.y.0.q.0.6.6.r.;.Z ",
"y w 3 2 4 j.r k Z.H.H.H.&XJ.J.=X&X&XO.O.&XO.O.O.J.J.J.J.J.J.J.J.J.J.&XJ.J.J.J.Z &X&X&X&X&XJ.J.J.J.J.J.J.Z J.&XJ.&X&X&XJ.&X&X&X&XJ.J.J.=X&X&X&XJ.J.J.&XJ.&XJ.J.J.J.&XZ J.J.&XJ.J.&X&X&X&XJ.J.&XJ.Z O.O.&X&X&XO.&X&XO.*XO.O.&XO.O.&X&X&X&X&X&X&X&XJ.J.J.&X&X&X&X&XJ.&XJ.&X&X&X&X&X&X&X&XJ.J.J.J.J.&XJ.J.&XJ.Z &X&XH.*X;X:X3Xe.5.0.fX0.5.xX$.N l w 4 4 4 s.x.b.A.D.H.F.&XH.J.J.&X&X&XJ.J.J.Z =X&XJ.J.J.L.P.J.&XJ.J.&X&X&X&XO.&X&X&XZ K.J.H.J.J.&X&XJ.J.J.J.K.J.K.J.&XO.&X=X&X&XJ.&X&X&X&X&X&X&X&XO.=XJ.Z K.J.&XJ.&XJ.J.J.J.J.J.J.J.J.J.&X=X&XJ.J.J.J.&XJ.&X&XJ.&XJ.J.&X&X=X&XJ.K.&XJ.J.J.J.J.J.J.J.J.&XJ.J.J.J.J.&XJ.J.&X&XJ.J.J.J.J.J.Z J.J.J.J.J.J.J.&XJ.&X&XJ.*X&X:X;.*.vXaX8.fX5.y.:.@.x l v.4 a.2 h.r k x H.N &X&X&XJ.J.Z &X&XJ.J.J.&XO.O.O.&X&X&X&X&X&X&X&X&XO.&XJ.J.J.J.J.J.Z O.O.O.O.O.O.O.O.O.O.O.&XZ &XO.O.O.O.O.&XO.O.&XO.O.O.O.O.O.O.Z O.O.O.O.O.O.O.O.&XO.O.O.&XO.O.O.O.O.&X&XO.O.O.&XO.O.O.O.O.O.O.&XO.=X&X&X&XO.O.O.&X&XO.O.&X&XJ.&X&XO.&X&X&X&XJ.J.J.J.K.J.J.J.J.J.J.J.J.J.J.&XJ.&XJ.J.&XJ.J.&XZ +.:X5Xr.4.iX9.8.3.5.t.>.O.",
"b.w g.4 5 0 y t c A V m @.V V V O.o.Z Z Z O.o.O.V o.V o.@.O.V o.V o.V o.V O.O.@.o.o.o.o.V o.o.O.O.@.o.V o.O.o.O.o.V o.V V o.V o.V o.o.o.o.o.o.o.o.V V o.o.o.O.o.V O.o.O.o.O.o.o.o.o.o.o.o.o.o.o.Z Z V Z Z Z Z V Z Z C o.Z o.Z o.O.o.o.o.O.o.V V V V o.o.O.O.Z V V o.o.o.V o.o.o.V V V V Z V O.O.+.O.O.@.O.V V o.o.%.%.X.>.u.5.q.8.0.4.r.-.A k 0 0 7 5 5 e u k v Z A @.o.o.V o.V o.o.o.o.o.o.o.o.S S Z S o.o.o.o.V Z Z V V V o.Z o.@.@.o.V V V n V n V o.o.o.o.o.A V V o.o.O.o.o.V V o.V o.Z O.V o.o.o.V V  .V o.o.n o. . .V V V  .o.o.o.o.o.o.o.o. .V n V o.n  .o.V S A V V  .S @.o.o.V V V o.O.o.O.@.o.o.V o.V o.O.O.o.o.o.V V O.o.o.Z Z o.o.o.o.O.@.o.o.o.V @.O.#.5Xr.e.3.q.0.6.6.>.@.x e e 3 4 4 8 y k B C B o.O.O.o.Z V o.O.O.O.Z o.Z O.O.o.&Xo.o.O.o.V V Z o.Z o.Z Z o.O.Z J.&XJ.Z J.J.&XJ.O.O.O.O.O.O.Z O.&XO.O.O.O.&XO.Z O.O.O.O.O.O.O.O.J.J.J.O.J.Z J.J.&XJ.Z O.O.O.O.Z Z Z J.J.J.J.J.J.&XZ J.J.J.J.J.&XO.o.o.O.O.o.O.O.o.O.o.O.o.V V V Z Z Z Z Z O.&XO.o.o.O.V O.V o.Z o.o.o.o.o.o.o.V V o.o.V o.@.+.#.@.,.=.6.q.0.q.6.e.*.;.=X",
"u e 6 5 6 q q k x N H.N =XJ.J.J.O.Z Z Z Z O.O.O.&XJ.Z Z J.&X=X&X&X&X&XZ Z O.J.Z J.&X&XJ.J.H.J.J.&XJ.Z Z O.&X&XO.&XZ &X&XJ.&X&X&XJ.K.J.=XJ.J.J.J.&X&X&XO.Z J.J.J.&X&XZ Z Z &XO.O.Z Z J.&XL.J.&XL.&X&XO.O.o.Z O.O.o.+.O.O.O.O.O.O.O.O.Z O.O.&X&X&X&X&XZ Z Z O.O.&X&X&X&XJ.&X&XZ J.&X&XJ.J.J.Z Z Z J.J.J.J.J.J.J.K.J.-X;X4Xr.t.q.9.9.6.7.u.-.Z z e 4 5 3 4 e t z B C N Z J.J.&X&X&XZ Z Z &XZ Z Z O.-XZ Z Z Z V Z V O.o.o.V o.o.o. .V n V O.O.Z o.O.Z Z O.O.o.O.o.o.O.o.o.V V V o.o.o.o.o.o.o.o.o.o.V V o.o.o.O.o.O.O.O.o.O.O.O.O.o.C Z Z Z Z J.Z &XO.O.Z V Z O.O.O.&XV Z Z &X&X&XJ.C Z =X&X&XJ.Z Z J.O.Z Z &X&X&X&XZ Z O.J.&X&XJ.J.Z J.J.J.J.J.=X&XJ.J.J.K.J.J.J.*X@.X.>.u.7.w.9.w.y.y.>.#.x y w 4 3 6 0 e k x N N K.J.J.J.J.K.J.J.J.J.=XJ.J.=XJ.J.=XJ.&X=X=X&X=X&XJ.J.&XK.J.&XJ.J.&X&X&X&X&X&X&X&XJ.&X&XJ.&XJ.&X&XO.O.O.O.&XO.Z Z O.O.O.V Z Z O.&X&X&XJ.&X&X&X&X&X&X&X&X&X&X&XO.O.Z J.J.J.&XJ.J.&X&X&X&X&X&X&X&X&XJ.J.J.K.J.J.J.J.&X&X=XJ.K.K.K.J.&X&X&XJ.J.J.K.J.=X&X&X&XO.O.&X&X&X=XK.&XJ.J.J.J.J.J.+.H.Z J.=X;X$.>.r.4.3.9.9.3.7.=.;.Z ",
"t e 0 3 6 q u u j v v m | | n ..| b b b | b b | | S b b b | | | | n b  . .n n |  . .S n n n n  .S  . .| n b  . .|  .| S |  .b n  .S n  . .| n | S n  .| b  .| S n b b n b b |  . .S  . .n b S | | | | | | | | b | | | | | ] b | ] S b b b b b b  .S b | g b b b S S b S n b  .S m b  .n b b m m  . .| n n n n  . ...X.X.u.y.y.w.2.w.6.u.%.A z e e 5 6 q q u c v S v | b b | | | | | ] | b ] ] | | ] ] b ] ] ] | ] S b b b b |  .b  .| ..h | ] b | h g g ] ] g g [ ] ] [ S [ h [ ] ] [ g S [ h g g h g h g | ] h [ g | | h S b g g g b b b g n | b b b b b b b b |  .S  .g g b b | b g b |  .b b ..| b b b b b b b b b  .n  .n  .n  . .n b n n b n b S n  .|  . .%.%.>.u.7.w.w.q.6.e.>.%.B y 0 0 5 6 0 y k x B V n V V V V V V o.V o.V V V V o.V  .o.V o.V o.n o.Z o.V Z O.o.o.V o.V V V V o.o.o.o.O.o.@.o.V V o.O.O.V Z Z Z Z Z &XJ.J.Z O.O.O.o.o.V o.V o.o. .n V  .V  . . .o.n  .n n  .n n V  .o.o. .o.o. .V o.V o.V o.o.o.V O.o.o.o.o.o.V o.o.V V o. .o.b  . .|  . .n  .n n  . . . .| .. .S  . .n n ..| m ..&.X.,.u.7.w.q.w.7.y.r.,.V ",
"k u q 6 6 6 i i p j h j ] g h ] h ] h g h [ g g g g g ] h h [ ] h h g h h ] g g ] ] | | ] g h ] ] g g b g S g ] | ] b b b b b b h b | | | | | b b ] ] ] ] ] [ g h ] h g g g g g h S g | ] | g ] g ] ] g g h g h h ] h h h g h g ] [ h g h ] ] ] h g ] h ] ] g h ] | ] | ] h h h g g g | g b b b g | b b b b b | ] ] X.&.i.i.1.w.7.w.y.t.X.n c u q 6 6 6 u i p p m g ] g h ] g [ [ h h [ h [ [ [ [ h [ [ h h [ [ d d d h ] g g h ] [ [ h ` ` [ [ d h ` ` ` ` ` ` ` d d [ [ ` ` h [ d d [ [ [ ` [ d [ ` [ ` ` ` d ` ` ` ` ` ` ` [ h ` d d ` d d ` ` [ [ [ d [ h [ ` [ [ h h [ h h ] ] g h h h g g g g g g g g g | ] ] h h h g g ] g ] g g b g | | g |  . ...| | ..] { } i.u.w.w.q.i.u.,...v y e q 4 6 q q u j v v A m n o.n V V o.V n V Z V V V o.O.o.O.o.V V O.V o.o.o.V V O.V O.O.Z O.O.O.O.O.Z S L.Z Z Z O.Z Z Z V V o.o.o.Z o.V o.Z O.o.O.o.O.O.O.O.Z O.O.O.O.Z O.O.O.Z Z O.O.Z +.O.o.V V O.O.Z V o.O.@.O.n n V n o. . . .n  .n n o.n  . . . . .| |  .|  .| | | | | ] | | ] b | S | | b b | ] ] ] ] ] [ ] [ { { } i.i.w.1.w.7.i.:.-.n ",
"c u q 6 1 1   D p , , f ! _ s ! _ s _ _ _ _ _ _ a ) d _ _ a a s d d d d d d d [ d ` d ` d ` ` d ` ` a s d d s s ` d d d ` d d d ` d d ` ` ` ` d ` d ` ` ` d ` ` _ ` ` s _ s ` s s d d d d ` ` ` _ _ s ` _ ) ` ` _ _ _ s _ _ _ _ a _ _ ` _ s s a _ s ` a s s _ s a s _ _ ` s d ` f s d d d d d d d ` [ [ [ ` ` ` _ { { { } <.1.w.1.1.i.} %.A B u q 6 q 1 1 1 p j a f ` ` ) ) ) ) _ _ a _ ) ) ) a ! _ ! ! ! : : : ) ) ! ! ; ; Q Q ; : > ) a ) ! ) ! ) ! ! : ! Q ! a W : W ) a : ) Q a a Q a Q Q a : ! ! ; Q : ! ! : : a : : : : : ! ! ! : : : : : ! : ! : : : : : a a a a a s s _ a ) s a : s s _ a ) _ s ` s _ _ s ` s d d d d ` ` d d d d d h d [ h h d d ` ` [ { ^ } i.1.w.1.1.7.u.,...c t e 0 6 6 1 1 D p j j h g g b b b b g b b b S b | |  .b m | b  . .b m n n | n n n m  . . . . . .|  .|  . ...S  . .n S |  . . .n  .| |  .|  .b | b  .| |  . .n n n  . .b  . . .b n o.o.n n  .n n n b  . .n |  . . . . .n | b | | ..] ] ] ] ] ] ] ] ] ] [ [ h [ ` ] [ [ [ [ [ [ [ d [ ` ` ` [ [ ` ` d ` ` d d _ ` ` ' { { } 1.( 1.w.7.w.u.=.X.@.",
"u u i 1 1     @ < , - * = ; = = = R = R W = R = = ; % ; W ; ; ; ; ; ; ; ; ; % ; ; W W W ; W W R W W W ; ; ; Q ; W W ; ; W W ; ; Q W ; W Q W ; ; W W W W W W W ; ; ; ; ; ; ; W W ; ; ; ; ; W ; W W W ; ; W W W I W R R R ; W = R ; R ; = ; = W R = W W % = W ; R = ; ; R = ; ; ; ; ; ; ; ; ; > ; ; : ; ! W Q Q ! E ^ E / <.1.1.1.w.7.u.,.X.B B y q q 1 1   < @ * & & I = W R W R R R R R I R % R = = = R = R = I % % R I R R I I I % % I % % I I I I I P = I % = I I I L L $ # % $ P % L $ I $ I & % % % % I R I $ $ P % % % % % I % % $ % % % % % % % % % - % = I % % % = = = - = = W = ; = ; = I W R R ; = ; = - ; ; ; ; ; ; ; ! ; ; : ; : ; > ; : ; : ! Q Q W ^ { / <.( 1.1.1.i.u.,.@.x c u q 1 q 1 1 D < j f f a f d d f d [ d [ [ d d [ [ d d d d h [ d h [ h h h g ] h [ h [ [ [ h h [ h ] [ d S S g h h | ] h ] ] g h g b b b g | | | ] h [ h g [ [ [ [ ` [ ` d [ ` ` d d ` ` d s [ d d ` ) ` a a a d ` ` ` [ ` _ ` ` ` ` a ` a ) _ ) ) ) _ ) ) a ) ! ) ) ! ! : Q Q : Q W W W W W W ; W W W ; ; R W W E ^ E T ( ( ( 1.i.i.u.,.X.n ",
"c c i i 1   @ @ + * O O O P o P # $ # $ # # # # $ P L # L $ # $ # # $ # $ $ $ # # L P L H P P P L I $ # $ $ $ $ $ $ # $ $ $ # $ $ $ I $ $ L P L P L L L L L L # $ $ # P P # # # $ # I L . I L L L P $ L L L L $ # $ # $ # # # # L L # L # # L P L # o # # L o o L # L $ L # $ # $ # $ $ & % % $ % I $ % % % I I R U U Y T ( ( ( 1.i.i.,.X.m v c i D 1     @ * * # & o o L L L H L H L L H H L H H H H H H o H H # . . # $ . # # L L H F H F H H L . . H H H . o H H H . H . H H F . . . . L . . H . H . . H . . o . F L H L F # o o o H o o o o L P o o # o # o L # $ o # # # # # o # o $ o o $ $ # # # # # # L # $ # # # $ $ $ $ $ $ $ $ $ P $ # % P R P P I U Y K K T ( ( ( 1.i.} ,.| c c i i 1 1     < @ < * - - ; > > > > ! : ! Q a a : ! ! ! : s ! : : : : s s a : ) a ) ) s : _ a s : s s a a a _ s a a ` d ` d s [ ` _ : ! Q ! ! : : ! _ ` s _ a _ _ ) ) _ ) : _ ) _ ! ! ! ! ! : : ! W Q Q Q ! Q > : ) ) Q ~ Q W ! W W W W ~ R W W R R W R E I R I I R I E I P P P # P P P I P P L % $ L H P P P P P J Y J T T ( T ( 1.<.<.} X.o.",
"c c p i   @ @ @ + + o X . o o H . H . H . F H o . F . F . . . . . . . o F . F . . # # . H H o . F . . L . . H H o X . o H H o o . H . F F F L F F H F H H H F F . . . . o . H o o F . . H H . H F F F F F F . . . . . F F . o H . F F F H o . G G F F . . . . F . . . F H . X O . o O X X . o . . . F o o # L F H K Y K K T T ( ( <.} { ] m m c u D D D @ + @ * o o H . G H H H F F G F F F F F F H F F F . F . F F F F X G G G X . X G G F G F G G G F F F F G F F F F . H . F . F F F . F F F F F H . . F F F F . . . X . . . G F F F F . o F . . o o o X o o F . . . . X . . . . . . . o . . F . . . . . . . # . O . o . o o . F o . o H o o o H . o H H F L K K K T T ( ( 1.} } X.] v c c i 1     @ @ * * & & & & $ & & $ $ & $ & $ % $ $ % = % = = = - > - R % = = $ % % = R R R R R R R R W R W R R ; R = % % P R R = = Q : ; ; Q W W ; = I % R R R ; I W % = = I E I I I % I I % I I I I % % % % $ P P P L P L P L P P I L L L L L P L L L o P H L H H J H J L H H H H G F . H H H F F H . H H H F H J G K K T K ( T <.i.,.X.@.J.",
"v p p p D @ < * O + O O X O X o . . F . . . . . F . . . . . . X o . . . . . X . X . F F . X F F F F X . F . . F . . o . F F . . H F X F H F F F F G G F F F H . . . . . X . F . . . . . . . F . F F F F F F F . F . . F . . . . F . . . F . F H G F . . . X . F X . . . . X X . . . X O X o . X . . F . . . F F G G K K K T T / <.} &.,.@.m j x c p D @ @ + + X X X J . F F H G F H . X H . F F . F F . . F . F F F . F F F X X H . F . F . H H H F . . o H o . F . F F H F . . . . . . . . . . . . . . X . . . F . F . . . . F o . . o . . o . F . . . . . . . X X . . . H X o X . . H o . . F F F . G F . . X O X . . . X X X X . . . X . . . . X . . H F F . J K K T T T T <.} { ..@.n c c D D     @ @ + + O X + O O # # # o L # # # # # # # H H H X P o o # H o L # o L $ $ o o P H P P o $ F . # # # L L # H P P # o o o H $ # L o L P P P L L L P L L L L P L L L H H o o U . . L L H # . H . . L H H F F H H H H H H F F H F H F G H F F H H H H F F F F G F F F . F H F G F F G G F F F o H H F H H J J K K K T Y <.} } ,.X.%.n ",
"v c v j p < , * & * O $ H o o H H L L # L # L L L L H L . L L F . X L . . F . . F . . F H H o o # L . . . # F o o # o # o o o o . # L H # . L # L L L L L L L # L # # L L o # H # # L . L L H L F L # L L L # # H L # L L L o L L L H L H . . . H H H o o o o . X o o . . o # # o . # . o o # . o . . . . F F F J J G K K K T / / } { { @.n v v j p p p * @ * & # & L o H U L H L L L L L P L L H L L L $ L L # $ L L L # L H L H o o $ $ # # P L L L $ P # $ P # I I # I # L $ I # L $ L $ L $ L P I $ $ $ P $ $ $ $ P # $ # $ P $ # # $ # # H P $ # # # # # # # # # $ L L L o P o o o . H . F . o . X # # . . O . # . # . . # # o . # o o . H o o o . H F H J J K K Y Y T ^ } } &.]  .m v c c < D @ @ * * + O X O X X X X . F . X X . . . . . . . . H X . X X o X . . . X G X . . o . . . X o H . . . . . . # o . H F . F o o . . F F . . . o F H . . F F F F F H G F G G F . F G F F G G F . F F . . . . F H H H J F F G G G G G F F G F G F F G G G F F F H J G L F . H H L H o . L L # # L H H H H H H J J Y Y U T / / } } { X.@. .",
"L.F.B v j j < , - - % = % = R R $ % % L % P % $ R R P R P = % I I % P L L P $ P # # P & P H # $ & # % $ o R % P = $ % P $ $ $ $ P P L P L P P P P P P P $ P P $ I I I P % $ L P $ # $ $ P P P P P P P % P P R I $ P I $ & % I I # U % P P U # U P L I P = H # H $ % $ % $ # & P P $ % # $ $ # # L o # # P o H P P L U U U E / ^ { ,.X.O.&XJ.H.C v v c f < , - = % $ % % % P R P I R % % I % R R E % % W I R R R R P I = R P I P R R % L & % E = = ; = = = = = W = = = = = ; ; R W R ; ; = = ; ; ; R ; ; ; ; ; = W ; R > = W ; = W ; R = ; R - R W R = = = = % = R = % R I % = % P E R U P R # P L U # O P $ & $ R o # $ # - # # % # P o L # # # o o o o H L H P J P U E / / { &.X.X.Z O.O.M v v p p p , * * O O & & o O O O X F . . O H . H H X . . . . # . O F H H . . . . . . X X . . H . X J . H X X G . X G . F . F F . F . F F . F F F F F H . F . F H . . o . F F F H H H H G J o F H . o F H . H H o F . F . G H L F U F J . H H J H o H H F H o . # L H U L L L P # L L $ H L # P # P R $ P L P U P P P U Y ^ ^ ^ } { X.%.*X-X,X",
"L.H.N N B v g h j f s s : : : ! ) ) _ ) s ! ! _ : : _ ! : : : ! ) ! ! ~ E W R ; % = = - = = > > : : : > > : : ! Q Q : : ! ! : ! : Q Q ! Q ; : ! ! ! ! ! ! ! ! _ : : : ! : ! : ! ! : : : ! ! ! : ! ! ! ! ! : : ! _ ! ! ! a : ! ! ! ) ) ~ ! ) ) ! ! W W E R > - , : > > : s , , _ ! ! > > > : Q : W : ; ; ; W ; = W ~ ~ ! ^ { { { { X.%.;X+.Z C H.A B c g j h f : a > > ! : ! _ : _ ) a ) _ _ ) ` _ d d [ ' [ ` _ ' ! Q ^ Q Q ; ! = : > > , _ : : s d ` [ ` h d [ ` ` [ [ h h [ [ [ [ [ ` h [ h [ [ [ h h [ d [ ` h d ` ] h ` d ` d d h d d h d ` [ ` d d d d ` _ s s s s _ _ _ ! : _ _ ) Q ~ ~ E R R R ; ; % ; % , > : > W > : > ; : : ; : = = : : = : W W W W W E Q ^ ^ ^ { { ] X.X.Z &XO.N B x v v j , , - - - & & $ % $ $ # P L & # $ # L L P # $ L # . P $ . H H F . F o H o J O o H o o o o # F L # H # # L # . # o # o o # . L H # . o # . H L # F H H L L H H U L L P H L H P P o $ L L P o P o P # L L L L P U L P I U I P E # P U o P H P o E P R # R % % ; > ! Q Q W Q : : : : : ! Q : : ! ! ! ! ! ! ! _ ' { { X...#.+.-X-X,X=X",
"!./.!.Y.U.U.K.J.A V V n n n b  . .n n b  .n | n b n b  .| | | ..] { ' ' { ' ! _ a a > a a f j h h g g g b m  .b | | | | b ] g g | g ] ] g g g b g b b b | b | b b b b b b b | b b b b b ] b ] b | | | b b b b n | | | | b | ..| m ] | ] X.' [ ' ) ) ' ) ! f f f a j h f m g n g | | b g g ] g g ] [ [ [ h h h [ [ [ [ ] ] ....@.;X*X=XK.1XI.Q.U.U.Y.Y.N Z A v b m b b | | b n n b n n o.V n n o.V V o.n @.o.@...X.X.g &.' [ ` ) f j f b v m v V A A Z V V V Z O.Z V Z Z O.O.J.&XZ Z =XO.Z Z J.J.J.Z Z J.Z &XJ.&XO.&X&XJ.O.&XO.V Z V O.Z V o.Z O.O.O.O.o.V V V o.A V @.V o...@. . ...] ] ' ' ' ' ' d d a : f f d j h h g ] g g g ] [ h [ h [ [ h h h d d [ [ h h { [ ] X.....@.@.1X2X<X<XI.U.P.L.F.B v h j j a _ > > ; ; = = = = = - ; ; ; R R % ; = % R R P $ % L P I P $ % I $ $ $ $ & % = & P $ $ $ $ % % $ & P I P I P I P $ P U I L P P P P $ I I I L $ P I % E P R I % R = W R R R R R % I = R = = - = ; : : Q Q ! ~ Q ! ^ ! W ! ~ E ! Q ~ R > , ; Q , > s _ s d f [ [ g g ] ] ] g b | ] g b | | g b  . .n  . .O.O.;X1X2XqXqX9X9X9X",
"OX^.E.^.~.!.I.I.Q.Q.<XI.<XI.I.I.,X,XI.<XP.I.<XI.I.I.<X<X<X,X1X-X-X*X*X+.@.@.X.] | h g v v A B N B F.L.L.L.P.P.<XP.P.I.P.,XP.,XP.,X,X,X,X,X,XP.,XP.,X,X,X,X<X,XI.,X<XP.,X,X,XK.P.P.K.K.P.P.K.,X,XP.P.,X,X,XP.P.,X,XK.,X,XP.K.=X=X,X,X>X-X@.#.X.X.| | ] g b v A v m C B H.F.P.H.L.,X=XP.=X=X=X=XJ.&X=XJ.J.&X&XO.O.O.V -X-X=X=X1X,X0XqXW.wX~.wX~.~.!.!.U.Q.,XU.G.P.P.K.P.P.P.P.P.U.I.Q.U.U.I.I.0XQ.0X0X0X1X<X<X1X2X>X;X*X#.#. . ...b v B C D.D.L.U.Y.U.Q.Q.!.!.!.qXqX!.!.!.Q.<X!.!.W.qX!.W.W.qXW.W.wXW.W.W.wXW.wXqXqX!.!.qXqXQ.!.qXW.W.0XW.W.qX!.!.0X0XQ.0X0X!.qXQ.!.0XqX0X0X0XqX1X-X1X>X;X*X#.%.@...| ] b m v m N H.v B A &XJ.J.H.&X&XO.O.O.O.o.o.V V Z Z V V o.Z O.O.&X&X,X1X0XqX0XqXW.!.!.!.Q.Q.L.U.K.Z A A m | b b ] ] g g h h [ S h ` [ ` ` ` f d ` _ a ` : ) ) ! ! ! > ; ; > : > : > : : s ! a _ _ _ ) ) s _ _ a s a ) ) _ ) s a d a _ a a a a a a ) _ ` a a _ _ _ ` ` ` d ` ` h ` [ [ [ d h h ] [ ] g h [ ] h ] ] ] ..] ] ] ] ] { [ { ` ' ' ` d h d h m v B V C H.J.H.K.J.G.K.K.K.K.K.K.,X,XK.=XP.P.P.P.,X<X,X<X<X<X0XqXrXwX8X8X8X+X",
"@XKX@X+X+X+XoXoXHXHXOXeXeXHXOXOXHXHXHXHXHXHXJXHXHXHXHXHX8XPXrXtXtXtXtX2X4X$.X. .| b v v x F.A.Y.Y./.~.E.E./.HXeXOXHXOX8X8X8XR.R.HXeX8X8XeXeX^.eXeXR.eX^.eX8XR.8XHXeXHXeXeXeXeXR.R.R.R.8XeXR.HX8XeXeX8XOXR.eXeX^.eX8X8X8XR.8X8X8XeXwXtXtXtX2X2X5X+.@...X.v m v B G.A.Y././.^.E.^.wXR.R.eXeXwXwXwXrXrX9XwX9XwX9XW.qXwXW.W.wXrX~.HX8XHXHXPXR.OXOX$XJX+XOXE.PXE.E.^.eX^.~.E.^.R.R.R.OXOXE.+XoXoXoX+X+XoXJXPXPXPX8XtXyX2X2X>X-.@.@. .B v x x G.S././.$XR.+X+XOX+X+XJXoXoXoXoXGXJXoXoXJXJXoXoXGXGXoXGX+XoX@XKX+XGXGXGXoXGXKXGXGXGXJXGXGX+XGXJXoXJX+XJXJXJXJXGXJXGXJXJX+XJXJXJXJXHXPX8XPXrXyXtXtX>X4X#.%.m  .m c N M G.Z.Q.Y./.!.W.W.wXwXW.wXqXqX9XqX!.0X0X0XI.0XqX!.0X!.qXW.~.wXwXeXPXR.HXHXHXR.OX^.R.E.~.W.qXQ.I.P.-XU.K.,X=X&X=XK.=X&XZ Z O.Z o.@.O.+.V @.@.......[ ` { ` ! _ _ : : > a a j f j j | b m b b |  .b g | g | | | | | ] | | | ] | | b | ] | b | | | | b m n n n n A V Z V V Z Z Z &XZ J.Z J.J.K.=X&XJ.C J.K.K.K.-X-X-X-X>X;X-...X.X.[ [ h f j m v N x D.Y./././.wX~.~.^.^.~.^.E.E.R.eXeXHX8XeXHX8XR.HXHXOXHXJXOXOXGXOXGX'.MXGXMX",
"NXNXNX`.NXmXmXmXMXMXMX'.'.'.@X#X@X'.'.KXKX@X@X@XKX@XMXLXLXMXVXLXPXIXyXyX2X2X>X&X-XH.M Y.Y.Y.T./.%X%X#X[.[.'.#XMX@XKXKXKXMXMXMX'.'.@XMXKXMX@X].'.'.KXMX'.'.].'.'.KXKXKXKX].MXKXKX@X'.@X'.@X@X@X'.MXMX@XMXMXKXMX@XKX'.@X'.'.KXKX'.LXLXIXPXIXyXtXyX2X-X-X-XG.Z.Z.Y.Y.T.T.%X%X+X#X#X@X@XoXGXKXGXGXKXKXGXGXoXoXKXGXJXGXoX@XoXGX@XKX'.LXGXMXGX].@X'.'.[.[.@X[.LX@X#X@XKXoX@X'.[.'.'.'.@X'.'.].'.@XKX@X'.'.NXLXBXLXLXCXIXIXIX7X2X1X-X1XF.G.C./.T.T.$X%X%X{.[.[.[.].`.].LX].].].NX`.].].].`.`.].].`.NX].NX[.NX`.].].NX`.].NX].NXMX`.MXNX].`.].].NXMX].].`.NXNX].NX`.].NXNXNXNX'.].BXLXMXVXIXIXyXyXyX7X2X;X=XJ.K.L.Z.Y.Y.S.$X%X$X$X@XoXGXGXGXGXGXJXJXJXJXJX+XJXOXOXOX+X+XoXoXoXGXoXoXoXoX'.KXKXMXKX].'.KXGXGXJXJXHXeX^.rX~.wX9XrX9X9X9XqX!.qXqX0X0X0X0X<XI.qX<X1X0X2X2X*X*X+.+.@. . .n m m B B H.C C N &XL.L.L.P.,X=XP.,XP.P.P.P.K.,XP.P.,X=XP.=X,XK.,X,XK.P.,XP.P.P.I.I.I.U.<XI.I.Q.I.qXQ.Q.!.Q.Q.0X!.!.!.!.!.~./.E.^.^.^.~.E.eXeXrXrXtXtX2X7X2X2X-X;X+.O.A G.F.A.S.S././././.$X+X@X+X@X@X@X@XoX@X@X'.KX'.'.@X@X@X@X@X@X@X'.[.'.`.NXSXSX`.[.`.mX",
"}.ZXSXSXZXZXmXDXZXZXZXZXZXZX}.}.SX}.mX XSX XSXSXSX XSXSXDXDXVXVXCXCXCXIXuXyX2X2XJ.L.A.S.S.M.%X(._._.XX[.`.{..XmXZXmXZXZXZXSXmXZX XSXSXmXSX XSX XNX X XSX X X XSXSXSXSXSXmXmXSXSX`.`.`.`.`.`. XSX}.`.`.SXmXmXmX`.`.`.mX X.XVXDXmXVXDXVXCXIXCXIXyXyX2X>X=XU.Y.S.S.T.%X%X%X#X$X{..XZX X XZXmXmXmXDXmXmXmX`.`.mXmXmX`.`.`.`.].SXNXmXmX}.}.ZX.XZXZXZXmXNX`.`.SX X[.[. XmX X`.[. X.X`.}.ZX}.}.}.`.}.ZXSXSXDXAXVXFXCXCXCXIXyXuX7X2X&XC U.S.T.T.(.(._._.XX{..X.X X XSX X}.ZX XZXZX}.}.}. XZX`.ZX}.ZX}.SXSX}.ZXSX XZXZXZXZXSX}.}.ZX}.ZXZXZX|.ZX}.}.ZX}.ZXmXZXZXSXSXZXZX XZX}.mXDXSXSXFXFXDXFXVXIXIXyXyX7X2X2XJ.G.Y.S.T.T.%X%X{.%X{..X.XNXNXNXBXmXBXNXBX].NX'.'.].mX'.[.].'.NX`.NX[.[.DXSXNXDX X`.mXBXNXBXmXNXNXBXBXKX'.MX@XGXGXGXGXoXGXGXoXGXoXKXJXJXGXPXJX^.PXPXJXtXtXyX7X>X$.#...n n n v x G.Z.G./././.^.^.^.E.eXeXR.8XeXeXeXwXeXeXeXeXR.R.eXR.R.^.^.^.HXeXR.^.eX^.^.OXOXOXOXOX+X+X+X+XoXoX@XGXKXKX@X'.#X@X#X#XKX@XoXoX@XKXKXMXMXLXPXLXVXIXtXyX2X7X+.*XJ.F.F.A.S.T.(.%X%X{..XXX.X.X[.SX`.mX`. X X`.`.`. XmX X X`.`. X.X X`.AX}.SXSX}.}.}.AXZXAX",
"ZXZX}.ZX}.ZXZXZX X X}.ZXSXZXSX`.ZXZXZXZXSX}.ZX}. X}.ZXZXAXAXFXCXFXCXuXIXuXnXyX2X<XK.S.S.T.M.(._._._.{..X X.X X}.mX X X X X`.ZXZXSXSXZXSXSXZX}.ZX}.}.}. X}.ZX}.ZXZXZXSXZXZXZXZX}.ZXZXDXZX X}.}.SX}.ZX}.ZXZXZXZXSXZXZXZX}.}.SXSXZXVXSXFXCXCXIXuXnXyX2X2X1XY.Y.S.M.z.(._._.XXXXXX.XZXmXmXmXmXZXSXSXZXSXmXZXmX`.ZXZXmXSX`. X XSX`. X X X X`.SX}.ZX X}.}.}.}.}.ZXZX}.}.}. XZX X X.X X[..X.X.X}.}.ZX|.}.ZXAXZXAXDXFXCXCXnXUX7XyX7X1XU.Y.S.M.M.(.%X).XX{.XX.X|.|.}.}.}.|.}.ZX}.}.|.}.}.ZX}.ZX}.ZX}.}.}.ZX|.ZXZX}.}.ZXZXZXAX}.ZXZX}.ZX}.SX}.ZX}.ZXZX}.ZXZX}.ZXZXZXZX}.SXZX}.}.ZXZXAXAXFXFXCXCXCXUXuXnXyX7X>XG.Y.S.m.T.M.(._.{.XX[.SX.XZXSXDXmXZXZXmXZXmXmXZX X XZXSX X X[.SX.X XDX}.SX[. X}.}.ZXAXZX}.DXmXZXVXDXDXDX}.VXNXmXmXNXmX`.NXmX[.BXmX'.BXNX].BXMXNXLXVXLXIXIXtXyXtX7X>X>X=XH.L.Z.Y.Y.T.T./.%X#X#X'.#X@XKX'.'.GXMX@XKX@X@XoXKXKXMXGXGXMXoXKX'.KXoX@XKX@X'.@X[.[.'.'.[.'.].[.[.'.[.[.'.].].].].'.'.].MX].[.[.[.[.`.[.].mXBXVXFXFXCXIXIXIXuX7X2X-XK.F.Y.S.S.M.(._._.%X{.{..X.X.X XZX}. X X}.}.ZX}.SXZXZX}.}.}.}.}. X|.SX|. X}.ZX}.|.|.}.}.",
"ZXSXmX X XZXmXDXZXZX}.`.ZXZX}.}.}.ZXZXZX}.ZX}.}.ZXZX.XDXVXZXFXFXCXCXUXUXlXnXyX2X1XU.S.M.z.z.)._._.XXXXXX|.XX}.ZXZXZXZXZXZXZXZXZXZXZXSX}.ZXSXSX}.}.}.ZX}.}.}.SXSX}.ZXZXZXZXZXZXZXZX}. X X}. XZXZXZX}.SXZXZXZXZX}.ZX}.}.DX XZXAXZXFXFXFXCXUXUXUXUXnXyX7X1XG.S.m.M.z.).)._._.XXXX|.ZXZXZXZXZXZXZXZXZX}.ZXZXZXZXZXZX}.}.ZX}.ZX}.|.}.ZX}.|.ZX}.ZX}.|.ZXZXZXZX}.ZX}.}.}. X|.}.}.}.|.|.|.}.|.}.}. X X}.SXZX`.AXDXFXCXCXUXUXUXUXnXyX1XU.S.T.M.z.z.).)._.XXXXXX}.`.`. X X X XSX XSXSX XSX}.`.ZXmXmXmXZX`. X|..X XSX`.SX`.ZXSXSXZXZXSXZX}.ZXmXZXmXmXmXmX`.mXmXmXmXmXmXmXmXmX`. XDXDXmXVXFXFXCXCXCXUXUXlXyX7XtXU.Y.T.M.M._.)._._.XXXX.X|.ZXZXZXZXAXAXAXZXZXZXZXZX}.ZXZX}.|.}.}.}.}.}.}.}.}. X}.ZXZXSXDXZXZXZXAXAXAXAXAXAXAXZXAXZXZXZXZXZXAXZXZXZXZXAXZXZXmXSXZXFXVXFXCXCXIXIXyXyX7X>X=XL.Y.S.S.T.(.%X%X_.{.{.{..X.XDXmX.XZX XSXmXSX`.SX XSX`.`.`.`.`.`.`.`.`.`. X`. X X X[. X`..X X X|. X}.|. X}.ZXZX}.}.}.}. X|.|.}.|.|.}.|.}.ZXZXZXAXFXFXCXCXUXuXuXyX7X2X=XY.S.S.M.z.).)._._.XXXX|.[.}.|. X X|..X}. XSX X X}.}. X}.}. X}. X X XSX X`.}.`.mXmXZX X",
"].`.`.].NXNXNXmXmXmXmXmXmXmX`.`.NXmX].`.NXmX`.`.mXBX XDXBXSXVXCXCXUXUXUXlXlXnX2X,XU.m.l.z.z.z.)._._._.[.SX[.@X X'.].`.].`.NXNXNXmXNXmXmXSXSXmX X X`.mX`. X`.mXmXmXmXmXmXmXSXmXmXmXmXSX`.SX XmXSXmX X X XmXmXZXmXmXZX XSX}.mXNXBXVXVXCXCXCXUXUXlXnXyX2X-XZ.S.m.z.z.).).)._.{.{.].mX`.`.mXmXmXmXmXmXmXSXSXmXSXmXmX X`.`.`. X X}.`.|. XSX`.SXSXmXmX`.}.`.mXmX X X`.`.`.[.SX[.`.].[.NXNX[.[.].].NXNX`.'.NXBXLXCXCXCXUXUXlXlXnX7X2XY.S.S.l.z.z.).)._._.XX{. X[.MXMXmX'.'.].].'.'.'.].'.`.'.MX'.'.'.'.KXMXLXKXMXMXMXMX'.MXMXMX'.@X@XMXMX`.'.].].NX].NXmXNXNX`.NXmX].mXNXNX].MXNXmXBXBXCXCXCXUXUXlXlXnX2X2XU.S.M.M.M.z.).)._._.{.{..XmXmXmXDXSXmXmXSXmX}. X`.}.mX`. X X X X X X|.`.|.`.}.ZXZXZXZXZXSXZXDXmXZXAXmXDXDXSXZXZXZXAXZXSXZXZX}.ZXZXZXZXZXZXZXZXAXFXVXFXCXCXCXUXuXyXyX>X,XL.G.S.M.T.(.)._.XXXX{.|..X.XSXZX}.ZXZXZXZX}.ZXZXZXZXZXZXZXZXSXZXSXZX X}. X}.`.SX}.|..X X.X|.|. X X}.|.|. XZX X X|.}..X}.}.}..X X.X.X|. X}.}.ZXFXVXVXCXUXUXUXlXyXyX2X,XS.S.M.M.z.).)._._.{.{.XX.X X[.SX`. X XSXmXmXSXmX`.`.mX XNX X`.`.`.].`.`.NXNXNX'.`.].].",
"JXGXJXJXGXGXJXJXoXoXoXoX+XJXoXoXJXoXJXoX+XJXJX+XoXGX+XGXLXKXIXCXIXUXlXlXlXlXnX4X1XY.S.M.l.l.z.z.).%X%X$X#X#X@XKXKXKXMXMXKXGXoXGXJXGXoXoXGXGXGXoX@XoXGXGXoXoXGXGXGXGXGXoXoXGXGXoXKXKXoXoX@XoXoXGXGXGXGXoXGXGXoXoXoXGX@XGX@X@X'.BXVXIXCXCXUXlXlXlXdX7X7XP.S.S.l.z.z.z.z._._.{.$X@X@X@XGX'.MXNX'.NXMX].MX'.NX'.NX].NX'.'.].].'.'.].`.'.].MX'.'.'.MX'.GXMXMXMXKXKX'.oX'.MXMX@XoX#X@XoXKXoXGXoXoXoXoXGXLXOXPXPXCXIXuXlXlXlXkXnXbX2XU.S.c.l.z.z.z.z._.%X%X#XOXoXLXoXKX+XoX+XJXoXOX+XJXGXOXOX+X+XOXHXOX+XHXJXOXOXJXJXOXJXOXJXOXOXOX+XJXHXHXOXJXHXJXJXJXJXOXJXJXJXOXJX+XJXoX+XPXJX@XLXPXIXIXuXlXlXlXlXnX7X7XY.S.m.l.f.z.z.)._._.{.[.'.LX].NX`.NXmXNXNX`.`.`.mX`.NXNX`.`.`.`.].[.`.`.NXNXMXNXNXMXMXmXNXNXmXNXBXVXmXBXmXmXSXSXmXSXSX}.mXZXZXSXmXDXDXZXDXZXAXAXFXVXFXFXCXUXlXlXuXbX7XP.U.Y.m.M.z.z.(._._.XXXX.X.X|.ZXZXZXZXSX}.ZXZX}.SXSXSXZXZXSXZX}.ZXSXZXZX}. X}. X X|.|..X|.|.}.|.}.}.}.|. X X X X}. X}.|.}.}.}. X`.SX`. X`.`.mXSXFXVXFXCXUXUXUXlXnX7X7XP.S.S.m.l.z.z.).)._.{.{.#X#X'.'.'.'.oXGXKXGXGXGX@XoXGXGXGXoXoXGXJXJXJX+X+XoX'.+XJXGXGXGX",
"~.~.eXwXwXwXeXeX9XwXwXwXwXwXwXwXeX~.wX~.wX~.E.8XwXW.wXrXtXHXtXtXlXlXlXlXkXlXvX7X1XG.m.c.l.f.f.z.z.%X%X$X^.^.^.eX~.^.~.wX~.eXeX^.eX^.wXeXR.eXwX^.~.~.^.E.^.eX~.~.wXeXwXR.eXR.eXR.^.~.^.eX^.~.^.^.~.eXR.wXeXeXR.R.wX~.wXR.~.R.JXrXPXPXIXuXlXlXlXkXkXyX7X1XU.m.c.l.f.f.z.).T.%X%XOXR.R.8XHXR.8XOX8XHXHXJXJXHXJXOXJXJXJX+XOX+XJXHXOXJX8X8XHXeXR.OXR.R.OX8XHXeXHXR.E.+XR.^.R.HX8X8X^.E.^.R.E.~.~.E.wXwXrX8XrXPXyXyXlXkXlXkXkXnX6X>XG.m.m.l.f.f.z.z.(.%X/.^.E./.wX~.wX~.wXwXwXwXwXwX~.wX9X9X9XwX9XwX9XwXwXW.qXW.W.9XqXW.wXW.wXwX~.wX~.E.~.~.8X~.E.~.E.~.wXwX~.~.wXwXE.wXR.~.eXwXE.PXtXIXuXuXlXkXlXkXkX3X7XG.C.m.z.f.f.z.z._.%X$X$X+XHXOXOXJXJXJXJXGXGXJXJXoXoXoXJXoXoX+X+XoXoXJXOXOXJXOXOX8XHXHXHXOXHXJXGXKXMXMXMXMXMXKXMXMXGXMXKXKXMXMXMXKXBXMXNXNXBXKXMXVXVXCXCXUXUXUXlXnXnXyXP.U.S.M.M.z.z.)._._.XXXX{.[..X`.'.NX`.`.NX].].`.]. X].mXNX`.].`.`.`.`.`.`. X[. X]. X[.`.`.`.[.'.[.`.'.NX].NXMXNX].].'.'.'.MXGXMX@X'.'.oXKXoXGXLXPXCXIXUXUXlXlXkXnX7X7XU.C.m.m.f.f.z.z.z._.%X$X$XE.OXR.eX^.E.E.eX~.eX^.^.~.R.R.~.^.~.~.~.~.~.E.E.~.E.R.E.wX~.~.",
"qXqXQ.0X0X!.qXqX9XW.wXW.W.9XwXW.qXqXwXqX9X9X9X9X!.W.qX9XtX9XtXyXnXlXkXkXkXdXsX5X-XY.b.k.f.f.f.l.l.T.S./.0XQ.Q.Q.Q.0X0X0X0XqX0XqXwXW.W.W.9X9X9XW.9XW.W.wX9XwX9XwX9X9XwXW.W.W.wX9XwXwX9XwXwX~.wX9X9XwXW.W.9X9X9XwXE.~.wXwXrXqXQ.qXtX2XyXnXlXkXkXkXdXbX7X=XZ.m.k.d.f.z.f.l.(./.T.!.qX!.qXrXqX!.qXqXqXqXqX9X9XwX9XW.!.W.W.~.W.W.qXqXQ.!.!.!.wXwXwXeX^.E.E.wXwXwXwXE.~.wXwXwX0X!.Q.9X0XqXQ.Q.I.!.0XqX9X0XqX1X2X7XyXsXkXkXkXjXvX3X2XG.C.c.l.f.f.l.z.m.T.Y.!.!.!.I.Q.<XQ.!.Q.!.0X0X0X!.qX0X9XW.W.!.Q.!.Q.!.qX!.W.!.!.!.qXqXqXW.qXqXQ.!.Q.I.Q.I.I.I.I.0X0X0X<X0X0X0XQ.Q.0XI.I.0XqX!.tXtX7XyXnXlXkXkXkXsX7X7XY.C.c.l.f.f.z.z.M.T././.E.rXW.W.~.9XrX9XwXwX~.~.~.~.~.~.~.~.~.W.~.W.W.W.W.wXwXE.wXE.wXeXeXwXwXwXwXrX8X8X8X8X8X8X8XHXHXOXHXJXOXOXHXJXJXJXJXJXPXLXLXIXCXIXUXlXlXlXlXnX7X,XY.S.m.l.z.z.z.)._.%X%X[.#X#X@XMXLXoXMXMX@XMXKXKX'.@XKXKXMX'.'.@X'.@X'.KX@XKX@X@X@X'.oXGXoX+X+X+X+X+XOXOXJXJXOXOXOXR.OXOXOX^.R.OX^.OX+X8XOXR.8X8XtXyXlXlXlXlXkXdXbX7XL.S.b.l.l.f.f.z.M.M.T./.E.E.9X9XW.qXW.W.!.W.W.~.wX9XW.W.W.9X9X!.W.~.W.qX9X9X0X<X0XQ.Q.qX",
"J.&X&XJ.J.J.H.Z =X=XK.K.K.K.K.K.K.K.K.K.K.K.=XK.K.K.=XK.=X,X>X7XbXnXdXkXkXdXnX7X&XD.b.c.a.f.l.k.l.S.Y.Y.U.I.U.P.P.,X,XP.,XP.P.P.=XK.K.K.=X=XP.K.,X=XK.L.K.=XK.K.K.K.=X,X,X,X=XP.=X=X,X,XK.=XP.K.=X,X,X,X,X=XP.K.=X,XK.K.,XP.,X1X2X2X7XnXvXkXjXdXsXcX>.O.A.m.k.f.f.f.l.M.S.Y.Y.P.U.<X,X,X<X<XI.I.I.P.I.I.<XI.<X<XI.<X<XI.I.I.<XI.<X<X<XP.,XL.K.P.,X=X=X=X,X,X,X,XP.P.L.P.I.<XI.I.I.P.,XK.=X=XJ.Z &X&XO.=X>X7XyXbXkXkXkXsXdX3X>XG.m.c.d.f.f.l.l.S.S.Q.U.J.H.&XJ.&XZ J.O.&XZ &XO.&XK.K.J.J.J.J.J.J.J.J.J.=X&XJ.=X&XJ.J.&X&X=XJ.J.J.-X&X&X&X=X&X&XJ.&XJ.&X&X&X&X=X&X&X=XJ.Z J.J.*X*X>X3XsXdXdXkXkXsXbX5XG.C.c.k.a.f.l.l.T.S.Y.U.Q.1XQ.I.I.0X<XQ.I.Q.0X0X0XQ.Q.Q.0XQ.0X0XQ.I.I.I.<X<XK.P.P.P.P.P.P.P.0XQ.<XqXqX9X9X9X9XwXwXwXwXwXwXwX^.~.W.~.wXwXR.wX8XPXtXPXuXuXlXlXkXlXdXnX7X-XY.C.m.k.l.f.l.z.z.$X$XE.OXR.8XR.8XOX8X8X8X8XHX8XHXHXHX8XHXHXHXHXHXR.HXHXR.HX8XR.R.R.eXeXE.E.E.E.~.E.~.~.~.~.~.~.~.~.~.~.wX~.W.W.W.W.!.qXqXqXtXrXyXyXnXlXkXkXkXnXbX7XJ.A.n.k.f.f.f.l.M.S.S.Q.L.U.L.=X=X=X,XL.K.,XP.K.,XK.K.P.,X,XK.K.K.K.K.J.J.J.Z O.J.J.J.J.",
"P.,X=X,X,XP.,X1X=XK.K.=X=X=X=X=X=X=X=X,X=X=X=X=X=X=X=XJ.-X=X>X6XbXvXjXgXgXiXbXbX*Xx b.c.s.d.s.h.m.N.Z.Y.F.,XK.K.K.=X=X=XK.=X=X=X=X,X,X,X=X=X=X,X,X=XK.=X=X,X,X=X=X,X,X=X=X=X,X=X,X,X,X=X=X,X=X,X=X=X=X=X=X,X=X=XK.L.=X=X=XJ.-X&X-X>X5XbXsXgXgXkXdXbX5XK.Y.v.c.4 a.d.l.m.N.G.L.H.N =X=XC &X=XJ.=X=X&X=XJ.J.=X=X=X,XK.=X=X=X=XK.K.,XK.L.,XK.=XK.=XJ.=XK.K.K.=X=X=XK.J.J.J.=X=X=XJ.J.J.K.K.P.P.,X,X,X,X1XP.2X4X6XbXsXfXgXjXbXbX;XD.C.c.d.a.a.d.c.S.A.D.F.1XI.P.K.,XP.K.=XK.=X=XK.P.=X=X=X=X=X=X=X&X=XK.=X=X&X=X=X&XK.K.&X=X=XJ.=X=XL.P.K.=X=XK.=XK.K.K.K.,XK.K.P.K.,X1X,XK.L.P.-X-X7X7XcXdXkXiXhXpXcX4XH.N.j.k.f.a.k.k.C.S.Y.L.L.=XK.J.=X=X=X=X=X,X,X,X,XP.K.,XK.P.=X=X,X=XP.=XK.K.,X,X<X,X,X<X<X,XK.K.K.P.P.P.,X<XI.P.1XP.P.I.<X,XI.I.<X<X<XI.0X<XP.0X2X2XyX7XkXlXkXkXkXdX6X2XZ.N.l.d.f.l.f.M.T.T./.U.!.!.Q.!.<X0XQ.!.qXQ.Q.qXqXqX!.!.!.qX0X!.qXQ.0XQ.Q.Q.Q.Q.Q.!.qXQ.!.!.!.Q.Q.0XI.I.,XI.I.I.<X<XP.<X<XI.P.<XI.I.P.,XK.P.2X,X7X7XbXkXgXgXjXsXcX7X,XS.n.k.a.a.d.k.m.S.S.,XL.-XJ.K.,X=XP.K.P.=XP.K.=XK.=X=XK.K.=X=XK.=X,XP.P.P.P.,X,X,X,X=X",
"&Xo.O.Z Z Z Z Z Z O.O.O.Z Z Z O.O.Z Z Z Z O.O.O.&XJ.O.Z +.&X;X6XxXzXdXjXhXaXzXxX*XZ.v.c.s.2 h.g.r z D.M H.&XV &XZ Z Z Z O.Z O.O.Z Z Z Z Z O.O.Z Z Z Z Z Z Z Z Z Z Z Z Z O.Z O.Z Z Z Z Z O.Z Z O.O.Z Z Z O.O.O.O.O.&XZ O.O.H.-X&X-X4X6XxXvXhXfXhXiXe.6XJ.V.n.k.d.s.d.h.n.N.G.F.=XJ.&XZ =X&XZ =XJ.O.=XJ.J.&X=XJ.=XJ.J.J.J.J.J.&XJ.&X&X&XO.J.J.J.J.&XJ.J.J.J.J.J.Z &X=X&XO.Z O.Z Z =XZ Z Z O.Z Z Z O.Z @.O.:X5X3XzXaXfXfX3.sX3X;XD.b.x.s.d.d.h.v.C.C.L.H.Z Z Z O.O.O.O.O.O.O.O.O.O.Z Z &XO.O.Z O.O.O.o.O.Z O.Z O.O.O.O.O.O.O.O.O.O.+.o.O.O.O.O.O.O.Z O.O.Z O.O.O.Z Z O.O.J.J.J.#.;X:X3XzXpXgXfXgXpXbX4XF.C.c.h.a.p.k.j.b.A.G.H.F.-X=X=XK.J.K.K.K.K.=XJ.K.J.J.=X=XJ.=XK.J.K.K.&XK.K.J.J.O.Z O.&X&X&XJ.&X=X&XJ.J.&X&XO.&X&XJ.J.J.&X&XK.&XJ.=X=XJ.=X=XP.,X2X2X7XnXsXsXkXdXkXbX6X2XZ.S.c.d.d.f.f.m.m.S.Y.Y.U.,XP.U.1X,X,X,XP.I.P.P.,X<X<X,XI.<X<X<X<XP.,X<XP.<XP.P.U.P.K.,X,X,X=X=XK.J.&X=X=X&X=XJ.&XJ.J.&XJ.J.J.J.J.=X=XJ.=XK.;X-X2X6XxXsXhXjXjXaXt.5XZ A.n.h.p.s.s.j.w B.Z.J.F.&XH.J.Z &XZ Z Z Z Z Z Z o.O.O.O.O.O.O.O.Z O.Z O.o.Z Z Z Z O.V ",
"&XO.O.O.O.O.O.O.O.Z O.O.O.O.O.O.&XZ O.&XO.O.O.O.&X=X&XJ.&X&X;X5XxXzXjXgXgXjXpX3X*Xx B.h.p.s.4 h.x.B.Z.F.H.&XJ.J.O.O.O.&XO.&XZ O.O.O.O.O.O.O.O.O.O.O.&XZ O.O.&XZ O.O.O.Z &XO.O.O.O.O.O.O.O.O.O.Z &XO.O.J.&X&XJ.J.-XJ.-XH.*XJ.*XJ.>X4X5XcXpXfX8.hXiXxX6XJ.V.n.c.s.a.a.d.n.C.D.H.K.J.&X&X&XZ &XO.&X&XJ.K.J.&XJ.K.J.J.J.&XJ.J.J.L.&X&XJ.J.J.J.J.J.J.L.J.J.L.J.J.K.J.J.=X&XJ.J.J.=XJ.=XZ &XJ.O.O.O.&X&XZ *XJ.:X4X3XzXiXhXfXiXvXxX;XD.b.j.d.a.a.k.n.N.V.H.H.&X&XO.Z &XO.O.O.O.O.Z O.O.O.O.O.O.O.O.&XO.O.O.O.O.O.O.O.O.O.Z O.O.&XO.O.&XO.O.Z O.O.O.O.O.&XO.O.O.O.O.&XO.&XO.J.J.&X&X*X*X4X6XcXsXhXhXjXpXxX:XF.C.x.k.a.p.k.j.C.A.G.H.&XO.J.&X&XZ &X&X=XJ.&X&X&X&X&X&X&X&X&X&X&X&X&X&X&X&XJ.J.J.J.&X=X&XJ.K.J.=XK.J.K.=X&XK.=X=XK.=X=XJ.=XK.K.=X=XK.J.K.K.J.=X;X>X7XbXvXdXkXkXdXsX6X:XZ.C.c.g.a.a.k.l.S.S.Y.L.U.=XP.K.,XP.P.K.P.=X,X-X=XJ.=X=XJ.K.J.K.=X=X=X=X=XP.P.L.P.K.=X=X=X=X=X=XJ.K.=X=X=X=X=X=X=X=X=X=X=X=X=XJ.J.=X=X&X=XJ.;X=X>X3XbXvXkXgXjXsXzX6XJ.C.v.h.s.p.p.h.v.N.D.Z F.-XJ.H.-X&X&X&X&XJ.Z Z O.&XO.O.O.O.O.O.O.O.&XO.O.O.O.O.O.O.O.Z ",
"O.O.Z O.O.O.O.O.O.&XO.J.O.O.O.O.O.O.O.O.O.O.O.O.Z J.Z Z *X*X;X5XxXzXiXhXfXaXzXxX*XZ.b.7 4 2 s.7 n.B.x N H.&XJ.&XO.O.O.Z O.O.O.O.O.O.O.O.O.O.Z &XO.O.O.O.O.O.O.O.O.O.O.O.O.O.O.&XO.O.O.J.O.O.O.O.&XO.O.O.J.O.&XJ.Z J.Z &XJ.H.+.J.@.$.5XzXpXfXhXfX0.xX5XJ.z x.4 s.a.d.x.b.V.x N J.C O.O.Z &X&XZ O.O.&XO.O.O.O.O.O.&X&XO.O.&X&XJ.*XO.O.&X&X&X&X&X&X+.O.&X+.&Xo.&XO.Z Z J.Z &XJ.&XZ Z &X&X&XO.O.O.O.J.Z &XJ.:X4X3XzXiXfXfX3.4.xX*XD.N.j.p.d.a.g.v.V.A.N H.O.J.O.Z Z O.O.&XZ O.&XO.O.&XO.O.O.&XZ Z O.O.O.O.O.O.O.O.O.O.&XO.O.Z O.O.O.O.O.&XO.O.O.O.O.Z O.Z &XO.O.Z O.J.Z &XJ.O.Z ;X;X$.3XzXiX0.fX2.aXcX:XG.k h.s.4 a.s.x.b.x D.H.Z O.&XJ.O.O.Z O.Z Z &XJ.J.J.J.&XJ.Z &XJ.J.Z J.J.J.J.O.O.&X&XO.Z O.&X&XO.O.O.O.O.Z O.J.J.J.J.J.J.J.J.&X&XO.J.O.=X&X&XC O.+.*X5XxXvXiXfXiXfXvX6X;XZ.b.x.4 p.p.g.v.k Z.F.C F.&XZ Z Z &XO.O.O.O.O.O.O.O.o.O.o.O.Z Z O.o.O.Z V Z Z Z Z Z O.O.V Z Z Z &X&XJ.&XJ.Z Z J.J.Z J.J.Z J.J.J.O.O.O.O.J.J.#.O.4X6XzXaXjXhXgXsXcX5X&XA.r 7 s.s.p.j.v.z Z.=XM Z H.&XZ Z &XJ.J.&X&XJ.O.O.O.O.&XO.O.O.&XZ Z O.O.O.O.O.&XO.O.O.",
"O.O.&XO.&XO.O.O.O.O.O.O.Z &XO.O.O.O.O.O.O.&XO.O.&XJ.&XZ +.+.#.>.*.e.iXfX8.0.e.r.*XD.b.j.4 2 g.7 r l x N C O.Z Z O.O.O.O.Z O.O.O.O.O.O.O.O.O.&XZ O.O.Z O.O.O.O.O.O.&XO.&XO.O.O.Z O.O.O.O.O.O.O.O.O.O.O.O.O.O.O.O.Z J.Z Z *XH.O.Z +.$.;.cX4.8.8.8.3.xX>.=XV.n.g.s.2 4 w n.z x C Z C *X&XA O.O.C O.Z Z Z Z Z Z Z Z Z Z V Z Z J.Z Z Z Z Z Z Z Z Z V J.V V J.Z Z Z Z Z Z O.O.O.O.&XO.O.O.O.O.O.O.O.Z Z &X+.&X:X5X3Xe.iXhXhXhX4.:.#.M b.j.s.p.s.h.v.z x C N +.O.O.O.&XO.O.O.O.&XO.&XZ Z O.O.O.O.O.O.O.O.O.O.J.Z &XO.O.O.O.O.Z O.O.Z O.O.O.&XZ O.O.Z O.O.O.O.O.&XZ O.Z Z O.O.J.O.J.*X*X$.:.t.3.0.0.0.4.r.$.N l 9 4 2 2 4 w t x M C C O.Z Z O.O.O.O.O.O.&XZ O.O.&XJ.O.O.Z O.O.&XO.O.O.O.O.Z O.O.O.Z O.o.O.Z O.O.O.O.O.O.O.O.O.O.O.O.&XZ O.O.O.O.O.O.O.O.O.Z #.*X5XxXy.sXfXfXdXvX6X4XZ.N.c.7 s.s.g.9 B.Z.F.H.H.O.Z Z O.O.O.&X&XJ.&X&X&X&X=XJ.=X=X=X=XJ.L.&X&X&XJ.J.J.&XZ Z o.Z O.O.O.O.Z O.O.O.O.O.&XO.Z Z J.&XO.O.O.O.O.O.O.J.C #.O.$.6Xr.aX0.8.fXpXzX5X&XA.r h.s.2 2 7 r z x Z C +.J.&XZ Z &XZ O.O.O.O.O.O.Z &XZ O.O.O.O.O.O.O.&XO.&XZ O.O.O.O.",
"O.O.O.O.Z O.O.O.O.O.O.O.O.O.O.O.Z &XO.O.O.Z O.O.O.J.&XZ +.O.:X>.*.zXhXhXfXaXvXr.*Xx b.w 4 2 4 h.r k D.N C &XC +.O.Z &XO.&XO.O.O.O.O.O.O.O.O.O.O.O.O.&XO.Z O.O.&XO.Z O.O.O.O.O.O.O.O.O.O.O.&XZ O.O.O.O.O.O.O.O.O.O.&X&XO.O.Z +.O.*X-.;.t.4.2.0.8.0.xX>.Z A.v.h.s.a.4 h.n.A.Z.C Z H.+.&XZ Z Z O.O.o.O.O.O.O.O.O.O.O.O.&XO.O.o.O.Z O.O.O.O.O.O.O.O.O.O.&XZ O.O.O.O.Z Z Z Z O.Z O.Z O.O.O.O.O.O.J.&XO.&XO.Z :X-.:.e.3.8.8.iXaX*.+.M v.h.g.p.a.h.n.V.x C N O.O.O.O.&XO.O.O.O.O.O.O.O.O.&XO.O.O.O.O.O.O.O.O.O.O.O.O.O.O.O.O.&XO.O.&XO.O.O.O.O.O.O.&XO.Z O.&XO.O.O.O.&X&X&XO.&XO.J.+.#.-.6Xe.5.fXhXhX4.r.$.N l w s.2 p.h.w l A.N Z Z O.Z J.O.O.O.O.&X&XZ &XO.O.O.&X&XZ &XO.O.O.O.&XO.&XO.Z o.O.Z Z Z C Z J.J.Z J.J.Z J.O.O.O.O.O.&XZ &XJ.&XO.&XZ &XO.&X=X=X;X*X5X3XpXiXgXiXhXpX7X2XZ.N.j.g.a.p.p.x.B.C.D.H.J.&XJ.J.&XJ.Z J.J.Z J.H.J.J.Z Z Z O.Z O.Z &XJ.J.K.J.J.J.J.O.J.=X&X&X&XJ.J.J.O.O.O.O.O.O.O.O.O.O.O.O.O.O.O.o.V Z Z Z @.O.$.>.t.aXhXfXjXaXzX>.-XA.r j.4 3 2 9 r k x O.N O.C &X&XO.O.&XO.O.O.O.O.O.O.O.O.O.&XO.O.O.O.O.Z O.O.O.O.Z &XO.",
"O.O.O.O.O.&XO.O.&XZ O.O.O.&XZ O.O.O.O.Z O.&XO.O.O.Z O.J.+.O.;X5XxXzXiXfXfXjXvX3X#.x t 8 4 4 2 7 n.k x N C &XZ &XO.&XO.O.O.Z O.O.O.O.&XZ O.O.O.O.O.O.Z O.&XO.O.O.O.&XZ O.O.O.O.O.O.O.Z O.O.O.O.O.O.O.O.O.Z &XO.O.Z Z O.O.&XH.;XJ.*X-.5Xt.5.0.8.0.3.r.5XC z v.g.s.a.s.c.b.A.Z.H.J.J.Z &XJ.J.&X&XO.=X&X&X&X=X&X=X&X&X&X&X&X&X&X&X&X&X=X&X&X&X&X&X&X&XJ.&X=X&XJ.=X&X&X&X&X&X&X&XO.&XO.O.O.O.O.O.J.O.O.Z +.Z $.-.*.y.3.3.8.3.5.:.+.x N.h.p.a.p.h.v.A.A.J.F.&XZ O.O.O.Z O.O.O.O.Z &XO.O.O.O.Z O.O.O.&XO.O.O.O.&XZ O.O.&XO.O.O.O.O.Z &XO.&XO.O.O.O.O.O.O.&XO.O.O.O.O.O.O.O.O.J.Z H.#.#.:X3XzXaXfXiXhXpXcX-.N B.w s.s.2 h.w B.A.N Z H.&XZ Z J.O.O.O.O.O.&XO.O.O.O.&XO.O.O.O.&XO.O.O.O.O.&X&X=XO.&X&X&X=XZ &XO.O.O.O.O.O.O.&XO.O.O.O.O.O.&X&XZ O.&XO.J.&XZ Z #.#.-.r.4.4.8.2.0.y.:.$.B t 9 7 3 3 4 v.z z F.Z A O.Z Z Z J.+.O.O.O.&X&XO.o.O.O.O.O.O.O.&X&X&X&X&XZ &XO.O.O.O.O.Z Z Z Z O.O.O.Z O.O.O.Z O.Z O.O.Z O.O.&XO.O.&XO.&XJ.*XO.$.6XzXpXjXfXfXaXe.6XO.V.r h.4 2 s.j.v.V.Z.O.N O.C Z O.O.Z &XO.O.Z O.O.O.O.Z &XO.&XZ O.O.O.O.O.&XZ O.O.O.O.O.",
"Z O.Z &XO.Z &XO.O.O.O.O.O.O.O.O.O.O.O.&XO.Z O.O.&XJ.&X&X+.O.$.5X3XzXiXfX8.iXvX3X;Xx t w 4 3 s.8 v.B.x F.H.&XH.Z O.O.O.O.O.&X&XZ O.O.O.O.O.O.O.O.O.O.&XO.O.O.O.O.O.O.O.O.O.O.O.O.O.O.&XO.O.&XO.O.O.O.O.O.O.O.&XO.&X&XO.O.O.Z O.Z +.-.>.xXy.8.0.0.0.r.5XJ.V.n.g.s.p.g.h.b.V.D.H.J.C O.&XJ.=X&X&XO.O.O.O.O.&Xo.o.O.&XO.O.O.O.O.O.&Xo.O.O.O.&XO.O.O.O.&Xo.O.O.&Xo.O.&XZ O.J.Z J.Z Z O.O.O.&XO.O.O.J.O.Z *XZ $.5X:.e.5.8.8.3.y.r.#.D.b.j.s.p.s.j.n.V.A.H.F.&XJ.O.O.&X&XO.O.O.O.O.O.O.Z &XO.&XO.O.O.Z O.O.O.O.O.O.O.O.Z O.O.O.O.O.O.O.O.O.O.O.O.O.O.O.O.O.O.O.O.O.O.O.O.O.O.&XZ Z +.;X#.3XzXiXhXfXfXpXr.:XF.V.x.s.p.p.s.x.t A.N J.N *XH.&X&XJ.O.O.J.Z O.O.O.O.O.O.O.O.O.O.Z O.O.O.O.O.O.O.O.O.O.Z Z O.O.O.O.O.O.O.O.O.O.O.O.Z O.O.&XZ O.O.&XO.O.O.O.O.O.Z #.+.-.r.y.5.fX8.0.aX:.-.B k w 4 2 4 7 w l x N C Z O.Z Z Z J.J.O.&XO.J.Z J.&XZ &XO.O.O.Z O.Z Z J.Z Z J.O.O.O.O.O.O.O.Z Z O.O.O.O.O.&X&XO.Z &XO.&XO.O.&XJ.&XK.=X&XJ.J.*X-X$.>.xXpXiXfXfXiXe.5X+.x r 8 4 s.2 8 v.V.A.O.F.-XH.V O.O.O.O.O.O.O.O.O.O.O.O.O.O.O.O.Z O.O.O.O.O.O.O.O.Z &XZ ",
"&XO.O.O.O.&XO.O.O.O.O.O.Z O.&XO.O.O.O.O.O.O.O.O.O.Z O.Z *X&X;X5XxXcXhX0.8.iXzXxX;XD.t x.s.3 s.g.r B.Z.H.H.O.J.&XO.O.O.O.O.O.O.O.O.O.&XO.&XO.O.O.O.O.O.O.O.O.O.O.&XZ O.O.O.Z &XO.O.&XZ O.O.O.Z O.O.O.O.O.O.&XO.Z &X&XO.O.O.Z +.Z +.-.>.t.5.0.hXhX0.r.-.J.A.v.h.s.a.4 9 y V.D.J.Z C &XZ Z Z O.Z O.O.O.O.&X&X&XO.J.&XO.O.O.O.O.&XO.&XO.J.&X&X&XZ &X&X&XO.&X&X&XO.&XO.O.Z O.O.O.&X&XO.O.O.O.O.O.J.O.&XZ &XZ :X5X:.vX3.0.9.3.4.:.*XD.v.j.s.2 p.k.N.k A.H.H.&XZ &XO.&XO.O.O.O.Z O.O.O.O.O.O.O.O.O.O.O.O.O.O.Z O.O.O.&XO.O.O.O.O.O.O.O.&XZ O.Z O.O.O.O.O.O.O.&XO.&XO.O.J.O.O.&XZ H.*X;X$.=.cXaXfXhXiXaXr.#.F.V.w s.2 p.4 r t z F.J.C O.Z &XO.O.O.O.&XZ O.O.O.O.Z O.O.Z &XZ O.O.O.O.O.O.O.O.O.O.O.O.O.O.&X&XZ &X&XJ.Z J.O.Z O.&XZ &XO.O.O.O.O.O.O.O.O.O.O.&X#.+.;.3XvXaXfXfXjXvX6X4XD.B.j.g.p.s.7 8 k x M J.H.*XJ.J.J.Z Z Z O.O.O.O.O.O.Z J.J.&X&X&XO.O.O.O.O.O.O.O.O.O.O.O.&X&XO.&X&XZ O.O.Z O.&XO.O.O.O.O.O.O.Z J.Z J.Z O.O.J.+.-X-.;.r.pXiX8.3.5.zX>.*XA.r 7 2 3 2 8 r z A.H.N *XJ.-XO.O.O.O.O.Z O.O.Z O.O.O.O.O.&XO.&XO.O.O.O.O.O.&XO.&XO.O.",
"O.O.O.O.O.O.O.Z O.O.O.O.&XO.O.O.O.&XZ O.O.O.O.O.O.&X&XZ +.O.#.5X3XzXiXhXfXhXvX3X;XD.t j.p.p.p.7 v.N.x F.C &XZ O.Z &XO.O.O.O.O.O.O.O.Z O.O.Z O.&XZ &XO.O.O.&XZ O.O.O.O.O.O.&XZ O.O.O.O.O.O.O.&XO.Z &XO.O.O.O.O.O.O.O.O.O.&XH.+.&X+.-.5Xt.5.8.8.8.0.r.4XC V.w h.s.a.7 x.b.V.M H.J.C O.O.J.O.O.&XO.O.O.O.O.O.O.O.O.O.O.O.O.O.O.O.O.O.O.O.O.O.Z &XO.O.O.O.O.O.O.O.O.&XO.O.O.O.O.O.O.J.O.O.Z &XO.O.J.Z J.*XZ :X-.:.e.0.fXhX3.4.:.+.x y h.p.p.s.g.v.N.x Z C O.&XO.O.J.O.O.O.O.&XO.O.O.O.O.O.&XZ O.O.O.O.O.O.&X&XO.O.Z O.O.O.&XZ O.O.O.O.O.O.&XO.O.O.O.O.O.O.Z O.Z O.O.J.O.O.&XO.J.+.;X:X6Xt.3.8.0.0.aXxX:XN N.w s.p.p.x.w B.x N Z H.O.O.O.O.O.O.O.O.O.O.O.&XZ &XO.O.&XO.O.O.O.O.O.O.O.J.Z &X&XO.O.Z J.O.Z &XZ O.O.&XO.O.&XO.O.O.O.O.O.J.Z &X&XZ &XJ.Z O.O.#.*X>.3Xy.5.hX8.q.y.>.$.x t r 7 2 2 7 w B.A.D.H.C &XJ.J.J.&X&XZ O.J.&XJ.&X&X&XO.O.Z O.O.O.O.O.O.O.&XZ Z O.&XO.O.O.Z O.O.O.O.O.O.O.O.O.O.O.O.O.O.O.O.O.O.&XO.Z &XO.Z O.*X-.>.t.aXfX8.fXiXe.5XO.A.b.8 s.2 s.8 v.z A.Z F.Z Z O.O.O.O.O.O.&X&XJ.&XO.O.O.O.O.Z O.O.O.&XZ O.O.O.O.O.O.O.O.",
"O.O.O.O.O.O.&XZ O.O.Z O.O.&XZ O.O.O.O.Z O.O.O.&X&XZ &XZ +.&X#.5X3XvXiXhXgXiX4.6X4XZ.b.9 s.p.2 g.v.l x N H.O.O.&XO.O.O.O.O.O.O.O.&XO.O.Z O.O.O.O.O.O.O.&XO.O.O.O.O.&XZ O.O.&XO.O.&XO.O.Z O.O.O.O.O.O.O.O.O.O.&XZ O.Z O.O.O.J.*X&X*X:X5Xt.4.8.8.8.3.xX4XJ.l v.g.p.2 7 h.b.z Z.J.Z F.O.O.Z O.J.J.O.Z O.O.&X&XO.O.O.O.O.O.Z &XO.O.O.O.Z &XO.O.O.O.O.O.O.O.O.O.O.O.O.O.O.O.O.Z O.&XO.O.O.O.Z O.O.J.J.Z &X+.J.$.;.*.zX3.9.8.3.4.:.+.Z.b.8 3 a.2 h.b.V.A.Z F.O.&XO.O.O.O.Z O.O.O.O.O.Z O.&XO.O.O.O.O.O.O.O.&XO.O.O.O.O.&XZ O.O.O.&XO.O.O.O.O.O.O.O.O.J.&XO.O.Z O.O.O.O.&XO.O.O.J.Z *X;X:X6XzXaX0.hX0.5.r.:XN V.j.g.2 a.g.x.B.A.F.J.C &XJ.O.O.&XO.O.O.&XO.O.O.O.O.O.O.O.O.Z O.O.O.O.O.O.O.&XO.O.O.O.O.O.O.O.&XZ Z &XO.O.O.O.O.O.O.O.Z &XZ &XO.O.O.O.O.&XJ.Z +.;X5X3XpXaX8.fX3.4.6X:XZ.t v.4 5 2 4 0 l x M H.H.O.O.J.&XZ &XZ O.O.O.O.O.O.O.O.O.O.Z &XO.O.O.O.&XO.&XO.O.&XO.Z O.O.O.O.O.O.O.O.O.O.O.O.O.O.Z O.O.&XO.O.O.O.&XO.Z &XO.+.4X>.r.pX8.hX8.aXvX>.O.x n.7 2 3 a.h.v.V.D.J.F.O.&XO.O.&XO.O.O.O.O.O.O.O.O.O.O.O.O.O.O.O.&XZ O.O.&XZ O.O.Z O.",
"O.O.O.O.O.O.O.O.O.O.&XO.O.O.O.O.O.O.O.&XO.O.O.Z O.J.O.J.+.J.#.5X3XvX3.fXfXiXvX3X:XZ.t j.s.2 g.g.v.V.A.F.C &XO.J.O.&XO.Z O.O.O.O.Z O.O.&XO.O.O.O.O.O.Z O.O.O.O.O.O.O.O.O.O.O.O.O.Z O.O.&XZ O.O.O.O.O.O.O.O.O.O.O.&XZ &XO.O.H.+.O.+.-.>.e.5.8.8.0.3.r.-.J.z v.4 s.p.7 h.N.A.x J.J.H.+.&XZ O.&XZ O.&XO.O.O.Z O.O.O.Z O.O.O.O.O.O.O.O.O.O.O.O.O.O.O.O.Z &XO.O.O.O.O.O.O.O.O.O.O.O.O.O.O.O.&XO.O.Z &XO.J.+.O.$.-.=.4.3.0.0.0.4.*.+.x b.8 2 a.p.j.n.V.A.H.C &XZ O.Z O.O.&XO.O.Z &XO.&XO.O.O.O.&XZ O.O.&XO.Z O.O.&XZ O.O.O.O.O.O.Z O.O.&XZ O.O.O.O.O.O.O.O.O.&XO.O.O.O.O.O.Z *XZ C *X;X$.=.r.5.8.hX0.aXxX:XN N.j.s.2 4 j.x.B.V.F.J.H.Z &XO.O.O.O.Z O.O.O.O.Z &XO.O.O.O.&XO.&XO.O.Z &XZ O.O.Z O.&XO.O.O.O.O.O.O.O.O.O.Z O.O.O.O.O.O.O.O.O.O.O.O.O.O.O.O.&XZ ;X;X-.*.y.iXfXfXhX5.6X4XD.k w 4 3 2 4 w l x N H.Z O.Z J.O.&XO.O.&XZ O.O.O.O.O.O.O.O.O.O.O.O.Z O.O.O.Z O.O.Z O.&XO.O.Z O.O.O.Z &X&XO.O.O.&XZ &XO.O.O.O.O.O.O.Z O.&X&XO.*X-.5XxXpX8.fXfX3.e.5X&XA.b.j.4 p.p.j.v.z x J.N O.&XO.O.O.O.Z O.&XZ O.O.O.O.&XO.&XZ O.O.O.O.O.O.O.O.O.O.O.&XO.",
"Z &X&XO.O.O.O.O.O.O.O.O.&XO.O.&X&XO.O.O.&XO.O.O.O.Z O.Z *XJ.;X;.3XzX5.0.gX0.vX3X:XD.y j.s.3 g.g.r l x F.H.&XZ O.O.O.O.&XO.&XO.O.O.O.O.O.O.O.Z &X&XO.O.O.O.O.O.Z Z O.O.O.O.&XO.O.O.O.O.O.&XO.O.O.Z &XO.O.O.O.O.O.O.Z &XO.J.Z +.J.#.-.>.t.4.0.9.8.3.r.-.Z B.v.g.s.a.g.h.N.A.x J.J.H.O.J.J.O.Z &XO.O.O.O.O.O.O.O.O.&XO.O.O.&XO.&XZ O.O.&XO.O.Z &XO.&XO.Z O.O.O.O.O.O.&XO.O.O.&XZ &XO.O.O.O.O.O.&XZ &XO.+.O.$.5X*.e.0.0.8.5.4.:.O.x b.j.p.2 s.j.b.N.Z.J.N *XZ &XZ O.&XO.&XZ O.O.&XO.O.O.O.O.O.O.O.O.O.O.O.O.O.O.O.O.O.Z O.&X&XZ O.O.O.O.O.O.Z O.O.O.O.O.O.O.O.O.O.O.O.O.J.&XZ J.*X#.:X=.t.3.8.0.3.5.r.:XN l w s.p.a.h.x.B.A.M J.H.O.Z O.O.O.&XZ O.O.O.O.Z O.O.O.O.O.O.O.O.O.O.&XO.O.O.O.O.&XO.O.O.O.O.O.O.O.O.O.O.&XO.O.O.O.&XO.O.O.O.O.O.O.O.O.O.O.J.O.#.*X5X:.e.iXfXfXfX4.6X4XF.k r 4 4 2 4 w k x D.C C &XO.H.O.J.O.O.O.O.O.O.Z &XO.O.O.O.O.O.O.J.&XO.O.O.O.O.O.O.O.&X&XZ &XO.O.O.O.&XO.Z O.O.O.O.O.O.O.O.O.O.O.O.J.O.O.Z +.+.-.>.xXaX8.hXfX5.y.5XO.x v.h.2 p.p.8 v.z A.Z F.O.&X&XO.O.O.&XO.&XO.O.O.O.O.Z O.O.O.O.O.Z &XO.Z O.O.&XO.O.&XZ ",
"O.O.Z O.O.O.O.O.Z &XO.O.O.Z O.O.Z O.O.O.Z O.O.&XZ &XO.J.+.O.+.;.:.y.0.0.0.jXaX*.;XD.n.9 s.a.h.4 n.l Z.N J.Z &XO.&XZ O.O.O.Z O.O.O.O.O.O.&XZ O.O.Z O.O.&XO.O.O.&X&XO.O.O.O.Z O.O.&XO.O.O.O.O.O.&XO.O.&XZ O.O.O.&XO.O.&XO.Z J.+.O.#.4X5XzX4.0.0.0.3.r.-.C l v.s.p.p.g.j.b.A.M H.Z C O.J.Z O.&XO.O.O.O.O.Z &XO.O.O.O.O.O.O.Z O.O.O.O.O.O.Z O.O.O.O.O.O.&XO.O.O.O.J.O.Z O.O.O.O.O.O.O.O.O.O.O.O.J.J.O.Z *XJ.$.-.*.zX0.8.0.3.y.*.+.x n.j.p.a.p.j.v.V.A.J.H.O.&XZ &XO.O.O.O.O.O.O.Z O.O.O.&XZ O.&XO.O.O.Z Z &XO.O.O.O.O.&XO.O.O.O.O.O.O.O.O.O.&XO.O.O.Z O.O.O.Z &XO.O.Z O.J.&XJ.J.*X;X5X:.t.5.9.8.q.4.=.:XF.l 8 s.4 2 h.x.B.A.F.Z H.&XJ.O.O.O.O.O.O.O.O.O.&XO.O.O.Z &XZ O.O.O.O.O.O.O.O.O.O.O.Z O.&XO.O.O.O.O.&XO.O.O.O.O.Z &XZ O.O.O.O.O.O.&XZ &XO.O.Z O.*X;X;.:.vXaXhXfXiXvX6X4XF.l w 2 5 7 4 e l z M C Z O.O.Z O.J.&XO.O.O.O.O.O.O.&XZ O.O.O.O.O.O.O.O.Z &XO.O.O.O.O.O.O.O.O.O.&XZ O.O.O.O.O.O.O.O.O.Z &XO.Z &XO.O.O.O.&XO.&X*X-.5X*.aX0.fX8.aXvX5X+.A.r j.s.a.s.j.v.z x H.N &X&XO.&XZ O.O.O.Z O.O.O.J.O.O.O.O.O.O.O.O.O.O.&XO.O.O.O.O.O.O.",
"O.&XZ O.Z O.O.O.O.O.O.O.O.O.O.O.Z &XO.O.O.&XO.O.&X&XJ.J.*X&X#.5X6Xy.5.8.8.3.aX3X;XD.n.9 4 a.4 4 v.l Z.N C O.Z J.O.O.O.O.O.O.J.O.&XO.O.Z O.O.O.O.&XO.O.Z O.O.Z &XO.O.O.O.&XZ O.O.O.O.O.&XO.O.O.Z O.O.O.&XO.&XZ O.&XZ O.J.&XH.+.O.+.-.>.t.5.0.0.0.5.r.5XC l x.g.s.p.p.j.b.A.D.H.J.J.Z J.J.O.J.&XO.O.O.O.Z O.O.O.O.O.O.O.O.O.O.&XO.O.O.&XO.&XZ O.O.O.&XO.O.O.O.O.O.O.O.O.O.O.O.O.O.O.Z O.O.O.O.J.&XZ J.*XJ.:X;.*.e.3.8.8.5.y.:.O.A.b.8 2 p.g.9 y V.x J.H.Z &XO.O.O.O.Z O.O.O.O.O.O.O.O.O.O.O.Z &XZ O.O.O.O.O.Z &XO.O.O.&XO.O.O.O.O.&XO.O.&XO.O.Z O.&XO.O.O.O.O.O.O.O.O.J.&XZ J.*X#.-.>.e.5.8.0.0.5.r.#.N V.9 s.s.2 8 r N.x F.Z C &XJ.O.O.O.O.O.O.O.O.&XO.O.&XO.O.O.&XO.O.O.O.O.O.O.O.O.Z &XO.O.Z O.Z O.O.O.O.O.O.O.O.O.O.O.O.&XZ O.O.&XO.Z O.O.O.O.&XO.;X+.5X:.vXiXfXiXfXpX6X:XF.l r 4 2 7 7 9 k A.M C N O.O.Z Z J.Z O.O.&XO.Z &XO.O.&XO.O.&XO.O.O.O.O.O.O.O.O.O.O.O.&XO.O.O.O.O.O.O.Z O.O.O.&XO.O.O.O.O.O.O.O.O.O.Z O.J.Z +.+.4X>.r.pXhXfX8.aXvX5X-XV.y g.2 3 a.7 b.V.Z.J.F.O.O.O.O.O.O.O.O.Z &XO.O.O.O.O.O.O.Z &XO.O.&XZ O.O.O.O.O.O.O.O.",
"O.O.O.O.&XO.O.&XO.O.O.&XO.O.Z O.O.O.O.O.O.O.O.O.Z Z O.O.+.&X#.5X:.vXiXfX8.5.pXxX#.x b.x.2 a.4 8 v.l Z.F.C &XZ J.O.O.O.O.O.O.O.O.O.O.O.&XO.&XO.O.Z O.O.&XO.O.O.O.O.O.O.O.O.O.O.O.O.Z O.O.O.O.O.O.O.O.O.Z O.O.O.O.O.Z &XO.Z J.+.O.+.-.>.e.5.0.0.8.3.*.-.J.V.x.g.s.p.7 v.b.A.M C J.J.&XZ J.&XO.O.J.O.O.O.&XO.J.O.O.O.O.O.O.O.O.O.Z O.Z O.O.O.O.O.O.O.Z O.O.O.O.O.O.O.O.O.O.Z O.O.Z O.&XO.J.O.O.Z &X&XZ +.Z :X5X3XpX3.fX8.3.y.3X*XA.y j.p.2 4 8 t z x H.N *XZ &XZ O.&XO.&XZ O.O.O.O.O.O.O.O.O.&XO.O.&XO.O.O.O.O.O.O.&XO.Z O.O.O.O.O.O.O.Z O.O.O.&XO.O.O.O.O.O.O.J.O.Z &XJ.*XZ J.*X;X-.*.t.3.9.0.0.5.r.#.M N.8 4 2 s.4 r N.x F.J.H.&XO.O.O.J.O.O.O.O.O.O.O.O.Z O.O.O.O.O.O.O.O.O.O.O.Z O.O.O.O.O.&XO.&XO.O.O.O.O.Z &XO.&XZ O.O.O.O.O.O.O.O.O.O.&XZ O.J.O.*X#.4Xr.vX5.fXfXiXpX3X:XH.l r 7 4 2 2 9 t z F.Z C O.O.J.O.Z &XO.O.O.O.O.O.O.Z O.O.O.Z O.O.O.O.O.&XZ &XZ O.O.O.Z O.O.O.O.O.O.O.&XO.O.O.Z O.O.O.O.&XZ O.&XZ O.O.O.J.Z +.O.4X5XcX6.2.fX9.5.e.>.&XA.n.j.s.p.s.x.v.V.A.Z H.O.&XO.O.O.O.O.O.O.O.O.O.O.O.O.&XO.O.O.O.O.O.O.O.O.O.O.O.&XO.O.",
"&XO.O.&XO.O.O.O.O.&XO.Z O.O.&XO.O.O.O.O.O.O.O.Z O.&XO.J.+.&X#.;.3Xy.iX0.8.0.vXxX+.x b.w 4 a.4 h.v.k Z.H.C O.Z Z O.O.O.Z O.O.O.&XO.O.O.O.O.Z O.O.O.O.O.O.O.O.O.O.O.O.O.O.O.O.O.O.&XZ O.O.O.O.O.O.O.O.O.O.O.O.O.O.&XO.O.J.Z J.+.O.+.-.6Xe.6.8.0.2.5.*.5XC V.x.s.p.p.s.j.b.A.Z.N Z J.O.O.&XJ.Z O.J.O.O.O.O.O.O.O.O.O.Z &XO.O.O.O.&XO.&XZ &XO.O.O.O.&XZ O.O.&XO.O.O.O.Z &XO.&XO.O.&XO.O.O.O.O.O.J.J.O.Z O.+.:X5X3XvX3.8.8.3.y.3X*Xx r j.s.2 2 9 t z x Z C O.Z &XZ O.O.O.O.O.O.O.Z O.O.&XO.O.O.O.&XO.O.O.O.Z O.O.O.&XO.O.O.O.O.O.O.Z O.O.O.O.O.O.O.O.O.O.O.O.O.O.Z O.&X&XJ.&XJ.H.*X#.4X*.t.3.8.8.3.4.r.#.B B.9 4 p.p.4 w N.x M Z C &XJ.O.O.O.O.O.O.Z Z O.O.Z O.O.O.O.O.O.O.&XO.O.O.O.&XO.O.O.O.O.&XO.O.O.O.O.O.O.Z O.O.O.O.O.O.O.O.&XZ O.O.O.O.O.O.O.Z &X;X+.4X3XvXaXfXhXiX4.:.$.N l w s.4 2 2 9 k z F.J.C V *XL.+.Z O.O.O.O.O.O.O.&X&XO.O.Z O.O.Z &XO.O.O.O.O.O.O.O.Z O.O.O.O.O.O.O.O.&X&XZ O.Z O.O.O.O.O.O.O.O.O.O.Z J.J.Z *XO.4X5XxX5.3.fX8.4.e.;.O.A.n.h.2 a.a.c.N.z A.J.F.O.J.J.O.O.O.Z O.O.O.&XO.O.O.O.O.O.O.O.O.O.O.O.O.O.O.Z O.O.O.O.",
"O.O.O.Z O.Z &XO.O.Z O.O.O.O.O.O.O.O.O.O.&XZ O.O.O.J.O.O.+.&X*X5X:.e.3.fXfX5.5.xX#.x t 9 4 p.s.8 n.N.Z.N H.O.Z J.O.O.O.&XO.O.O.Z O.O.O.O.O.O.O.&XO.O.O.Z &XO.O.O.O.J.O.O.O.O.O.O.O.O.O.O.&XZ O.O.O.Z &XO.O.O.O.O.O.&XJ.J.&XZ *X+.*X$.>.zXaXhXhXhXaXr.4XC l x.g.2 2 g.9 k A.M C Z J.O.Z &XZ O.+.J.O.O.O.O.O.O.O.O.O.&XZ O.O.O.O.O.O.O.O.O.O.O.O.O.O.O.O.O.Z O.O.O.O.O.O.O.O.O.O.O.O.O.O.O.O.O.&XZ Z &X+.&X$.;.*.e.3.8.0.5.4.:.*Xx n.7 2 p.s.j.n.V.Z.Z C O.&XO.&XO.O.O.O.O.O.O.&XO.O.Z O.O.O.O.Z O.O.O.O.&XO.O.O.Z O.O.Z &XO.O.O.&XZ &XO.O.Z &XO.O.O.O.&XZ O.O.&XO.Z &XJ.&XZ J.*X#.4X*.zX5.fX0.0.aXr.$.N N.9 s.p.4 h.9 N.A.F.J.C &X&XO.O.O.O.O.O.&X&XO.O.&XO.O.O.&XO.O.O.Z O.J.O.O.O.O.O.O.O.O.Z O.O.&XZ O.O.O.&XO.O.O.O.O.&XO.Z O.&XO.O.Z &XO.O.O.&XO.;X*X-.6XpXaXfXhXfXpXxX:XC B.w 7 2 s.7 9 l z D.H.H.Z &XH.Z &XO.O.O.Z &XO.O.Z O.O.O.&XO.O.O.O.O.O.O.O.O.O.O.O.&XO.O.O.&XZ O.O.O.O.O.O.O.&XO.O.O.&XZ O.O.O.O.&X&XJ.J.O.*X+.$.6Xr.5.0.2.8.4.e.>.&Xx x.h.2 p.p.9 v.z A.H.N +.Z &XO.O.O.&XO.O.O.Z O.O.O.O.Z &XO.O.Z &XO.O.O.O.O.&XZ O.&XO.",
"O.O.O.Z &XO.O.O.O.O.O.O.O.O.O.O.O.&XO.O.O.O.O.O.O.O.O.Z *X&X#.5X*.vXhXhX8.0.y.r.*XD.t j.s.p.p.g.v.C.Z.F.H.+.Z &XZ O.O.O.O.O.O.O.Z &XO.O.O.O.&XZ O.O.&XO.O.O.O.O.O.O.O.O.O.Z &XO.O.O.O.O.O.O.O.&X&XO.Z &XO.O.O.O.&XO.O.J.J.Z -XZ +.;.3XzX2.2.fX2.aXr.-.J.l x.j.p.p.h.9 b.x M F.O.&XZ O.O.O.O.O.O.O.O.O.O.J.O.O.O.O.O.O.O.O.O.O.O.O.O.O.&XZ O.O.O.Z O.O.O.&XO.O.O.O.Z O.O.O.O.Z O.O.&XO.O.O.O.&XJ.&XZ *X&X:X-.:.y.3.0.0.3.y.3X+.x r j.s.2 2 j.b.V.Z.J.H.O.J.Z &XJ.O.O.&XO.O.O.O.&XO.O.Z &XO.O.O.O.O.O.O.Z O.O.O.O.O.O.O.O.O.Z O.O.O.O.O.O.O.O.&XO.O.O.O.O.O.O.O.O.O.O.&XO.Z J.*X;X-.3Xe.3.2.hX3.5.r.#.M B.9 s.p.p.g.w B.A.F.Z H.&X&XZ O.&XZ O.O.O.O.O.O.O.O.O.O.Z O.O.O.O.O.&XO.O.Z O.O.O.O.O.O.&XO.&XZ O.Z O.O.&XO.Z O.O.O.O.O.O.O.O.Z &XO.O.O.O.Z O.;X*X5X3Xe.iXfXhXiXpX3X4XC l v.s.2 s.4 j.b.z F.J.C J.J.O.O.&XO.O.O.Z O.O.O.O.Z &XO.O.O.O.O.O.&XZ O.O.&XZ &XO.O.O.O.O.O.Z O.O.&XZ O.&XZ O.O.O.O.O.O.O.O.O.O.O.&X&XZ J.+.O.-.6Xr.3.8.8.fX5.e.-.Z A.v.g.s.a.s.j.n.z A.J.H.O.*XJ.O.O.O.O.O.O.O.O.&XZ O.O.Z O.O.O.&XO.O.O.O.O.O.O.Z &XZ O.",
"Z O.O.O.O.O.O.O.J.O.O.O.O.O.O.Z O.Z O.&XO.O.&XZ O.O.&XO.*X&X#.5X:.e.3.0.fX0.y.r.#.x t h.p.2 4 g.r B.Z.N C &XJ.&XO.O.&XO.O.O.O.O.O.O.&XZ O.O.O.O.O.O.Z O.Z &X&XZ O.O.O.O.O.O.O.O.O.O.O.O.O.O.O.O.Z O.O.O.O.O.O.O.O.O.O.Z J.J.%.&X&X;.5XpXiXfXfXiX5.3X$.C B.w 4 s.a.g.9 t A.F.F.Z J.&XO.O.&X&XO.O.Z &XO.O.O.O.O.O.O.O.O.Z &XZ &XO.O.O.O.O.O.O.O.O.&XO.O.O.Z O.O.O.O.&XO.O.O.O.&XO.O.Z O.O.O.O.J.Z &XZ *XZ -.-.r.y.3.9.8.3.y.>.+.Z.v.8 4 p.s.8 y V.A.J.F.*X&X&XO.Z Z O.O.O.&XO.O.Z &XO.O.O.Z O.O.O.O.O.O.&XO.O.Z &XO.O.O.O.O.&X&XO.O.O.&XZ Z &XZ O.O.O.O.O.O.O.O.O.O.O.&X&XJ.J.*X;X-.>.zXaXfX8.3.5.r.#.D.l 9 s.2 p.g.x.k A.F.H.C O.J.O.O.O.O.O.O.O.O.O.&XZ O.O.O.O.O.Z &XO.O.Z O.O.&XO.O.O.O.O.O.Z O.O.O.O.&XO.O.O.O.O.&XZ O.O.O.O.&XO.O.O.O.O.O.O.Z O.;X&X5X6XvXaXfXfXiXaX3X:XC l v.4 p.4 2 9 B.V.D.H.H.Z J.O.O.O.Z &XO.&XO.O.O.O.O.O.O.&XO.O.Z O.O.O.O.O.O.O.Z O.O.O.O.O.O.&XO.O.O.O.O.O.O.O.O.O.O.O.O.O.Z &XO.O.O.J.&XZ +.O.$.5Xe.4.8.8.fXaXe.;.J.A.v.j.s.2 s.9 n.V.V.J.H.&XJ.J.O.Z &XZ &XO.O.O.O.O.O.O.&XO.O.O.Z O.O.O.O.O.O.O.O.O.&XO.",
"&XO.O.O.O.O.O.O.O.O.O.O.O.O.O.&XO.O.O.Z O.O.O.O.O.J.&XO.*XO.%.;.*.e.3.0.8.y.y.r.+.D.t j.s.p.p.j.v.V.x F.Z &XJ.Z O.&XZ &XO.O.O.O.O.O.O.O.O.O.O.O.&XO.O.O.O.&XO.O.O.O.Z O.O.Z O.O.O.O.J.O.&XO.O.O.O.O.O.O.O.O.O.O.&XO.J.Z J.J.%.&X-X5X3X=.2.2.2.iX3.r.$.C l r 4 s.2 4 9 N.A.M F.Z O.O.O.O.O.O.O.O.O.O.O.O.O.O.O.O.O.O.O.&XO.&XO.O.O.O.O.O.O.O.O.&XO.O.O.O.O.O.O.&XO.&X&XO.O.O.O.O.O.O.O.O.O.O.J.&XJ.Z *XJ.$.5X3X4.3.fX8.3.y.>.O.Z.v.8 2 p.4 8 r V.x C H.O.Z &X&XO.&XO.Z O.Z O.O.O.Z O.O.O.&XO.O.O.O.O.O.O.O.O.Z O.O.O.O.O.O.&XZ O.Z &XO.O.O.O.&XO.O.O.Z &XZ &XO.O.&XO.J.O.Z J.*X:X;.:.e.hX8.2.5.5.r.#.D.B.j.s.p.p.h.w B.x F.J.C &XO.J.O.O.O.O.O.&XO.O.O.O.O.O.O.O.O.&XZ O.O.O.O.O.O.O.O.O.O.O.O.O.O.O.O.&XO.O.O.O.O.O.O.O.O.O.Z &XO.O.O.O.O.O.Z O.Z &X*X*X5X6XzXiXgXfXhXaX3X4XH.l v.4 p.s.s.w B.z N Z H.H.J.O.Z O.O.O.O.O.&XO.O.O.O.O.O.Z &XO.&XO.O.O.O.O.O.O.O.O.O.O.O.O.O.&X&XZ O.O.O.O.O.O.O.&XO.O.O.O.O.O.O.O.O.Z J.Z ;XO.;.=.r.4.8.9.8.5.t.5XZ V.v.h.s.2 s.8 b.V.Z.J.F.+.Z J.O.&XO.O.O.O.&XO.O.O.O.&XO.O.O.O.O.O.&XO.O.O.O.O.O.&XZ O.",
"O.O.O.O.O.O.&XZ O.O.O.O.O.O.O.O.O.&XO.O.O.O.O.O.O.&XZ J.&XO.>X;.r.e.3.0.8.0.e.xX*XZ.t h.p.p.2 g.v.V.Z.N H.&XH.Z O.O.O.O.Z &XO.O.O.O.O.O.O.O.Z &XZ O.O.O.O.O.O.O.O.O.&XO.O.&XO.O.O.O.O.O.Z O.&XZ O.&XO.O.O.O.&XZ J.O.J.J.&XZ -XZ +.%.3XzXiXfX2.iX5.xX-.C t v.4 s.p.s.j.N.Z.M F.&XO.&XO.O.O.Z O.O.O.O.Z &XO.O.O.&XO.O.O.O.O.Z O.O.O.O.O.O.&XZ O.O.O.&XZ O.O.O.O.O.O.Z Z O.O.O.O.O.O.O.O.O.O.O.Z &X&XZ +.&X4X-.r.4.3.8.8.3.4.6XO.x v.8 p.p.s.j.k V.Z.H.H.+.&XO.Z O.O.O.&XO.O.O.O.O.O.O.O.O.O.O.O.&XO.O.O.O.O.O.&XO.O.O.Z &XO.O.O.O.O.O.O.O.O.O.O.O.O.O.O.O.O.O.O.O.O.O.J.&XZ H.*X;X5X>.e.3.8.fX3.5.r.#.D.N.9 2 s.p.g.v.z A.N H.Z &XJ.J.O.O.&XO.O.Z O.O.O.O.&XZ O.O.O.O.&XO.O.O.O.O.O.O.O.&XZ O.O.O.&XO.O.Z Z &XO.O.&XO.O.O.O.O.O.O.Z &XO.O.O.O.&XO.&XZ #.&X5X3XzX6.fXfXiXaX3X-.F.B.v.g.2 4 s.j.t V.M O.C J.J.&XO.O.O.O.O.O.Z O.O.&XO.O.O.O.Z O.O.O.Z &XO.O.O.&XO.O.O.O.Z &XO.O.O.O.O.O.O.O.&XO.O.Z Z &XO.O.&XO.Z &XO.J.J.J.;XO.$.=.r.3.3.8.2.5.e.4XZ V.r h.2 a.p.j.b.z A.*XH.O.&XZ O.O.O.O.Z O.O.O.&XZ O.O.O.&XZ O.O.O.O.O.Z &XO.O.O.O.O.O.",
"O.O.O.O.O.&XZ O.O.O.O.&X&XO.O.&XO.Z &XO.O.&XO.O.&XJ.Z Z *XO.*X5X3Xe.3.0.fX0.vXxX*XZ.t 8 s.2 s.8 r V.D.F.C O.J.O.O.&XZ O.O.O.O.O.Z O.O.O.&XZ O.O.Z &XO.O.O.O.O.O.O.O.Z O.O.Z O.O.O.O.O.O.O.O.O.O.O.O.O.O.O.O.O.J.&XO.O.Z &XO.;X&X*X-.6Xt.5.8.8.3.5.r.-.H.l x.g.2 p.g.w b.x M F.O.O.Z O.O.O.O.O.O.&XZ O.O.O.O.O.Z O.O.O.O.O.O.O.O.O.O.O.O.O.O.O.O.O.O.O.&XZ O.Z O.O.&XO.O.Z &XO.O.O.Z O.O.O.O.J.J.O.Z *X&X$.;.r.4.0.8.9.5.y.:.O.x v.7 s.p.2 j.k V.Z.Z C O.&XO.O.O.O.O.O.O.&XO.O.O.O.O.O.O.O.O.O.Z J.O.O.O.O.O.O.O.O.O.O.O.Z &XO.O.Z &XO.O.O.O.O.O.O.O.Z O.O.O.&XO.&XO.J.O.J.J.&X#.-.3Xe.5.8.fX3.5.*.;XD.N.j.p.p.p.h.x.z z F.C H.O.J.O.O.O.&XZ O.O.O.Z O.&XZ O.O.O.Z O.O.O.O.O.O.O.O.O.O.O.O.O.&XO.O.O.Z &XO.O.O.O.Z O.O.&XO.Z &XO.O.O.O.Z Z O.O.O.&XZ +.*X;.3XzXsXfXiXiXiX3X4XF.N.r g.2 2 s.x.t V.D.Z H.J.Z &XO.O.O.O.O.O.O.&XZ O.&XZ O.O.O.O.&XZ Z &XO.O.O.O.O.&XO.O.O.O.Z &XO.O.O.O.O.O.O.O.O.O.O.O.O.O.Z O.O.&XO.J.Z Z *XO.:X>.cXaX0.8.0.5.t.5XC V.v.h.p.p.s.h.r V.x O.H.O.O.O.O.O.O.O.O.O.O.O.O.O.Z &XO.O.O.O.O.O.O.O.O.O.O.O.O.O.O.O.",
"O.O.O.&XO.O.O.O.O.O.O.Z O.O.Z O.O.O.O.O.O.Z O.O.O.Z &XJ.*X&X#.=.*.y.3.0.8.0.e.r.;XD.t h.s.s.s.h.r z x N H.&XJ.O.O.O.O.O.O.&XZ O.&XO.O.O.O.O.O.&XO.O.O.O.O.O.&XO.O.O.&XO.O.&XO.O.O.&XO.O.Z O.O.O.O.Z &XO.O.O.O.O.O.&XO.Z O.H.+.&X;X-.=.t.3.8.8.3.3.*.-.J.l x.g.a.p.s.9 t A.M H.O.Z Z O.&X&XO.O.O.O.O.O.O.Z O.O.O.O.O.O.&XO.O.Z O.O.O.O.J.O.&XZ O.O.O.O.O.O.O.O.O.O.O.O.O.O.O.O.O.O.&X&XO.O.O.&XZ Z O.*XZ $.5X*.4.3.9.0.6.e.>.o.x b.8 p.2 p.g.t z x C C O.O.O.O.&XO.O.Z O.Z O.O.O.&XZ O.&XO.O.O.O.O.O.O.O.Z &X&XO.O.&XZ O.O.O.O.O.O.O.O.O.O.&XO.O.O.O.&XO.Z &XO.O.Z &XO.&XJ.J.+.#.-.3Xy.5.fX8.2.4.xX;XD.B.h.g.p.p.h.x.V.Z.F.Z C &XO.J.O.O.O.O.O.&XO.&XO.O.O.O.O.O.O.&XO.O.O.O.Z &X&XZ &XO.O.Z O.O.Z O.O.O.O.O.O.O.&XO.O.O.O.O.O.O.O.O.O.&X&XO.O.O.J.&X+.*X;.=.zXaXfXiXjXsX3X4XL.B.w s.2 s.s.x.B.V.F.&XH.Z Z &XO.O.O.O.Z &XO.O.O.&XO.O.O.O.O.O.O.O.O.O.O.O.O.O.O.O.O.&XZ O.O.O.O.O.O.J.O.O.O.O.O.O.O.O.O.&XO.O.O.O.O.&X&XZ ;X+.-.>.r.6.8.8.2.5.t.-.J.A.r g.s.p.p.9 v.A.x O.C &XZ O.O.O.Z &XO.&XZ O.&XO.O.O.O.O.Z O.O.Z &XZ O.&XZ O.O.&XZ O.",
"O.Z O.O.O.O.O.&XO.O.Z O.O.O.O.O.&XO.Z O.O.O.O.O.O.&XJ.J.*X&X#.5X6Xy.iXhXfX5.e.3X*XM y x.s.p.4 4 n.k x N Z &XJ.O.O.O.Z O.O.O.O.O.O.O.O.O.Z O.O.O.O.O.O.O.O.O.&XZ O.O.O.O.O.&X&XO.O.Z O.O.&XO.O.&X&XZ O.O.O.O.O.O.O.O.O.Z &XZ +.J.;X-.:.t.5.8.8.8.5.*.-.H.B.x.4 s.4 g.w t A.F.F.O.Z Z Z &XO.O.O.O.O.O.Z &X&XO.O.O.&XZ O.Z O.O.&XO.O.O.O.O.O.O.O.O.O.Z &XO.O.O.O.&XO.O.Z &XO.O.O.O.O.&XZ O.O.O.O.J.Z O.*XZ $.>.xX4.0.8.0.3.y.>.O.x v.8 p.p.s.8 t V.x C C O.&XO.O.Z O.O.&XO.O.O.O.O.&XZ O.O.&XO.O.O.O.O.O.O.O.&XZ O.O.O.O.O.O.O.O.O.O.O.O.O.O.O.&XZ Z O.O.O.O.O.&XZ O.O.Z O.&XJ.*X#.-.:.y.aXhX8.8.4.xX#.Z.B.j.p.s.p.g.v.V.A.F.C C &X&XJ.O.O.O.O.O.O.O.O.O.Z O.O.Z &XO.O.O.O.O.O.Z O.O.&XZ O.O.&XZ &XO.O.O.O.O.O.O.O.O.O.O.O.O.O.O.&X&XO.O.O.O.O.O.O.&X&X+.O.4X>.zXaXfXhXiXaXxX4XH.V.w g.2 s.s.x.l V.D.&XH.J.O.O.O.O.O.O.Z O.O.O.O.O.O.O.O.O.Z O.O.O.O.O.O.O.O.O.O.Z O.O.O.O.O.&XO.O.O.O.O.O.O.Z &XO.O.O.O.Z O.O.Z O.Z J.O.J.+.&X-.>.t.aX0.8.0.5.e.-.C V.v.h.s.p.s.9 r x A.&XB O.&XO.O.O.Z O.O.O.O.&XO.O.O.O.O.O.&XO.O.&XZ &XO.O.O.O.O.O.O.&X",
"O.&XZ O.&XO.O.Z O.O.&XO.O.O.O.Z O.O.&XO.O.Z &XO.&XZ O.Z ;XO.;X5X3XzXhX0.fX0.y.:.*XZ.b.4 2 2 s.8 r z Z.F.C O.J.O.O.O.&XO.O.O.O.O.O.O.O.O.&XO.O.O.O.O.O.O.&XZ O.O.O.O.O.O.O.O.O.Z O.O.O.O.O.O.O.Z O.O.O.O.O.O.O.O.O.O.O.J.Z J.+.J.;X-.6XxXaXfX8.hXaX3X$.C t x.4 s.2 g.x.b.x M H.O.Z J.J.J.O.Z O.&X&XO.O.O.O.O.O.O.O.O.O.O.O.O.O.O.O.&XZ O.O.O.O.O.O.O.O.O.&XZ O.O.O.O.O.O.O.O.&XO.Z O.O.O.O.O.J.O.&XZ *XO.-.5XxXpXhX8.0.5.y.6XO.x r 8 p.2 p.j.N.V.x C H.O.J.O.O.&XO.O.O.O.O.O.O.O.O.O.O.O.O.Z O.&XO.O.O.O.O.O.O.O.O.O.O.O.O.&XZ O.O.O.O.&XZ O.O.O.&XO.O.O.O.O.O.O.O.O.&XO.Z Z ;X#.-.*.y.5.2.8.0.e.*.#.M B.j.p.s.2 h.j.B.Z.F.J.Z O.Z J.O.O.O.O.O.Z O.O.O.&X&XO.O.O.O.&XZ O.O.O.&XO.O.O.O.O.O.O.O.O.&XO.O.O.O.O.Z &XO.O.O.Z &XO.O.Z Z O.O.O.O.O.&XZ J.O.+.*X-.3Xe.3.fX0.iX3.3X4XH.l v.g.2 2 s.w t z N J.C J.O.&XO.O.O.O.&XO.O.O.O.O.O.O.O.O.&XO.O.&XO.O.O.&XZ O.O.&XO.O.O.O.O.Z O.O.O.O.O.O.O.&XZ O.Z O.O.O.O.O.&XO.&X&XZ Z #.*X-.6Xr.aX8.8.3.5.t.5XZ V.w h.2 2 g.j.r A.D.O.H.&X&XO.O.O.&XO.O.O.O.O.O.Z Z &XO.O.O.O.O.O.O.O.O.O.O.O.O.O.O.O.",
"O.O.O.O.O.O.O.O.O.&XO.O.Z O.O.&XO.O.Z &XO.O.O.O.O.Z O.Z *X&X>X;.*.zX0.0.8.hXvX3X#.D.b.h.p.p.4 h.v.l Z.N C O.J.O.O.O.O.O.O.O.Z O.O.O.O.J.O.O.O.&XO.O.O.O.O.O.&XO.O.O.O.O.O.Z &XO.O.Z O.O.O.O.O.O.O.O.O.O.O.O.O.O.O.O.Z &XO.J.+.J.;X5X=.xXaXfX8.3.iXr.:XH.l v.s.p.s.g.j.b.x D.C &XZ J.J.J.O.O.O.O.O.O.&XZ &XZ O.O.O.&XO.O.O.O.O.Z O.O.O.Z O.O.O.&XO.O.O.O.O.&XO.O.O.O.O.Z &XO.O.O.O.O.O.Z &XO.O.J.Z J.*X&X:X>.r.4.3.8.0.0.zX>.O.x v.7 2 2 p.j.v.A.A.J.G.+.S -XO.O.O.O.O.O.O.O.O.O.O.O.O.O.O.O.O.O.&XZ O.O.O.O.O.O.O.O.O.O.O.&XZ O.O.O.Z O.O.O.O.O.O.O.O.O.O.O.O.O.O.O.J.J.O.J.+.#.$.3XvX3.0.fX3.aX*.+.M l 8 s.2 a.g.v.V.V.F.Z H.&XO.O.O.O.O.O.O.&XO.O.O.O.O.O.O.O.O.O.O.O.O.O.O.O.O.O.O.O.O.Z O.O.O.O.&XO.O.O.O.O.O.O.O.O.O.O.O.O.O.O.O.Z &XO.O.&XJ.O.#.&X-.6Xt.iXhXhXjXiX>.5XZ B.v.s.p.p.s.j.b.B.D.O.H.H.O.&XO.O.O.O.O.O.O.O.O.Z O.O.O.Z O.O.O.&XO.O.&XZ &XZ O.O.O.Z O.O.O.O.O.Z O.&XO.O.O.O.O.O.&XO.O.O.O.O.O.O.J.O.J.H.;X+.5X;.zX5.3.8.3.5.zX-.Z V.w j.p.p.g.j.N.z D.&XC +.H.O.O.O.O.O.O.O.O.O.O.O.O.O.O.O.O.O.O.&XO.O.O.Z &XO.O.Z &XO.",
"O.O.O.O.O.O.O.O.O.Z O.O.&XO.O.O.O.O.O.O.O.&XZ &XO.&XO.&X*XJ.%.5X3XzX0.hXfX3.pX*.;XZ.t h.2 p.p.4 r V.x H.H.O.J.&XO.O.O.O.O.O.&XO.O.O.O.O.O.O.O.Z O.O.Z &XO.O.Z O.Z &XO.O.O.O.O.O.O.&XO.O.Z &XO.&XO.&XZ O.O.&XO.O.O.J.Z O.&XH.+.Z ;X;.=.zX5.fXfXhXaX:.:XJ.l x.4 2 2 s.j.b.Z.M C O.Z H.Z &XO.Z O.O.O.O.O.O.O.O.O.O.O.Z &XO.O.O.O.&XO.O.O.&X&XO.O.Z Z O.O.O.O.O.O.Z O.O.O.O.O.O.O.O.O.O.O.O.O.O.J.O.&XJ.+.J.$.5Xr.4.3.8.9.5.y.>.&Xx v.j.2 p.7 j.k z A.Z N O.L.&XO.O.&XZ O.Z &XZ &XO.O.O.Z &XO.O.O.Z O.O.O.O.O.O.O.&XO.J.O.O.O.O.O.O.O.O.&XO.O.O.Z &XO.&XZ O.O.Z &XO.O.&X&X&XO.J.+.:X:X:.vX5.0.hXhXpXxX+.D.N.8 g.4 p.g.v.V.A.F.*XF.O.O.O.O.O.O.O.O.O.O.O.O.O.O.&XZ O.O.O.O.O.&XZ &XO.O.O.O.O.O.&XO.Z O.O.O.O.&XO.O.O.O.O.O.O.Z &XO.O.O.O.O.O.O.O.Z &X&X&X*X*X5X6XzXiXfXhX2.3.3X-.H.B.v.s.a.s.g.x.b.V.D.Z H.Z O.Z J.O.O.O.O.O.Z &XO.&XO.O.O.&XO.O.O.Z O.O.O.O.O.O.O.O.O.&XO.O.Z &XO.&XO.O.O.O.&XO.O.O.O.O.O.O.O.&XO.O.&XZ J.J.%.O.:X3XzX5.8.8.3.aXcX-.C V.x.h.p.p.2 8 v.x M O.F.*X&XO.O.O.&XO.O.Z &XZ &XO.O.O.O.Z &XO.O.Z O.O.O.O.O.O.O.O.O.O.",
"O.O.Z &XZ &XO.O.O.O.O.&XO.O.O.&XO.O.O.O.O.O.&XO.&XZ &XZ *XZ ;X;.:.e.3.hXfXhXy.3X;XD.b.7 s.s.s.4 n.z Z.N H.O.J.O.Z O.O.O.O.&XZ &XO.O.O.O.O.O.Z O.O.Z O.O.&XZ O.O.O.Z O.O.O.O.O.O.O.&X&XZ O.O.&XO.O.O.&XO.O.O.&XO.O.&X&XO.&XJ.+.J.;X4X6XxX5.8.8.2.aX3X:XH.t v.s.2 s.g.w t Z.M H.&XJ.J.O.J.O.O.O.&XO.&XO.O.O.O.O.O.O.&XO.O.O.O.O.O.&XO.O.O.Z O.O.O.&XO.O.O.O.O.O.&XZ O.O.O.Z &X&XZ O.O.O.O.O.O.J.J.Z J.+.Z -.5Xr.4.0.8.0.5.y.>.O.Z.v.7 a.2 p.j.k V.A.Z N +.&X&XO.J.O.O.O.&XO.O.O.Z O.O.&XZ O.O.O.&XO.O.O.O.O.Z Z O.O.O.O.O.O.O.O.&XO.O.&XZ O.&XZ O.O.O.&XO.&XZ O.O.O.O.O.Z O.J.+.$.-.*.vX3.8.8.0.pXxX+.D.k 8 g.p.a.g.v.l A.N O.C O.O.J.O.O.O.O.O.O.O.O.Z &XO.O.O.&XO.&XO.O.Z &XZ O.Z &XO.O.O.O.O.&XZ &XZ O.Z O.O.O.O.&XO.O.O.O.O.O.O.O.O.O.O.O.O.J.Z O.+.O.-.6Xr.aXfX8.8.5.3X-.C B.x.g.p.s.g.r l z F.Z J.H.O.O.&XO.&XO.O.O.O.O.O.O.&XO.O.O.O.O.O.O.O.O.O.O.O.O.O.O.&XO.&XZ O.O.&XZ O.O.Z &XZ O.O.O.O.O.O.O.O.Z O.O.&XZ J.J.;XO.:X6Xe.5.0.fXiX6.e.-.Z z x.h.2 p.h.j.y A.x Z N O.J.J.Z &XZ O.O.&XO.O.O.O.O.Z O.&XZ &X&XZ O.O.O.O.&XO.Z O.O.O.",
"O.O.O.O.O.O.O.O.&XO.O.Z O.O.O.Z O.O.O.O.O.O.Z O.O.J.&XZ *XZ ;X5X6XzXiXhX8.iXy.*.*XM b.j.4 s.4 j.y B.D.N C &XZ O.&XO.O.O.O.O.O.O.O.O.O.O.O.O.&XO.O.&XO.O.O.O.O.O.O.&XO.O.O.O.O.&XO.O.O.O.O.O.Z O.O.O.O.O.Z O.O.O.O.J.Z O.&XH.+.Z ;X4X=.cXaXhXfXiX5.r.4XH.l x.4 2 2 g.w b.x F.C O.J.Z J.O.O.O.O.O.O.Z O.O.O.O.O.O.O.O.O.Z O.O.O.O.Z O.O.O.O.O.&XO.O.O.&XZ O.O.O.O.&XO.O.O.O.O.O.O.&XZ O.O.O.O.J.O.Z J.*X&X$.6XxXpX3.8.8.0.e.>.O.z 9 7 2 2 p.j.b.V.A.J.H.&XJ.&XZ &XO.O.O.O.O.&XO.O.O.O.O.O.&XZ O.O.O.O.O.O.O.&XO.O.O.O.O.O.&XO.O.Z O.O.O.O.O.O.O.O.O.O.O.O.O.O.&XZ O.O.O.&XO.J.+.;X-.:.zX5.8.8.0.y.*.#.D.N.8 2 2 p.g.v.V.A.H.&XZ O.O.O.O.O.O.O.&XZ &XZ O.O.O.O.O.O.O.Z O.O.O.O.O.O.O.O.O.O.O.O.O.O.O.O.&XO.O.O.O.O.O.Z O.O.&XO.Z &X&XZ O.O.&XZ O.O.&X&X#.O.5X6XzX3.hX0.8.5.3X-.N B.c.s.a.p.s.c.b.z F.H.Z Z O.J.O.O.Z O.O.O.O.O.O.&XZ O.O.O.O.&XZ O.O.O.Z &XZ &XO.O.Z O.O.O.O.O.O.O.O.O.O.O.O.&XO.O.O.O.O.J.O.O.O.O.O.Z O.J.#.O.4X3Xr.5.hXfXfX6.r.4XH.V.x.7 p.p.g.8 v.V.D.Z F.O.Z &XO.O.O.O.O.O.O.&XO.O.O.&XO.O.O.O.O.O.O.O.O.O.O.Z &XO.O.O.",
"O.O.O.&XZ O.O.O.Z O.O.O.O.O.O.O.Z &XO.O.O.O.Z O.O.&X&XZ *X&X%.5X*.zX3.fX8.iXvXxX+.D.t h.2 2 2 7 v.N.x H.H.&XJ.O.O.O.O.O.O.O.O.O.O.O.O.O.O.&XO.O.O.&XO.O.Z &XO.O.O.O.O.O.O.O.O.Z O.O.&XO.O.O.O.O.O.O.Z &XO.O.O.O.O.&X&XO.J.J.+.J.*X;.6Xt.iXfX8.0.5.3X:XJ.b.r s.s.2 h.9 b.x D.C O.Z &XJ.O.O.O.O.O.O.&XZ O.O.O.O.&XO.O.O.O.O.O.O.O.&XO.O.O.O.&XO.O.O.O.O.O.O.O.O.Z O.O.O.O.O.&XO.O.Z O.O.&XO.O.J.O.J.J.+.J.;.5Xr.pX2.8.hXaXe.>.&XA.v.g.p.2 p.9 r A.x Z F.+.J.&XO.&XO.O.O.O.O.O.O.Z O.O.O.O.O.O.Z &XO.O.J.O.Z O.O.&XO.O.O.O.O.O.Z &XO.O.O.O.O.O.O.O.O.Z &XO.O.O.O.O.O.&XO.&XO.Z +.#.-.r.y.5.8.hX0.y.xX+.x B.8 2 2 p.g.v.z A.H.O.C &XO.O.Z O.O.O.O.Z O.O.O.O.O.O.O.O.O.O.O.&XO.O.O.O.Z O.&XO.O.O.O.O.O.O.O.O.J.O.O.O.O.O.O.&XZ O.O.&XO.O.O.O.O.O.O.O.Z Z ;X&X-.:.e.4.2.8.0.5.:.5XB B.r g.p.s.g.j.N.N.N C H.O.O.O.O.O.O.O.O.O.O.O.O.Z O.O.O.&XO.O.O.O.&XO.O.O.O.Z O.O.O.O.O.O.O.O.O.O.O.O.O.Z &XO.&XZ O.O.O.O.O.&XO.O.O.O.O.Z ;X&X4X=.t.iX0.0.0.5.xX5XH.z x.7 s.p.g.j.y A.D.Z F.&XZ O.O.O.O.O.O.O.O.Z O.O.O.O.J.O.O.O.O.O.O.O.O.&XO.O.O.O.Z O.",
"&XO.O.O.O.O.O.&XO.O.O.O.O.O.O.O.O.O.O.O.O.O.&XO.&XZ Z &X*X&X>X;.3Xe.3.hXfXiXvXxX#.x t j.2 2 4 g.r l Z.N C O.J.O.O.O.O.O.O.O.O.Z O.O.Z &XO.O.O.O.O.O.O.O.O.O.&XZ Z &X&XO.O.O.O.O.&XZ Z O.O.O.O.O.&XZ O.O.O.O.Z &X&XZ Z O.J.J.+.&X*X5X6XzX4.2.8.8.5.:.$.H.B.w s.2 s.7 x.y x D.H.&XJ.&XO.O.O.&XZ O.O.O.O.O.O.&XO.Z O.O.O.O.Z &XO.O.Z O.O.O.O.O.O.Z O.O.Z O.Z &XO.&XO.O.O.O.O.O.O.Z &XO.O.O.O.O.O.J.&XZ +.&X%.;.*.6.0.8.8.6.e.>.O.z v.j.7 2 2 g.t z x Z F.O.Z &XO.O.&XO.O.O.O.O.O.&XO.O.O.O.&XO.O.O.O.O.O.O.&XO.O.O.Z O.O.O.O.O.O.O.O.&XO.O.O.Z &XO.O.O.O.O.O.O.O.O.Z O.Z O.O.Z +.#.-.:.e.3.8.9.3.y.xX#.x b.j.g.p.g.8 r k A.B Z C O.O.O.&XO.O.&XO.O.O.O.&XO.O.Z &XZ O.O.O.Z O.&XO.O.O.O.O.O.&XO.O.&XO.O.O.O.O.O.O.O.O.O.O.Z O.O.O.O.&XZ O.O.O.O.O.&XZ Z +.*X-.*.e.3.2.q.8.e.xX$.L.b.x.s.p.p.k.c.C.A.N H.J.&XZ Z O.O.O.O.O.O.O.O.O.O.O.O.O.Z O.O.O.O.O.O.O.O.O.&X&XZ &XO.O.O.O.O.O.O.Z O.O.O.O.O.O.O.O.O.O.Z O.Z &XZ O.&XO.&X*X*X-.=.cXaX2.8.0.5.t.-.H.z x.j.s.p.g.j.b.A.Z.Z F.&XJ.O.&XO.O.O.O.O.O.O.O.O.O.O.O.O.O.O.O.O.O.O.O.Z &XO.O.O.&XO.",
"Z O.O.O.&XO.O.Z O.O.O.O.Z O.O.O.O.O.O.J.O.O.O.O.O.&XO.Z *X&X%.;.3XvX3.iXfX0.y.*.*XD.b.h.s.2 2 h.v.V.Z.N C O.&XO.O.O.O.O.O.O.O.&XO.Z O.O.O.Z &XO.O.&XO.O.O.O.O.O.O.O.&XO.Z O.O.O.O.O.O.O.O.O.O.O.O.O.O.O.O.&XZ O.O.&XZ O.O.J.O.&X+.-.3Xe.3.2.8.hX5.:.4XH.B.r s.2 s.7 x.b.A.D.H.&X&XJ.&XO.O.O.O.O.&XO.O.&XO.O.O.O.O.&XO.O.O.O.O.O.O.O.O.O.O.O.O.&X&XO.&XO.O.O.O.O.O.Z Z &XO.O.O.&XO.O.O.O.O.O.J.O.O.&X*X&X4X>.r.4.hX8.0.3.zX>.O.z v.g.2 2 p.j.b.A.A.J.H.-XJ.O.Z Z Z O.O.O.O.O.O.O.Z &XO.O.Z O.O.O.O.O.O.O.O.O.O.O.&XO.O.O.O.O.O.O.O.O.&XO.&XZ O.O.Z O.O.O.&XO.O.O.&X&XJ.&XO.Z @.;X4Xr.vXaX8.8.0.e.xX;Xx t 9 2 2 2 g.v.z Z.N O.N O.O.O.O.&XO.O.O.&XZ &XZ O.O.&XO.&XO.O.O.O.O.O.O.Z O.&XZ &XZ O.O.Z O.O.Z &XO.O.O.O.O.O.O.O.O.O.Z O.O.O.O.O.&XZ Z &XJ.&X;X*X-.:.e.3.2.0.0.y.r.:XN b.v.s.p.4 p.j.k A.N N J.&XO.C J.&X&XO.Z O.Z O.O.O.&XO.O.O.O.Z &XO.O.O.O.O.O.O.O.O.O.O.O.&XO.O.O.O.&XO.O.O.O.O.&XO.O.O.O.&XO.&XO.O.J.&XO.H.*X;X;.=.t.iX2.8.hX5.r.-.J.B.x.h.s.p.4 j.N.z M Z N +.J.O.O.O.O.O.Z O.O.O.O.O.O.O.O.O.O.O.O.O.O.O.O.&XZ O.O.&XZ O.",
"O.O.&XZ O.O.O.O.&XO.Z &X&XO.O.O.O.O.O.O.O.O.O.O.O.O.O.O.*XJ.>X5X6Xe.3.hXfX0.vX*.*Xx N.8 k.2 s.g.b.V.Z.F.H.O.J.O.O.O.O.J.O.O.O.O.O.&XO.O.O.O.O.O.Z O.O.O.O.O.O.O.O.O.Z O.&XO.O.O.O.O.O.O.O.O.Z &XO.O.O.O.O.O.O.O.O.O.Z &XO.J.%.H.;X5X3XzX5.hX8.3.aX:.:XC b.w s.s.s.g.9 B.A.M C O.&XZ Z Z O.O.O.O.O.Z O.O.O.Z &XO.O.Z O.O.O.J.O.O.O.O.O.O.&XZ O.O.Z O.O.O.O.O.O.O.O.&XO.O.O.O.O.O.Z &XO.O.O.O.O.J.O.O.+.O.:X>.xX4.fX8.0.aXzX6XO.A.r j.p.p.2 j.r V.x H.F.o.Z O.&XO.O.O.&XZ O.O.O.O.O.O.O.&XO.O.O.O.O.O.O.O.O.Z &XO.O.O.O.&XZ O.O.O.Z O.O.O.O.O.O.O.&XO.O.O.Z O.O.&XZ J.Z &X+.J.+.;X5X:.e.iXfX8.5.vXr.:Xx b.j.p.p.s.h.r z A.H.O.C O.O.O.O.Z O.O.O.O.O.O.O.O.O.O.O.Z O.O.O.O.O.O.O.&XO.O.O.O.O.O.O.O.O.O.O.O.O.O.O.&XZ O.O.O.O.O.&XO.O.O.O.&XJ.O.&XJ.Z Z +.*X;.:.y.3.q.8.0.e.u.%.N B.j.p.p.s.g.x.l Z.N N H.&XO.Z &XO.O.O.&XO.&XO.O.O.Z O.O.&XO.O.O.O.Z &XO.O.O.O.O.O.O.O.O.Z Z &XO.O.O.O.O.O.O.O.Z O.O.O.O.O.O.O.O.O.J.O.O.J.*X#.;.5Xt.iX0.0.8.5.r.-.C z x.7 p.p.g.8 b.x D.J.F.O.O.O.O.O.Z &X&XO.O.O.Z &XO.O.O.O.O.O.O.O.Z &XO.O.O.O.O.O.O.O.",
"O.O.O.O.O.O.O.&XO.O.Z O.Z O.O.O.O.O.&XO.O.O.O.O.O.J.Z &X&X&X#.5X:.e.3.0.0.5.y.r.+.A.t x.p.p.p.h.v.N.Z.F.C O.Z O.O.Z O.O.O.O.O.O.O.O.O.O.O.O.O.O.&XZ O.O.O.O.O.O.&XO.O.O.Z &XO.O.Z &XO.O.O.O.O.O.O.O.O.O.O.O.O.&XO.J.&XO.J.J.*XJ.;X;.3Xe.3.0.0.3.5.:.-.C B.x.4 2 2 g.x.t Z.D.N &XJ.Z &XO.O.O.O.&XZ O.O.&XO.&XO.O.Z &XO.O.O.O.O.O.O.O.O.O.O.O.O.O.O.Z &XO.O.O.O.O.O.O.Z O.O.&XZ O.O.O.O.&XO.O.J.&XO.Z *X&X4X>.3XpXiXfX8.iXzX>.&XA.x.8 s.p.s.9 n.A.x H.J.Z Z &XO.O.O.O.&XO.O.O.O.O.O.O.O.&XZ O.O.Z &XO.O.O.O.O.O.O.O.O.O.J.O.O.O.O.O.O.O.Z O.O.O.O.O.O.Z &XO.O.O.O.J.O.J.O.O.J.+.:X-.r.e.5.8.8.3.e.r.#.A.b.x.s.2 s.s.v.B.Z.H.J.F.O.O.O.Z O.O.O.O.O.O.Z O.O.O.O.O.O.O.O.O.O.O.Z &XO.O.O.Z O.O.O.O.&XZ O.O.&XO.&XO.O.&XO.O.O.O.O.Z &XO.O.O.&XZ O.Z O.&X*X#.O.-.:.e.6.q.q.8.y.r.%.B b.j.g.p.a.g.x.N.Z.F.H.Z O.&XC +.J.O.O.O.O.O.O.O.O.O.O.&XZ O.Z O.&XO.O.O.O.O.&XO.Z &XO.O.O.O.&XO.O.Z O.O.O.O.O.O.&XO.Z O.O.O.O.O.O.Z J.&XZ +.*X4X6Xt.6.0.0.q.5.r.$.F.V.w 7 s.2 s.x.v.A.A.&XH.O.J.O.O.O.O.O.O.O.O.O.O.O.O.&XO.Z &XO.O.O.&XO.O.O.O.&XZ O.O.O.",
"Z &XO.O.O.O.O.Z O.O.&XO.&XO.O.O.O.O.Z O.O.&XZ O.O.J.&XZ *X&X#.>.r.y.0.0.9.q.y.*.+.Z.t 9 s.a.p.h.v.V.D.F.C O.Z O.O.&XO.O.O.O.O.&XO.O.O.O.O.&XZ O.O.O.O.O.O.O.&XO.O.O.Z &XO.O.O.O.O.O.O.O.O.&XZ O.Z O.O.O.O.O.O.Z O.&XO.O.Z J.+.J.;X-.6XzXiXfX0.8.3.:.$.C t x.4 p.s.g.w b.x D.C O.&XZ O.O.O.O.O.O.O.O.Z O.O.O.O.O.O.O.O.&XO.O.Z O.O.Z &XZ O.&XO.O.O.O.O.O.O.O.Z &XO.O.&XO.O.O.O.O.O.O.O.Z O.O.Z &XO.J.+.*X-.5Xr.pXfXfX8.pXy.5X&Xz x.j.p.2 g.9 y V.A.C H.&XZ &XO.O.O.O.Z O.O.O.O.O.&XZ O.O.O.O.O.O.O.O.O.O.&XZ O.O.O.O.O.O.O.O.O.O.Z &XO.&X&XO.O.O.O.O.O.O.O.O.Z &XJ.O.&XO.&XJ.@.>X5X*.e.aX8.8.0.vXr.:XA.t e 4 2 p.8 v.l Z.N &XH.O.O.O.&XO.O.O.O.Z &XO.&XO.O.Z &XZ &XO.O.O.O.O.O.O.O.O.&XO.O.O.O.O.O.O.O.Z O.O.Z O.O.O.O.O.O.O.O.O.O.&XO.O.O.O.O.O.J.&X%.+.4Xr.y.0.0.8.9.e.:.$.F.t j.s.p.p.g.x.N.x F.J.H.&X&XZ O.Z O.O.O.O.O.O.O.O.O.O.O.O.&XO.O.O.O.O.O.O.O.O.O.&XZ O.O.&XO.Z O.O.&XO.O.O.O.O.O.O.O.&XO.O.O.O.O.&XO.J.O.J.*X*X;.>.e.3.9.9.2.4.r.-.H.V.x.s.p.a.g.j.N.A.Z.J.H.O.&XO.Z O.O.O.O.O.&XZ O.O.O.Z O.O.O.O.Z O.O.O.&XO.O.Z O.O.O.O.",
"O.O.&XZ O.&XO.O.O.&XO.O.O.O.O.O.&XO.Z O.O.O.O.O.O.Z O.O.*X&X#.>.=.e.0.9.9.0.e.*.+.x b.8 s.p.s.h.v.V.Z.H.H.*XC O.O.O.O.O.O.O.O.Z &XZ Z &XO.O.O.O.O.O.O.O.O.Z &XZ O.O.O.O.O.O.O.O.O.O.Z &XO.O.O.O.&XO.O.O.O.O.O.O.O.&XO.O.J.J.*XZ *X5X*.zX3.8.8.3.4.:.4XN t w g.p.2 7 w k x D.H.J.&XJ.O.O.O.O.O.Z O.O.O.O.Z O.O.O.O.O.O.Z O.O.&XO.O.&XO.O.O.O.Z O.O.O.O.O.O.O.&XZ O.&XZ O.O.O.&XO.O.O.O.O.O.Z J.J.J.Z +.&X4X6X*.pX2.fX8.pXy.5X&Xz w 9 a.a.4 x.t A.Z.C Z J.Z O.O.O.&XO.O.O.O.O.O.Z O.O.O.O.&XO.O.O.O.O.O.O.O.O.O.O.Z O.O.O.O.O.O.O.O.O.O.O.O.O.Z O.O.O.O.O.O.O.Z O.O.O.J.O.J.J.*X;X5X*.vX5.8.8.0.e.r.:Xx t 9 a.p.4 h.v.l Z.C &XH.*XO.O.&XZ O.Z O.&XO.O.O.O.O.&XO.O.O.Z &XO.Z O.O.O.O.O.&XZ O.O.Z O.O.O.O.O.Z O.O.O.O.O.Z O.O.O.O.O.O.Z O.O.O.O.O.&XZ +.#.+.5X:.e.0.0.q.fXe.r.#.M b.j.g.p.s.d.v.z A.M J.H.+.O.C O.O.O.&XO.O.J.O.O.O.O.O.O.O.O.O.O.O.Z &X&XO.O.O.O.O.O.O.O.Z O.O.O.O.O.O.O.O.O.O.O.Z O.O.O.O.O.O.O.O.O.J.O.Z +.#.;.6Xe.3.0.0.0.5.xX$.N l w h.s.a.7 x.N.A.x *XH.O.&XO.&XO.O.O.O.O.&XO.O.O.O.O.&XO.Z O.&XO.Z O.Z O.O.O.O.O.O.O.",
"O.&XO.O.O.Z O.O.O.Z O.O.O.O.O.&XO.Z &XO.O.O.O.O.Z &X&XO.+.O.;X>.=.y.3.0.8.5.e.r.+.x b.h.s.p.p.g.v.V.M F.C &XZ &XZ &XO.&XZ O.O.O.O.O.O.O.O.O.O.O.O.O.O.O.O.&XO.O.O.O.O.Z &XO.&XZ Z &XO.O.O.O.O.O.O.O.&XZ O.O.O.O.O.Z Z J.J.J.+.Z *X-.6XzXiXhXfXhX5.3X4XH.t x.s.p.p.g.x.b.Z.D.C O.J.Z &XO.O.O.O.&XO.O.&XO.&XO.O.Z O.O.O.O.O.O.O.O.O.O.O.O.O.O.&XO.Z O.O.O.O.O.O.O.O.O.O.O.Z O.O.O.O.&XZ O.O.&X&XZ O.J.+.&X:X>.r.pXhXfX0.aXvX>.&XA.w 7 2 3 4 j.r A.Z.C C &XJ.O.O.O.O.O.O.O.O.O.O.&XO.O.O.O.Z O.O.&XO.O.&XZ O.O.O.&X&XO.O.O.O.O.O.O.O.O.O.O.O.O.&XO.Z O.O.O.O.O.&XO.J.O.J.O.&XH.*X;X-.3XpX5.8.8.hXe.xX;Xx b.9 s.2 p.8 v.V.x N O.M O.O.O.O.O.O.&XO.O.Z O.O.O.O.O.O.O.O.O.O.O.&XO.O.O.O.O.O.O.O.O.&XO.Z O.O.&X&XO.O.Z O.O.&XO.J.O.O.O.O.O.O.O.&XZ O.O.J.&X#.+.-.:.e.hXhX8.fXvXxX#.D.b.j.s.p.p.g.r N.x F.C N #.O.C Z &XO.Z O.O.O.O.&XZ O.O.O.O.O.O.O.Z O.O.Z O.O.O.O.O.O.O.O.O.O.O.O.O.O.O.O.&XZ O.O.&XO.&XO.O.O.O.O.O.O.J.O.J.+.+.;.6Xe.5.0.9.2.4.r.%.N V.x.4 2 a.s.7 N.z x &XN +.Z O.O.O.&XZ O.O.O.O.O.O.O.O.O.O.&XO.O.O.&XO.O.O.O.O.O.O.O.O.",
"O.O.O.O.O.O.O.O.O.Z O.O.O.O.O.Z O.O.O.O.O.O.O.O.&XJ.O.O.O.O.$.5Xr.t.0.0.0.q.y.:.O.x l h.p.2 p.h.y z D.F.C O.J.O.O.O.&XO.O.O.O.O.O.Z O.O.O.Z O.O.O.O.Z &XO.O.&XO.O.Z &XO.O.O.O.O.O.O.&XO.O.Z &XO.O.Z O.O.O.O.O.O.O.&XZ J.O.J.+.&X+.;.:.e.5.8.8.0.6.6X-.H.b.x.4 s.s.7 x.b.x D.C &XJ.&XZ O.&XZ O.O.O.O.&XO.O.O.O.&X&XZ O.O.&XO.O.&XO.O.O.O.O.O.O.O.&XO.Z O.O.O.O.O.O.O.Z O.&XO.O.O.O.O.O.O.O.O.&XJ.O.J.*X&X-.>.r.aX2.8.hX6.y.>.O.z r 8 s.2 s.w y V.Z.C H.&XO.O.Z &XO.O.O.O.O.&XZ O.O.O.Z O.&XO.O.Z O.O.O.&XZ O.O.O.O.O.O.O.&XO.O.O.O.O.O.O.O.O.O.O.&XO.&XZ O.O.O.O.J.O.&XO.O.J.+.;X5X*.e.3.8.8.2.zXr.#.Z.N.9 s.2 p.8 x.V.Z.H.J.F.*XO.O.O.O.O.O.&XO.&XO.O.O.O.O.O.O.O.O.O.Z O.O.O.O.&XO.O.O.Z &XO.O.&XO.O.O.O.O.O.&XO.O.&XO.O.O.O.O.O.Z &XO.O.O.Z &XJ.&X;X;X-.*.y.2.0.0.0.e.6X#.D.b.j.d.p.s.s.v.V.A.N H.H.+.&XH.&X&XO.&XZ O.O.O.O.O.Z O.O.O.&XZ O.&XO.O.O.O.O.O.O.Z &XO.O.O.O.O.O.O.O.O.&XZ &XZ O.O.O.Z &XO.O.O.O.O.O.J.Z J.+.;X;.>.e.5.0.8.0.5.xX-.H.B.x.g.a.3 s.x.N.A.Z.+.C O.&XO.O.O.O.O.O.O.&XO.Z O.O.O.O.&XZ O.O.O.O.O.O.O.O.O.O.O.O.O.",
"O.O.&XZ &XZ O.O.O.&XO.O.O.&XO.O.O.&XO.O.O.O.O.O.O.Z O.O.+.Z #.>.xXy.0.0.0.0.e.=.+.x y 7 p.s.s.h.v.V.D.H.H.+.J.&XO.O.O.Z &XZ O.O.O.&XO.O.O.&X&XO.O.O.O.O.O.O.Z O.O.O.O.O.O.O.O.O.O.O.O.O.O.O.O.O.O.&X&XO.O.O.&XO.O.&XZ &XZ J.+.&X+.;.>.e.3.8.9.3.aX>.$.C b.9 s.s.2 7 x.N.x D.N &XZ &XO.O.O.O.O.O.&XZ Z O.O.O.O.O.O.O.O.O.Z O.O.Z O.O.O.O.Z O.O.O.O.O.&XO.&XO.O.O.O.O.&XO.O.O.O.O.&XZ O.O.&XO.Z O.O.&X+.+.4X5X*.pX8.8.8.4.e.;.O.V.v.7 2 a.4 w v.A.Z.C Z O.&XO.J.O.Z O.O.&XO.O.O.O.O.O.&XO.O.O.O.&XO.O.O.O.O.O.Z O.O.O.O.O.Z O.Z &XO.O.O.O.Z O.O.O.O.O.O.O.&XO.O.O.O.O.J.O.&XJ.*X;X4Xr.4.3.8.fXiXzX:.*XD.k 7 s.2 s.h.x.V.x H.&XH.O.O.O.O.O.&XO.Z O.O.O.O.O.O.O.O.O.O.&XO.O.O.O.&XO.O.O.O.O.O.O.O.O.O.O.O.O.O.O.O.O.O.O.Z O.O.O.O.O.O.O.O.O.&XO.O.O.Z O.#.*X5X*.zX2.8.8.8.e.r.;XD.t x.d.a.p.k.c.V.A.N J.J.O.&XJ.&XJ.O.O.O.O.O.O.O.O.&XO.O.O.O.O.O.O.O.O.O.O.Z &XO.&XZ O.O.&XO.O.Z &XO.O.O.O.O.O.O.O.O.O.O.O.O.O.O.O.O.J.Z Z #.*X5X>.e.3.9.8.3.4.=.%.B B.x.7 s.a.k.w t A.Z.O.C O.J.O.O.O.J.O.O.O.Z O.&XO.O.O.O.O.O.O.O.O.&XZ &XZ O.O.O.O.O.O.",
"O.O.O.O.O.O.O.O.&XZ &XO.O.O.&XO.O.O.O.Z O.O.O.O.&XO.O.O.+.Z #.>.r.y.0.q.9.0.e.:.&XM b.g.p.p.p.h.n.V.D.F.C O.J.Z O.O.O.&XO.O.O.O.O.&X&XZ O.O.&XO.O.Z O.O.O.O.O.O.Z O.O.O.&XO.O.O.O.O.O.Z O.O.O.O.O.&XZ O.O.O.O.O.O.J.Z J.O.J.+.&X;X-.>.y.aX8.hX2.5.6X$.H.b.x.4 s.p.4 x.N.x F.C O.O.J.O.O.O.O.O.O.O.O.O.O.O.O.O.O.O.O.O.O.Z O.O.O.J.O.O.O.&XO.O.O.O.&XZ O.O.O.&XO.O.&XO.O.O.O.O.O.O.O.O.&XZ O.O.J.O.J.+.&X-.5Xr.aXhXfXhXaXe.>.&XA.v.8 2 2 s.w v.A.Z.C Z O.Z O.&XO.&XO.O.O.&XO.&XZ O.O.&XZ O.O.O.O.O.&XO.O.&XO.O.O.Z &X&XO.O.O.O.O.O.J.O.O.&XO.O.O.O.O.&XO.O.O.O.O.J.O.J.O.J.J.*X;X-.xX4.3.8.hXhXe.:.*XD.l 8 4 3 p.8 r l x N J.F.+.O.&XO.&XZ O.O.O.O.O.O.&XO.O.O.O.O.O.O.&XZ &XZ O.Z O.O.O.O.O.O.O.O.O.O.&XO.&XO.O.&XO.Z O.O.O.O.O.O.O.O.&XO.O.O.O.J.O.#.;X-.3X4.3.0.0.hXzXxX;XD.b.h.s.p.s.g.n.N.A.F.H.J.Z Z H.O.J.&XZ &XO.&XO.O.O.O.O.O.O.O.O.O.O.O.O.J.O.O.O.O.O.O.O.O.O.O.O.O.Z O.O.O.O.O.O.O.O.O.O.O.O.O.O.O.&X&XH.O.J.+.#.5X>.cXhX0.8.0.4.r.-.H.B.9 7 a.2 4 x.N.A.Z.+.C O.J.O.O.O.O.O.&XZ O.O.O.O.O.O.O.O.Z O.O.O.O.O.O.O.O.O.O.O.O.O.",
"O.O.O.O.O.O.O.O.O.O.O.O.O.Z O.O.O.O.O.&XO.O.O.O.O.O.O.O.*XJ.#.5X=.e.q.0.8.3.t.3X&Xx b.s.p.2 p.h.y z D.F.C &XC &XO.O.O.O.O.&XO.O.O.O.O.O.O.O.Z O.O.&XO.O.O.O.O.O.&XO.O.O.Z O.O.O.O.O.O.&XO.&XO.Z O.O.O.O.O.O.O.O.O.&XZ J.O.J.+.+.*X-.:.e.3.8.fXfX4.*.$.C b.9 7 2 2 7 x.t x D.C O.J.J.O.O.O.O.O.O.O.O.O.O.O.O.Z &XO.O.&XO.O.O.&XO.O.O.O.O.O.O.O.&XO.O.O.O.O.Z O.O.O.Z O.O.O.&XZ O.O.O.O.O.O.O.J.O.O.Z +.&X$.>.xX4.0.fX0.aXe.>.&Xz x.8 4 a.4 w y V.Z.C C &XJ.O.Z &XO.O.O.Z O.O.O.O.O.O.O.O.O.O.O.Z O.Z O.O.Z O.O.&XO.O.Z O.O.&XO.O.O.O.O.O.O.O.&XZ O.O.Z O.O.Z &XO.O.O.J.O.&XJ.+.;X-.xX4.aXhXhXiX4.r.+.x z x.2 3 2 7 v.N.Z.B J.F.*XZ O.O.O.O.O.O.O.O.O.O.Z O.J.O.O.O.O.O.O.O.O.O.O.&XO.O.Z &XO.O.O.O.O.O.Z O.Z O.O.O.O.&XO.O.O.O.O.O.O.O.Z O.O.O.O.J.O.#.*X-.*.y.iXhXhXhXr.xX;Xx n.j.s.p.p.g.v.V.Z.F.Z J.&XJ.Z +.J.O.O.O.O.Z O.O.O.O.O.Z &XO.O.O.O.O.O.O.O.O.O.O.O.O.&XZ O.&XO.O.&XO.O.Z &XZ &XO.O.Z O.O.O.O.O.O.O.O.J.Z Z +.;X5X=.t.hX8.8.0.vXr.#.N N.x.7 s.s.s.x.N.A.Z.&XH.O.J.J.O.O.O.O.O.O.O.O.O.O.J.O.O.O.&XO.O.O.O.O.O.O.O.O.O.O.O.O.",
"O.O.O.O.O.O.O.O.O.O.Z O.O.O.O.O.O.O.O.O.Z O.O.O.Z &X&XO.*XO.$.>.t.4.0.0.9.5.y.>.Z x n.x.a.2 p.h.v.V.D.F.H.O.J.&XO.J.O.O.O.O.&XZ O.O.O.O.Z O.O.O.O.O.O.O.Z &XO.O.O.O.O.O.O.O.O.O.O.O.O.O.O.O.&XO.O.O.Z &XO.O.O.O.O.&XZ J.O.&X*XO.#.5X3Xy.aXfX8.iXpX6X$.C b.w p.s.s.g.w b.x F.F.O.O.&XO.Z O.O.O.O.O.O.O.O.O.O.O.O.O.O.O.O.J.O.O.O.O.&XZ O.O.&XO.Z O.O.O.O.O.&XO.O.O.&XZ O.O.Z O.O.O.O.O.O.O.O.J.J.&XZ *X&X-.5Xr.pXiX8.fXpXvX>.&XV.n.8 4 2 4 j.v.x Z.C H.J.Z O.O.O.O.O.O.O.O.O.O.O.Z O.O.O.Z O.O.&XO.O.O.O.O.Z O.O.O.O.O.O.&XO.O.O.O.O.&XO.O.O.O.O.O.O.O.&XO.&XO.O.J.&XJ.&X&XZ *X;X-.*.vX3.0.fXiXzX:.;Xx l 9 s.2 4 7 r z x H.Z C O.O.O.O.O.O.O.O.O.O.O.O.&X&XO.O.Z O.O.O.O.&XO.O.O.O.O.O.Z O.O.O.&XO.Z O.O.O.O.O.O.O.Z O.O.O.O.O.O.Z &XO.O.O.O.J.Z J.O.*X#.-.3XzXiX0.8.0.zX3X#.D.v.h.d.a.s.j.v.V.Z.F.H.Z &XZ H.&XJ.O.O.&XO.O.&XO.O.&XZ O.O.O.Z &XO.O.O.O.O.O.O.Z &XO.O.O.O.O.O.O.O.O.O.O.O.O.Z O.O.&XO.O.O.O.&XZ O.O.J.J.Z #.*X5X>.zX0.8.8.0.y.xX4XF.V.w g.2 2 7 x.b.x M O.H.O.O.O.O.O.O.O.O.O.&XO.O.O.O.O.O.Z O.O.O.&XZ O.&XZ &XO.O.Z O.O.",
"&XZ J.O.O.O.O.O.O.O.&XO.O.O.Z &XO.O.O.O.&XO.Z &XJ.O.J.&X*XZ $.5Xr.4.6.0.9.3.y.>.Z x n.4 a.p.g.j.n.z D.H.H.+.H.O.J.O.O.O.O.O.O.O.O.O.O.O.&XO.O.O.O.O.O.O.O.O.O.O.O.O.O.O.O.O.O.O.&XZ O.O.&XO.O.O.&XZ O.O.O.O.O.O.O.O.J.J.O.J.*XO.+.-.6XzXaX8.8.iXpX3X-.H.b.x.4 p.2 4 w B.x D.F.O.&XZ O.&XO.O.Z &XZ O.O.O.O.Z &XO.O.O.O.O.O.O.O.O.O.O.O.O.O.O.O.O.O.O.O.&XO.Z O.O.O.O.O.O.&XO.O.&XO.O.Z O.O.O.J.O.O.O.*X&X4X5Xr.pXhXfXfXpXe.5X&Xz x.j.2 p.s.7 r A.Z.C Z &XJ.O.O.O.O.O.Z O.O.O.O.O.&XO.O.O.&XO.O.O.O.O.O.&XO.&XO.O.O.O.O.O.Z O.Z &XO.O.Z O.O.&XO.O.O.O.O.Z O.Z O.O.J.Z &XO.Z J.*X#.5X3XvXaXhXgXhXpXr.#.M l 7 2 2 3 8 r z z N C Z &X&XZ O.O.O.O.O.O.O.O.O.O.Z O.O.&XZ &XO.O.Z O.O.O.O.O.O.&XO.O.O.Z O.&XO.O.O.O.O.O.O.&X&XZ O.O.O.O.O.O.O.O.O.O.&XZ J.O.;X;X;.3XzX0.hX8.fXzX3X;XF.n.h.s.a.d.k.v.V.A.F.J.Z O.Z J.&XZ O.O.Z O.O.Z &XO.O.O.O.O.O.O.O.O.&XO.O.O.Z O.O.O.O.O.O.O.Z &XO.O.O.O.O.O.O.&X&XZ O.O.O.O.O.O.O.O.O.J.J.Z +.*X5X>.e.5.8.8.0.5.r.:XN l x.4 p.p.4 x.k A.M O.N +.O.O.O.O.O.O.&XZ Z O.O.O.Z &XO.&XO.O.O.O.O.O.O.O.Z O.O.&X&XZ ",
"O.O.O.O.&XO.O.O.O.O.&XZ O.&XZ O.O.O.O.O.O.Z O.O.&XZ Z &X*XO.$.5Xr.y.0.9.8.3.y.>.Z x n.g.2 s.g.8 n.V.D.C N *XZ J.O.J.O.O.O.O.O.O.O.O.O.O.O.O.O.O.&XO.O.O.O.O.O.J.O.O.O.O.O.O.O.O.O.O.O.O.Z O.O.O.O.O.O.O.O.O.O.Z O.&XZ J.O.&X+.O.#.5X>.zX3.fX8.hXaX*.$.H.t w s.4 2 g.x.B.x F.C O.O.J.O.O.O.O.Z O.&XO.&XO.O.&XZ O.O.O.O.O.O.O.O.O.&XZ O.O.Z &XO.O.O.O.O.Z O.O.O.O.&XZ O.&XO.O.O.O.O.O.&XO.O.O.&XZ O.Z +.&X-.>.r.pX2.8.fX6.vX>.&XA.w 8 2 p.g.8 y A.Z.Z J.J.Z &XO.O.O.O.&XO.&XO.O.O.&XO.O.&XO.O.O.O.O.O.O.Z O.&X&XZ O.O.Z O.O.O.O.O.&XZ O.O.Z &XO.O.O.O.O.O.O.O.O.O.&XO.O.*XZ J.*X;X4Xr.vXaXjXfXhXzX3X;XD.l 9 s.4 2 7 r z x F.Z H.Z O.O.O.O.J.O.O.O.O.O.O.Z O.O.O.O.O.&XO.O.O.O.O.O.O.O.O.O.O.O.O.O.O.O.&XZ O.O.O.O.O.O.O.O.O.O.Z &XO.O.&XO.O.&XO.O.Z &X#.*X5X*.zX0.2.fXiXzX6X;XD.n.j.a.a.s.j.v.N.A.H.J.J.&XO.H.&XO.O.O.Z O.O.&XO.O.O.Z O.&XZ O.O.O.O.Z O.O.&XO.O.O.O.&XO.O.O.O.O.O.&XO.O.O.O.O.O.O.O.O.O.&X&XO.&XZ O.J.J.J.#.*X;.3Xe.hX0.hX0.y.r.$.N B.x.7 2 2 4 w t x M O.N +.&XO.Z &X&XO.O.O.O.O.O.O.O.O.&XZ &XO.Z O.O.O.O.O.O.O.O.O.O.O.",
"O.O.O.O.Z O.O.O.O.O.O.O.O.O.O.O.Z &XO.O.O.&XO.O.Z O.J.&X+.&X$.>.r.5.3.8.8.3.e.,.C A.b.j.p.2 s.g.n.z M C N *XC &XJ.J.O.O.O.O.O.O.Z &XO.O.O.&XZ O.Z O.O.O.O.O.O.O.O.O.J.O.O.O.Z &XO.O.O.O.O.O.&XZ O.O.O.O.O.O.O.&XO.&XJ.J.O.O.*XO.*X5X6Xe.aXfX8.3.4.3X4XC t w s.4 p.g.w t A.N F.O.J.J.O.O.&XO.O.&XO.O.O.Z O.O.&XO.Z &XO.O.O.O.O.O.O.O.O.O.O.O.O.O.Z O.O.O.O.O.&XO.O.O.O.O.O.Z &XO.O.O.O.O.O.O.J.J.&XZ *X&X-.6X3XpXiX8.fXiXe.5X&Xz v.g.2 p.s.9 v.x Z.C C O.J.O.O.O.O.O.O.O.Z O.O.O.Z O.O.Z O.O.O.O.&XZ O.O.O.O.O.O.O.O.&XO.Z &XO.O.O.O.O.O.O.O.O.O.Z O.O.O.O.O.&XO.Z O.O.&X&XJ.*X;X4X*.zX3.fXfX2.4.6X#.Z.t h.4 a.4 7 r l Z.F.Z C &XO.O.O.O.O.O.O.O.Z O.O.O.&XO.O.O.O.Z O.O.O.&XO.Z O.O.O.O.O.&XZ O.O.&XO.O.O.O.J.O.O.O.O.O.O.O.O.O.O.O.O.O.O.Z O.&XO.O.*X#.5X*.e.0.jXhXfXzXxX;XZ.y h.g.a.g.k.v.V.Z.H.J.C *XO.J.O.J.O.O.&XO.O.O.Z O.&XO.O.O.&XO.O.O.O.O.&XO.O.O.O.O.O.Z O.O.O.O.Z &XZ O.O.&XO.O.O.O.O.O.O.Z O.O.O.O.O.J.&XJ.;X*X5X*.e.5.0.0.0.y.xX:XF.B.w 7 p.2 7 w y x M O.C O.Z O.O.O.O.O.O.O.O.O.O.O.O.O.O.O.O.O.&XO.O.O.O.&XO.O.O.O.O.O.",
"Z O.O.O.O.O.&XZ O.O.O.O.O.O.O.O.O.O.O.O.O.O.O.O.&X&XZ O.+.+.$.;.t.y.0.8.8.6.e.>.Z A.r 7 2 2 g.k.b.V.D.J.N O.J.Z J.O.O.O.O.O.O.O.O.O.O.O.O.Z O.O.O.O.&XO.O.O.O.O.O.O.O.O.&XO.O.O.O.O.O.O.O.O.O.O.O.O.O.O.O.Z O.O.O.&XO.J.O.J.*XO.#.5X6Xe.aXfX8.3.5.3X:XF.B.x.p.s.p.g.w N.Z.F.F.O.O.J.O.O.O.O.O.O.O.O.O.O.&XO.O.O.O.O.O.O.O.O.O.O.O.O.O.O.O.O.Z O.&XO.O.&XO.&XZ O.O.O.O.O.O.O.Z O.O.O.Z O.O.O.Z &XO.Z *XO.-.;.t.6.3.fXiX6.y.5XO.z v.j.2 p.s.j.y x x H.C &X&XO.O.O.O.O.&XZ O.O.O.O.O.O.O.O.O.O.Z &XO.O.O.O.O.O.O.O.O.O.Z O.O.O.O.O.O.O.O.O.O.O.Z O.&XO.O.O.O.O.&XO.O.&X&XO.+.H.*X;X5X3XzX0.hXhXiXaXxX$.M k x.4 3 4 7 v.k A.N J.H.&XO.O.O.O.&XO.O.Z &XO.O.O.O.O.Z O.O.O.O.O.O.O.O.&XZ &XO.&XZ O.O.O.O.Z &XO.O.O.O.O.Z O.O.O.O.O.O.O.O.O.O.Z J.O.Z &XZ O.+.;X5XxXe.3.2.8.3.e.*.@.x b.h.s.p.p.j.n.V.Z.C Z Z O.&XJ.J.J.O.O.O.O.O.O.O.O.O.O.O.O.O.O.O.O.O.O.O.Z O.O.O.O.O.O.O.&X&XO.O.O.&XZ O.O.O.O.O.O.O.&XO.O.O.O.&XO.O.J.&XZ +.*X;.6Xe.3.8.8.0.5.xX#.N l 9 7 2 2 7 9 t x M O.N +.Z J.O.O.&XO.O.O.O.O.O.O.O.&XO.O.O.O.Z &XO.O.O.O.&XO.O.O.Z &X",
"&XO.O.O.O.O.O.O.O.&XO.O.O.Z &XO.O.O.O.&XO.&XZ O.Z &XJ.O.*XO.$.>.r.5.0.8.8.3.zX6XJ.A.v.g.p.p.k.j.b.k D.K.H.*XJ.&XO.J.O.O.O.O.&XO.O.O.O.&XO.&XO.O.Z O.O.O.&XO.O.O.O.&XZ O.Z O.O.&XO.O.Z &XO.O.O.O.O.O.O.O.O.&XO.O.O.O.J.J.O.&XO.&X*X5X6Xy.3.8.8.3.vXxX#.N B.x.p.4 p.h.w B.Z.D.H.O.J.O.O.O.O.O.O.O.O.O.Z O.Z O.O.O.O.O.O.O.&XZ &XO.O.O.Z &XO.O.&XO.O.O.O.Z O.O.O.O.O.O.O.O.O.O.&XO.&XZ &XO.&XO.J.&XZ Z #.O.$.>.xX3.3.8.gXaXzX;.O.A.w j.s.3 s.j.n.z x J.C O.O.O.O.O.&XZ O.O.O.O.O.O.O.O.O.O.Z O.O.O.O.O.O.O.O.O.O.O.O.O.&XO.O.&XO.O.O.O.Z &XO.O.&XO.O.O.Z &XO.O.Z O.O.O.O.O.&XZ *X;X5X3XzXaXfXhXiXpX:.#.B t 0 7 3 3 4 w l Z.H.J.J.J.O.O.Z &XZ O.O.&XO.O.O.O.O.O.&XO.O.O.O.O.O.O.O.O.O.O.O.O.O.O.O.O.O.O.O.O.O.O.O.O.&XO.O.O.&XZ &XO.O.O.J.&X&XZ O.O.Z O.*X*X5X:.y.0.2.q.0.y.=.@.A.n.8 4 2 p.h.v.V.Z.C Z C &XZ J.J.J.O.&XO.O.Z O.&XO.&XO.O.O.O.O.O.O.Z &XO.&XO.O.O.O.O.O.O.Z Z O.O.&XO.O.O.O.O.O.O.O.O.Z O.O.Z O.O.O.O.J.Z J.#.*X>.=.zXhX8.8.0.y.r.$.B l 9 7 2 3 7 8 y x M &XC &XZ J.O.O.Z O.O.O.O.O.O.O.O.Z O.O.O.O.O.O.O.O.O.O.O.O.&XO.O.O.",
"O.O.O.O.O.O.O.O.Z O.&XO.&XZ O.O.O.O.O.Z O.O.&XO.Z O.J.Z *X&X:X>.r.4.0.8.8.vXe.5XJ.V.v.g.a.p.s.h.r V.D.Z H.+.Z H.&XJ.O.O.Z &X&XZ O.O.O.Z &XO.&XZ &XO.O.Z Z O.Z &XO.O.O.O.O.O.O.O.O.O.O.O.O.O.O.O.Z &XO.&XO.&X&XZ O.O.J.J.O.J.+.O.+.5X6Xy.iX8.8.hX5.3X#.M B.x.p.4 2 7 w t Z.M N O.O.J.O.O.O.O.O.Z O.O.&XO.O.O.O.O.O.Z Z &XO.O.Z O.O.O.&XZ O.O.O.O.O.O.O.O.Z O.O.Z O.O.O.O.Z O.O.O.O.O.O.O.Z O.J.J.&XJ.#.O.4X5XxX4.fX8.hXiXy.4XO.x r 7 2 2 2 j.y x x H.C O.O.O.O.O.O.O.O.O.&XO.O.O.&XZ O.O.&XO.O.O.O.O.O.O.O.O.O.J.O.O.O.O.O.O.O.O.O.O.Z O.O.O.&XO.O.Z O.O.&XZ O.Z Z O.Z &XZ H.*X;X-.3Xe.hX8.iXiXiX3X;XD.l 8 g.s.p.8 r z x N J.C Z O.O.O.Z O.O.O.O.O.O.O.O.O.O.&XZ O.O.J.O.O.O.O.O.O.O.O.O.&XZ O.O.Z O.O.O.Z &XO.O.O.O.&XO.O.O.Z O.O.O.J.&XZ Z O.*XJ.Z +.+.5Xr.y.hX0.0.3.y.3X+.A.v.h.s.2 p.h.r V.D.H.Z C &XZ J.O.J.O.Z O.O.&XO.Z O.Z O.O.O.O.O.O.O.O.O.O.&XO.O.O.O.O.O.O.O.O.O.O.Z O.O.O.O.O.O.O.J.O.O.O.O.&XZ O.O.O.&XJ.J.*X;X;.6XzX0.0.fXhX5.r.$.F.V.9 h.s.p.g.j.b.Z.M J.F.&XJ.J.&XZ O.O.O.O.O.O.O.&XO.O.O.O.Z &XO.O.O.O.O.O.O.Z Z O.O.O.",
"O.O.O.&XZ O.O.&XO.O.O.O.O.O.O.O.&XZ O.O.O.O.O.O.&XO.&XO.*X&X:X6Xr.pX8.8.8.5.e.>.H.A.v.g.a.p.g.k.N.z D.J.F.O.J.J.Z J.O.O.O.O.O.O.&XZ O.O.O.O.O.O.O.O.O.&XO.O.O.O.O.O.O.O.O.&XZ O.O.O.O.O.O.O.O.O.O.O.O.Z O.O.O.O.O.O.&X&XO.J.O.&X#.-.3Xe.aXfXfX3.5.r.:XF.t e 2 4 4 g.e b.Z.M F.&XJ.O.O.O.O.O.O.&XO.O.O.O.O.O.O.O.O.&XO.O.O.&XO.O.O.O.O.O.O.O.&XO.O.Z &XO.&XO.O.&XO.O.Z &X&XO.O.O.O.O.O.O.O.O.&XZ J.Z #.O.4X5XxXaX3.fX8.aXzX>.&XA.r 7 2 2 g.j.n.A.x J.C O.O.O.O.O.O.O.&XZ O.O.Z &XO.O.O.&XO.O.O.O.O.O.&XZ O.O.O.O.O.O.O.O.O.O.&XZ O.O.&XO.O.O.O.O.O.&XO.O.O.O.O.&X&XO.Z &XJ.Z *X#.;.3XzXiXfXhXfXpX3X;XM V.8 7 4 3 7 w k z N Z C J.&XO.O.O.&XO.O.O.O.O.&XZ O.O.O.O.O.O.O.O.O.O.&XZ O.O.&XZ O.O.O.&X&XO.O.O.O.O.O.O.O.O.O.O.Z &XO.O.O.O.J.&XJ.O.O.O.J.J.*X#.>.r.e.2.2.8.3.e.*.+.x y h.s.p.p.h.N.V.M H.Z C &X&XZ O.&XO.O.O.O.O.O.&XO.O.O.O.O.O.O.O.J.O.O.O.Z O.O.O.O.Z O.O.O.O.O.&XO.Z &XO.O.O.O.O.O.O.O.O.O.O.O.O.O.&XH.Z J.;X*X>.>.zXhX8.hX0.y.r.$.N N.9 g.p.p.g.j.b.x M J.H.+.J.Z O.O.O.&XZ O.O.O.O.Z O.O.O.O.O.O.O.O.O.&XZ O.O.&XO.O.O.O.",
"O.O.O.O.O.O.O.Z O.O.O.O.O.O.O.O.O.O.&XO.O.Z O.O.O.O.Z &X*X*X#.6XcX5.8.2.0.3.t.5XJ.A.r g.a.a.g.j.b.C.D.&XC &XZ J.Z O.O.O.O.O.&XO.O.O.O.O.O.O.O.O.O.O.&XZ O.&XO.O.O.O.O.O.O.O.O.O.O.O.O.O.O.O.O.O.O.O.O.O.O.O.O.&XZ J.&XZ &XJ.*XZ +.;.6Xy.aXhXhX0.5.*.$.N l w s.2 2 8 w B.x N F.O.&XZ &X&XZ &XO.&XO.O.O.O.O.O.O.O.O.O.O.O.O.Z &XO.O.&XO.O.Z &XO.O.O.O.O.O.O.O.O.O.O.O.&XO.O.O.O.O.O.O.O.O.O.O.&XZ O.J.*X&X:X5XxXiXhXfXfXiXzX>.O.A.w 8 2 2 s.x.y V.A.Z H.&XO.&X&XO.O.O.Z &XO.&XO.O.Z &XO.O.O.O.O.O.O.Z O.O.O.O.O.Z O.O.O.O.O.O.O.O.O.O.&XO.O.Z O.O.O.O.O.O.O.O.O.O.O.O.O.&XJ.Z *X#.5X3XzXaXfXiXfXpX6X:XF.b.x.4 s.p.g.w V.A.B C J.J.Z O.Z O.O.Z O.O.&XZ O.&XO.O.O.O.O.O.Z O.O.O.O.O.O.O.O.O.O.O.O.O.O.O.O.O.O.O.O.O.O.O.O.O.O.O.&XZ O.O.J.O.J.O.O.O.Z &X#.+.>.:.e.0.8.q.0.e.=.*Xx r h.s.p.s.9 n.z D.C Z H.O.O.J.J.&XO.O.&XZ O.&XZ O.&XO.O.O.O.O.Z &XO.O.O.O.O.O.O.O.&XO.O.O.O.O.O.O.O.O.O.O.O.O.O.O.O.O.O.O.O.O.O.O.O.O.Z J.#.*X5X6Xe.iXfXfXiXy.xX-.F.k w s.s.p.s.x.N.x x &XF.&XJ.&XO.O.O.O.O.O.O.O.O.Z O.O.&XO.&XO.O.O.O.O.O.O.O.O.O.O.O.O.",
"O.O.&XZ O.O.O.&XO.O.O.O.O.O.O.O.O.O.O.O.O.&XO.O.O.&XO.O.O.*X:X>.r.4.0.8.0.5.t.;.H.V.c.k.a.s.d.j.b.A.D.&XC &XJ.O.&XZ O.&XO.O.Z O.O.O.O.O.O.&XO.O.Z &XO.O.O.O.O.O.O.O.O.O.O.O.O.O.O.O.O.O.O.O.O.O.O.O.Z O.O.O.O.O.&X&X&XZ &XJ.+.J.#.5X3XzXhX8.0.3.5.:.$.B t x.4 s.2 4 w b.Z.M N O.J.Z &XO.O.O.O.Z &XZ &XO.O.Z &XZ O.&XO.O.O.O.O.O.O.O.O.O.O.O.&XZ O.O.Z O.O.O.O.O.&XO.Z O.O.O.O.O.O.O.O.&XO.O.J.J.Z Z +.*X$.6XxX3.iXfXfXaXzX5X&Xx r 8 2 a.2 8 n.A.A.C C &XZ Z O.O.&XO.O.O.O.Z O.O.O.O.O.O.O.O.O.&XO.&XO.O.Z &XO.&X&XO.O.O.O.O.&XZ O.O.O.O.O.&X&XZ O.O.O.O.O.O.O.O.&XO.&X&XZ C *X;X4X3XzXaXfXiXfXpX6X:XM B.0 g.2 p.7 w t x F.Z C O.O.O.&XO.O.&XO.O.O.O.O.O.O.O.O.O.O.O.&XO.Z O.O.O.O.O.O.O.O.O.O.O.O.O.O.O.&XZ O.O.J.O.O.O.O.O.O.O.O.O.O.J.&XO.O.&XJ.&X+.#.>.r.e.0.8.8.3.e.:.O.A.v.7 s.p.p.h.b.z D.H.&XH.+.J.H.&XZ O.O.O.O.O.O.O.O.O.O.O.O.&XZ O.O.O.O.O.O.O.O.O.O.O.O.O.O.O.O.O.O.O.O.O.O.O.O.O.O.O.O.O.O.O.Z O.Z O.O.Z J.;X*X6X*.e.aXfXfX3.4.xX:XF.N.x.h.4 p.4 w b.x D.+.C O.Z O.O.O.O.O.O.O.O.O.O.&XO.O.O.Z Z O.O.O.O.O.Z &XO.O.O.O.O.O.",
"&XO.O.O.O.O.O.O.&XO.O.O.O.O.&XO.O.O.O.O.O.O.O.&XJ.O.&X&X&X&X;X6XcX4.8.fX0.iXt.;.F.V.v.s.p.d.g.j.b.V.D.O.C *XJ.O.O.O.Z O.O.O.O.O.O.O.O.Z O.Z O.O.O.O.&XO.O.O.O.O.O.O.Z O.Z O.Z O.O.Z Z O.O.O.O.O.O.O.&X&XO.O.O.O.O.Z &XZ &XJ.*XJ.*X-.6Xe.aXfXhXiX5.3X:XM l w 4 p.p.7 9 b.Z.F.H.O.Z O.O.O.O.O.O.O.Z &XZ O.O.&XO.&XO.Z &XO.Z O.O.O.Z O.O.O.O.O.O.O.O.O.&XO.&XO.O.O.Z O.O.O.O.Z &XO.O.O.O.Z O.O.J.&X&XJ.+.&X$.5XxXaXhXfXhXaXzX5XO.A.w j.s.2 p.w t V.A.Z C &X*XJ.Z &XO.O.O.O.O.O.O.O.O.O.O.O.O.O.O.Z O.&X&XZ O.O.&XO.O.O.O.&XO.O.O.O.&XZ O.Z O.O.O.O.O.O.Z &XZ &XO.O.O.O.Z O.Z J.*X;X$.6XzXaXfXgXfXpXxX4XF.B.8 4 2 3 8 w B.z N Z H.O.O.O.O.O.&XO.&XO.O.O.O.O.O.O.O.O.O.O.O.O.&XO.O.&XO.Z &XO.O.&XO.O.O.O.O.O.O.O.O.O.O.O.O.O.O.O.O.O.O.O.&XZ Z O.&XO.Z O.+.#.>.xXe.8.0.8.0.u.>.O.A.v.h.p.a.2 h.b.V.x H.Z H.+.Z J.&XO.O.&XO.O.O.Z O.&XO.Z O.O.O.O.O.O.O.Z Z Z O.O.O.O.O.Z Z Z O.O.O.O.Z O.O.Z Z O.Z O.O.O.O.O.O.O.O.O.J.Z J.J.;X*X-.6XvXaXfX8.iX4.r.$.F.B.x.g.2 s.s.x.N.Z.D.&XN O.&XO.O.Z Z Z O.O.Z O.O.O.&XO.O.O.&XO.O.O.O.&X&XZ O.O.O.O.O.O.",
"Z O.O.O.&XZ O.O.O.O.O.O.O.O.O.O.O.O.O.O.O.O.J.Z J.O.&XO.*X*X;X6XxX5.0.fX0.aXe.;.N z v.s.p.p.g.x.N.V.F.J.C O.H.O.O.O.&XO.O.O.O.O.O.O.O.&XO.O.O.O.O.O.Z O.O.O.&XZ O.&XO.&X&XO.&XO.O.&XO.&XO.O.O.O.Z O.O.O.O.O.Z O.O.&X&XZ O.H.*XZ ;X-.6Xy.aX8.fX0.5.3X-.M b.w 4 4 2 h.w t x M C O.Z &XO.O.O.Z &XO.O.O.O.O.O.O.O.Z O.O.O.O.&XO.O.O.&XO.O.Z O.O.O.O.O.O.O.O.Z O.O.O.O.O.O.O.O.&XZ O.Z O.O.O.O.O.Z &X&XJ.+.J.$.>.r.pX3.8.fX3.zX6XO.x v.7 4 2 4 x.t A.x Z H.&XO.J.J.&XZ O.O.Z &XO.O.O.&XO.O.&XZ O.O.O.O.O.O.O.O.O.Z O.O.O.O.Z O.O.O.O.O.O.O.&XO.O.O.O.O.O.O.O.O.O.O.O.&XO.&X&XZ C *X#.4X:.zXpXfXgXfXaXxX#.F.B.j.4 p.2 9 w B.x N C H.&XZ &XO.O.O.Z O.O.Z &XO.O.Z &XO.O.O.O.O.O.O.O.O.O.O.&XZ O.O.O.O.O.O.O.&XZ O.O.O.O.O.O.O.O.&XO.Z &XO.O.O.J.O.O.Z &XO.Z +.#.5Xr.zX8.0.0.0.e.:.O.A.v.h.s.p.s.h.y z D.C J.J.O.Z J.&X&XO.Z O.O.&XO.O.O.O.&XO.O.O.O.O.O.O.&X&X&XO.O.O.&XO.&X&X&XO.&XO.O.&XO.O.&XO.&XO.&XO.O.O.O.O.O.O.O.&XZ J.H.*X#.;.3Xe.0.fX0.iX4.xX;XF.B.h.s.2 a.4 x.N.z M J.H.O.Z O.O.&X&X&XO.&XO.&XO.Z Z O.O.O.O.O.O.O.O.O.O.O.O.O.O.O.Z O.",
"O.O.O.&XO.O.O.O.J.Z &XO.&XZ &XJ.O.O.O.O.O.O.O.O.O.O.O.O.+.#.-.,.u.3.9.2.9.6.u.-.F.V.x.s.a.p.a.x.N.A.D.Z C O.J.O.O.O.O.Z &XO.O.O.O.O.&XO.O.Z O.O.O.&XO.O.O.O.O.Z O.O.O.O.O.O.O.O.O.O.O.O.O.O.O.O.&XO.O.&XO.O.O.&X&XJ.&XO.O.Z +.&X+.;.3Xy.3.2.fXiX5.*.;XH.b.x.g.s.s.h.w N.x N F.O.Z Z &XO.Z Z Z O.O.O.O.O.O.O.O.O.O.O.O.Z O.O.O.O.&XO.O.&XO.O.&XO.&XZ Z O.O.&XO.O.O.O.Z O.O.O.O.O.&XO.O.&XO.O.J.J.O.H.+.&X:X5Xr.pXfXfX0.5.e.>.J.x w 8 2 a.3 w y A.Z.J.H.o.Z Z Z O.&XO.O.O.O.O.O.O.Z O.O.&X&XO.O.O.O.Z O.O.O.O.O.O.O.&XO.O.O.O.O.O.Z &XO.O.O.O.O.O.&XZ O.Z O.&XO.O.Z O.J.O.Z J.*X;X-.>.zX5.fXfX2.4.r.$.M B.9 h.2 2 4 r t z F.J.A &XO.O.O.O.O.O.O.O.O.O.O.O.O.O.O.O.O.O.O.O.O.O.O.Z O.O.O.O.O.O.O.O.O.O.&XO.O.Z O.O.O.O.O.O.O.O.O.Z Z &XO.O.O.O.O.O.&XO.+.;X;.*.vX8.2.8.3.e.=.=Xx n.h.s.a.k.x.n.V.D.C &XH.O.O.J.&XZ O.O.O.&XO.O.O.O.Z O.O.Z O.O.O.&XO.O.&XJ.O.O.O.O.O.O.&XJ.O.O.O.O.O.O.O.O.O.O.O.O.O.O.O.O.O.O.&XO.O.O.O.O.%.#.$.*.e.5.8.8.3.4.r.#.F.l w s.p.a.4 c.N.V.M J.J.O.&X&XO.O.O.O.O.O.O.O.&XO.O.O.O.O.O.O.O.O.Z &XO.O.O.O.O.O.O.O.",
"O.O.Z O.O.O.O.O.O.O.O.O.O.O.O.O.O.O.O.O.O.O.O.O.O.O.Z Z &X#.$.;.t.5.0.3.0.5.r.-.H.V.j.k.g.p.g.x.N.z D.Z Z O.J.O.Z O.O.O.O.O.O.O.Z &XO.O.&XO.&XZ O.Z O.O.O.O.O.&XO.O.&XO.&XO.&XO.O.&XO.O.O.O.O.O.O.O.O.O.O.O.&X&XO.Z &XO.&X&X+.&X+.;.>.y.3.8.fX3.aX=.:XH.B.x.g.2 p.8 x.b.Z.F.N &XO.Z &XO.Z &XZ O.O.&XO.O.O.O.O.O.O.&XO.O.O.O.&XO.Z O.O.O.O.O.O.O.O.O.O.O.O.O.O.O.&XO.&XO.O.O.O.O.O.O.O.Z O.O.&XZ O.J.*X&X4X6XxXpXjXfXfXiXe.5XO.A.v.8 2 3 4 5 y l Z.Z C Z Z Z Z O.O.O.O.O.O.O.Z &XO.O.O.Z O.O.O.O.&XO.&XZ O.O.O.O.O.Z O.O.Z &XO.O.O.O.O.O.O.O.O.O.O.O.O.&XO.O.O.O.&XO.O.&XJ.J.*X;X:X*.zX3.fXhXfXaXxX$.M B.9 h.2 a.7 v.k x F.J.C O.O.O.O.&XO.O.O.O.O.O.O.O.O.O.O.O.Z &X&XO.O.Z &XO.O.O.O.O.&XO.O.O.Z &XO.O.O.O.&XZ O.O.O.O.O.O.O.&XO.O.O.O.O.O.O.O.*X+.+.;X;.xXe.8.3.8.iXe.3X&XV.v.7 s.p.s.h.b.V.Z.C &XJ.O.Z J.&XO.O.O.O.Z O.O.O.O.&XO.O.&XO.O.O.Z O.&X&X&XO.&XO.O.O.&X&X&XO.&XO.O.O.&XO.O.&XO.O.&XO.O.O.O.O.O.O.&XO.O.O.O.O.$.;.=.4.3.8.0.2.4.r.#.N t x.7 p.a.h.x.B.A.D.J.J.O.Z O.O.&XO.O.O.&X&X&XO.O.O.O.O.O.O.&X&XO.O.O.O.O.O.O.O.O.O.O.",
"&XO.O.O.O.O.Z O.&X&XO.O.O.O.&XO.O.&XO.O.&X&XO.O.J.O.&XZ *X;X:X>.xX5.8.8.0.5.r.#.N z 9 g.p.2 g.v.N.V.F.Z H.O.J.Z &XO.O.O.O.O.O.O.O.O.&XO.O.O.O.O.O.O.&XO.O.O.Z O.O.o.Z o.Z Z O.V Z O.V O.O.o.Z O.Z Z Z V Z Z Z Z O.&X&XO.&XZ +.Z #.;.=.y.3.fXfXiXpX3X:XH.t w 7 3 3 7 w t x D.N O.O.O.&XO.Z &XJ.J.O.O.O.O.O.O.O.O.O.O.O.&XZ &XZ O.O.O.O.O.O.O.O.O.O.O.O.&XO.O.O.&XO.O.O.O.Z &XO.&XO.O.O.O.O.O.&XZ O.&X+.J.4X5X*.pXhXfXhXiXzX5X&XA.v.9 4 2 4 w y l x V C J.&XJ.&XO.O.O.O.O.O.O.&XZ O.O.O.O.O.O.O.O.O.O.O.O.O.O.Z O.O.O.O.&X&XO.&XZ O.O.O.O.O.O.O.O.O.Z O.O.O.O.O.&X&XO.&XO.J.J.*X;X4X3XzXaXfXhXjXpXxX:XF.B.9 7 2 2 g.w N.x M Z H.O.O.&XO.Z O.O.Z &XO.O.O.O.O.O.O.O.Z &XZ O.O.&X&XO.O.O.Z &XO.O.O.O.O.O.&XO.&XO.O.O.Z &XO.O.O.O.O.O.O.O.O.&XO.&XJ.Z &XO.+.:X-.r.e.fXhXfXaXe.6XO.A.v.g.s.2 p.9 b.A.M Z J.C +.Z H.&XO.O.O.O.O.O.O.Z &XO.O.O.&XO.O.Z O.Z o.Z o.Z Z o.Z Z o.Z o.Z o.Z Z o.Z Z Z Z Z o.Z Z Z Z Z Z Z Z Z O.Z &XO.+.$.$.3X4.5.8.q.3.4.r.$.B t w 4 3 2 4 w z x M Z H.Z O.Z Z o.Z Z o.Z Z Z Z Z Z Z Z Z O.O.O.O.O.O.O.O.Z &XO.O.O.O.",
"Z O.O.&XO.O.&XO.Z Z Z V O.Z Z Z V Z Z Z Z Z Z Z O.O.O.Z @.%.-.=.t.6.9.9.w.6.u.$.N V.j.s.p.p.g.x.N.A.D.Z N O.J.&XO.O.O.O.O.O.O.J.O.O.Z O.O.O.O.O.O.O.O.O.O.O.Z Z O.O.O.O.O.O.O.O.O.O.O.O.O.O.O.O.O.O.O.O.Z Z &XJ.J.Z J.Z &XJ.@.O.+.5X6Xe.5.fXfX3.pX6X$.F.B.w 2 2 p.0 9 t x N N O.O.O.O.&XJ.Z &XZ O.O.Z &XZ &XO.O.O.O.O.O.O.O.O.O.O.O.O.O.O.O.O.O.&XZ O.O.O.O.O.Z Z O.O.O.O.O.O.O.O.Z &XO.O.O.J.J.O.&X+.O.:X>.*.sXiXfXfXaXvX6X&Xx w 8 4 2 4 w t l M C N J.&XJ.O.O.O.&XZ O.O.O.O.O.O.O.O.&XO.O.O.O.O.O.O.O.O.O.&XO.O.O.O.O.Z O.O.O.O.O.O.O.&XZ &XO.O.&XO.O.O.O.O.Z O.O.O.&XZ J.&X;X4X6XzXaXfXgXiXpXxX:XF.B.9 7 4 2 g.9 t z F.J.Z &XO.Z O.O.O.O.O.O.O.O.O.&XO.O.O.O.O.O.O.O.O.O.Z O.O.O.O.O.O.O.O.O.O.O.Z O.O.O.O.O.O.O.&XZ O.O.O.O.O.O.O.Z &XZ &XZ *XO.*X$.5Xr.y.hX3.8.6.zX6XZ A.v.h.2 3 k.j.y V.M H.J.H.O.&XJ.&XO.Z &XO.O.O.O.O.O.O.O.O.Z O.O.O.Z O.O.O.O.O.O.O.O.O.O.O.O.O.O.O.O.O.&X&Xo.O.O.O.&XO.O.O.Z O.Z J.J.O.O.&XO.+.:X4X3X4.5.fX0.hX4.r.#.F.B.x.g.2 4 4 w k z M C Z O.O.Z O.O.O.O.&X&XO.o.O.O.Z O.O.O.O.&XZ O.O.Z &XO.O.O.O.O.O.O.",
"@.O.O.O.Z O.O.O.O.O.&X&X&XO.O.O.Z Z O.&XO.J.J.J.Z O.J.J.*X#.-.>.e.4.q.9.q.6.:.%.N k x.s.d.a.s.w l x M J.H.&XH.Z O.O.O.Z O.&XO.O.O.O.O.O.&XZ O.O.O.O.O.&XO.O.O.*X&XJ.J.=XZ J.&XJ.J.J.&X&X&X&X&X&XO.=X&XJ.&X&X&Xo.&XZ Z &X&XH.;XJ.;X5X6XzX5.8.8.fX6.:.#.N k x.s.4 2 g.x.b.Z.M F.J.O.O.+.+.J.J.Z J.O.O.O.O.O.O.O.&XO.O.O.O.O.O.&XO.O.Z &X&XO.O.O.O.O.O.O.O.O.&XO.O.J.&XO.O.O.&XZ &X&XO.O.O.O.O.O.O.&XJ.+.J.-.5X3Xy.hXfX8.3.zX6X&Xx y 0 4 3 4 9 r V.Z.J.H.Z Z J.Z H.&XO.Z &XO.Z O.O.O.O.&XZ Z &XZ J.O.O.Z J.Z &XO.O.&XO.O.O.O.&X&XO.&XJ.O.O.O.O.O.O.O.O.O.O.O.O.O.O.&XO.Z &X&XZ +.;X$.:.y.3.fX0.0.aXxX:XN z e 4 4 3 s.w l z B J.H.O.O.O.O.O.O.&XZ J.O.&X&XO.O.O.O.O.O.&XZ &XZ &X&XO.Z O.O.&XO.O.&XO.O.O.O.&XO.O.O.O.O.O.O.O.O.O.O.O.&X&XO.O.O.O.J.J.+.&XO.5X;.r.y.9.8.fX3.t.>.J.A.v.s.4 p.s.w t A.x H.J.H.+.Z J.O.O.J.J.J.Z J.&XO.O.O.O.O.O.O.J.J.&X&X&X&X&X&X&X&XO.&X&XO.O.J.&X&X&X&XJ.&X=XZ &X&X&X&X&X&X&X&X&X&X&XO.O.O.=X+.#.-.r.4.3.8.hX6.4.cX#.D.B.x.4 2 2 4 w t x Z.&XH.&X&XJ.J.J.J.=X=XJ.&XJ.J.J.J.J.J.&XO.O.&XO.&XO.O.Z O.O.O.O.O.O.",
"Z Z O.O.Z O.Z Z J.&XJ.J.=XJ.J.J.=X=X&XJ.&X=XJ.J.J.O.=X&X*X$.;.>.y.6.9.q.6.5.r.$.B l 0 8 2 2 j.r y x M Z C &X*XO.&X&X&XO.&X&X&X&X&X&X&X&X&XJ.Z O.J.J.J.J.J.J.J.J.O.O.&X&XO.O.O.O.&XZ *XO.O.&XZ Z O.Z J.&XJ.J.&XO.Z &X&XJ.Z H.-X&X#.;.:.y.0.0.9.0.5.:.%.C k w 7 5 2 7 e t x N N O.Z &XJ.H.Z &X+.&X&XJ.Z Z J.J.Z Z J.O.&XJ.J.J.Z Z Z &XJ.Z O.&XJ.J.&XO.J.J.O.&XZ J.&XO.O.J.O.Z O.O.J.&XO.O.O.O.J.J.Z Z +.Z %.>.3X4.hX8.fXaXzX>.+.x r 8 2 3 4 7 y l x Z N +.Z V Z *XZ O.&X&X&X&X&XJ.O.O.O.O.O.&XO.O.Z O.&XO.&XO.&X&XJ.Z O.O.O.Z &XJ.&X&XJ.O.&X&X&XO.O.J.&XJ.O.J.J.J.&XZ Z +.Z Z *X#.$.=.t.5.0.0.0.aXr.$.A z 0 4 4 3 4 r k z N Z M &XZ &XO.O.O.Z &XZ Z &XO.J.J.J.O.O.O.O.&X&X&XO.O.Z &XJ.O.Z Z O.J.Z Z O.O.O.O.O.O.O.J.&X&XO.Z &XJ.J.Z Z &XJ.Z &XJ.J.*X&X*X%.-.t.4.0.8.3.3.e.=.V z r x.4 2 2 w n.A.Z.C J.H.O.J.Z O.O.O.O.O.&XO.Z O.&X&X&XO.J.Z &XJ.Z J.J.&XO.O.O.O.O.J.&XO.O.J.&XJ.Z Z *XO.&XO.O.O.O.J.J.&XJ.J.J.J.J.Z O.O.J.+.#.$.=.y.3.9.q.2.y.r.%.F.k 9 s.p.d.g.x.b.x Z.&XJ.O.O.O.Z Z Z Z Z Z Z O.O.O.Z &XO.V O.O.O.Z Z Z Z Z O.Z Z O.Z O.",
"V V o.V o.o.o.o.V V o.o.o.o.O.o.o.o.o.o. .o.o.o.V o.o. .X.X.X.=.u.w.w.q.w.7.u.%.A k e 7 5 3 5 e k c v V A o.o.V V V o.o.o.O.o.o.V V V V V V o.O.O.Z o.O.o.O.Z Z o.O.O.O.O.o.O.O.O.O.O.V Z O.Z Z o.&XJ.Z O.Z Z O.&XJ.O.O.+.Z @.+.+.;.=.y.3.8.q.3.5.>.$.B t e 4 5 3 0 0 t x N B V O.C Z +.Z Z O.J.O.O.O.O.&XO.&XO.O.O.O.O.O.O.&XO.&XZ O.&XZ J.J.&XO.O.&X&XO.O.&XZ Z J.&X&X&XO.&XJ.J.J.J.Z &X&XJ.J.&X&X+.O.-.;.u.y.8.8.hXiXe.>.+.B w 0 4 3 5 q u l x C C V Z Z Z Z o.Z V Z o.Z Z &XO.O.Z Z O.O.&X&XO.&X&XZ Z &X&XZ J.J.O.&XO.Z J.Z H.J.J.J.Z Z Z J.&XJ.J.&XJ.J.J.J.O.O.O.O.o.C +.#.-.:.e.5.2.8.q.6.r.-.N l e 4 2 3 8 r l c N Z C &XZ Z O.&X&XO.O.O.J.J.J.J.&XJ.J.Z J.O.Z Z J.Z &XJ.&XO.O.&X&X&X&XO.&XO.O.O.O.O.O.O.O.O.O.O.O.O.O.O.&X&X&X&XO.O.Z J.O.+.+.$.-.r.y.0.9.0.3.u.>.O.x r 5 4 4 4 8 y V.Z.H.Z C +.J.Z O.Z O.O.O.Z J.&XO.V Z V o.O.o.V Z &XO.O.O.o.O.O.o.O.O.V O.O.O.O.O.o.Z O.Z Z o.O.o.O.O.o.o.O.Z O.Z o.O.O.o.V #.%.-.u.7.6.9.q.q.4.,.%.B k e 0 5 3 5 e t c v o.m o. . .o. .o. . . .o.n o. .n n V V V V  .V O.o.o.o.o.o.o.V o.o.",
"O.o.Z V Z O.O.+.n b b  .b n | | b b  . . .n b n n  .n b @.%.,.u.7.7.w.w.7.7.,.-.B t e 5 3 3 9 e t z C C N @.V O.O.O.O.O.o.O.O.O.O.Z Z Z Z Z C V o.V V V o.V Z o.Z O.o.Z O.Z V O.V Z V Z O.o.o.O.o.o.o.o.V Z K.J.J.J.&XJ.J.J.+.@.X.;.r.y.3.q.q.3.5.>.%.B z e 8 5 5 7 0 t x F.F.&XJ.J.&X&XH.J.&XJ.&X&X=XJ.J.J.J.J.=XZ J.J.&X&X&X&XZ =X*XZ &X&X&XJ.J.J.J.J.J.J.J.J.J.J.J.J.&XZ K.&X&X&X&XJ.&X&XJ.J.J.J.*X+.-.>.xXy.0.fXhXaXvX>.@.x n.9 5 5 4 e y z x Z A &XZ Z Z O.K.Z J.&X=X=XJ.J.J.J.J.=X&XJ.J.J.Z J.J.Z K.J.J.&X&X&X&X&X&X=X&X&X*X&X&X&X&X=X&X&X&X&X&X&X&X&X&X&X&X&XZ &XJ.J.+.#.-.:.e.q.8.0.8.y.u.$.N l w 4 4 3 4 r b.V.M Z C C Z J.J.&X&X&X&XJ.&X&X&X&XJ.J.J.=XO.&X&X&X*XO.O.Z &XZ &X&X&XJ.J.J.Z O.O.Z O.O.O.O.&X&X&X&X&XO.&X&XJ.J.J.J.&X&XJ.J.*XZ +.>X5XxXpX3.8.hXiXr.>.C z v.8 2 3 4 w y z D.H.&XH.O.=XJ.=X&X&X=XJ.J.J.J.*XZ J.&X&XO.J.-XZ V O.o.O.o.O.o.O.O.O.O.o.O.O.o.Z o.Z o.Z o.J.o.O.O.o.O.O.O.o.V o.O.V @.O.V %.%.-.r.y.5.9.w.2.u.:.%.B k e 0 5 5 q e c x c b v o.o.V o.o.o. . .V o. .V V V V o.o.o.Z V V o.V Z V Z V O.V V Z ",
"[ ] | b g ] ] ] | | | ] ] g ] ] g h g h g S g g ] ] ] [ [ { } } i.1.w.w.7.7.u.] B c e q 6 6 6 q u c j v A  . .m | | | | | b b b | n |  .|  .|  .n n  .n V n V V n V n n o.V V o.V o.V o.V V Z o.Z Z Z V Z n n  .V o.o. .S V O.#.$.&.r.u.7.9.w.q.7.>.-.A l y 5 5 5 e e u c v v m o.m m n V V V V o.o.o.o.o.V V n o.o.o.o.V n n o.V m V o.o.V o.o.o.o.o.V o.o.o.o.o.o.o.n n n V  .n n  . .n n n  . . .S @.%.>.u.u.0.9.9.q.y.,.o.x t 0 5 3 5 0 u u v v V A V o.V o.V o.o.m S m o. .V V n o.V o.o.o.o.o. . . . .n n  . .n n S S V n  .| n b b n n n n n  .n  .n  . . .b  .o.V n %.X.X.r.u.7.q.q.w.y.r.#.N A.w 5 5 3 0 e u x B A A V Z V Z V V V V V  . .n n  .n n  .V o.V o.V o.o.o.o.o.o.o.V V V V O.O.O.@.O.O.o.O.o.o.o.o.o.V o.V o.V o.o.V o.V o.O.O.#.%.>.u.y.2.0.q.6.u.>.O.x e 8 8 2 3 0 t x B v o.V m @. .n  . .n b  .n S V o.o.V o.o.o. . .o. . .V  . .o. . . .o.o. . .n o.o.n V n V S V V n V n n V o.o.V n V o.o.o.@.X.=.u.7.7.w.w.7.u.r.%.v u e q 6 6 q u u c v b m |  .b | | b b b ] b m | | b | b h g b | ] g ] ] | | b b | b | ",
"` d ` ` ` s _ _ ` ` _ _ ` a a ) _ _ s d ` _ ` _ _ ! _ ) ~ { } <.<.1.1.1.i.7.,.| B k e 0 6 q q 1 i j j j f f d ] [ ] h h h g g h h g h g ] ] ] h g g b g g h g g | g g b ] b ] g g | | b b n n n  .S  .o.n n V m n  . .O.C  .S X.X.{ u.7.7.w.w.w.7.>.%.A z e 6 5 6 q q u c B M J.J.C J.O.Z Z @.O.O.V Z Z Z O.Z Z V Z &XO.O.Z V Z Z &X&XO.O.&XZ &XZ O.O.O.O.O.O.V O.O.o.O.O.o.o.O.o.O.O.o.Z V V Z Z +.@.@.X.,.u.u.2.w.w.7.u.=.@.B t q q 6 6 q u i c v v n n o.V o.V  .o.V V  . . . .| n b n b n  .S V V Z O.Z o.o.V V O.O.V Z o.O.O.O.O.o.Z V O.O.o.O.o.O.O.O.O.o.O.O.O.O.o.O.@.%.:.,.u.7.w.q.w.7.=.%.B A.e e 5 6 q u i c v m b m  .| | | | |  .| V V Z Z Z Z Z Z Z o.V O.C O.O.O.O.O.J.O.Z Z &X&Xn V n V V V o.n O.Z Z Z Z Z Z Z &X&X&X&XJ.J.Z J.V @.%.%.>.u.6.w.w.q.w.u.,.@.x u 5 6 5 5 q u z Z.B J.J.Z &X&XC O.O.o.O.O.o.O.o.O.o.o. . . . . .| | ] g b g g b b ] g b g b g b | | | | n  .S b S g b b b b g | | g b ] ..[ { } i.1.7.w.w.w.u.,.-.C k e q 6 6 q 1 D p j f f _ ` ` _ _ ) a s _ s s ` s _ ` _ d a d f d [ ` d s d ` d d d d ",
": : Q Q Q Q Q ; W W ; : W ; ; W Q ; W ; ; W W W R ~ E W Y Y T T ( ( 1.1.1.} ,. .m c u q 6 1 1 1 i , < , ! : a s s _ _ ` _ _ d _ s s f s s _ ` s s s s d f s f f d d h d h d [ h d h h [ [ ` _ ` s ` ` a d d d h d ` [ d [ [ h [ { } i.1.7.w.w.7.u.,.X.m k u q 6 6 q q u p j j h g g ] ] g h h [ g h [ h ] [ h h S h g ] ] ] ] ] g g h ..] S h ] g ] h [ ] h [ [ ` [ g ] | g ] S ] ] h h ] h g g ` ] [ &.&.} u.i.w.w.w.7.u.,.@.x u u q 6 6 6 i i j f h f f ` d ` d d d ` [ d d h h h [ ] [ ] ] ] ] ] [ ` [ [ [ g h h ] g g g S h g ] | ] h h g ] ] g S g h g ] h ] [ g [ ] h [ &.{ i.i.w.w.w.w.u.,.%.m c e q 6 6 6 u i p j g g h h h ] ] ] ] ] g h h h h h h g h h g g g g S [ h ] g g g g b g | b b b b b S b b b ] | | | g S b | b | | | | | | b  .[ X.,.i.7.w.w.2.5.r.;.@.z u 0 5 6 6 q u p j v g g m g | b h ] ] ..] [ [ [ ` ` d ` ` ` a d [ [ ` d [ h d d h h [ d [ h d h d ` [ ` ` ` ` ` ` d [ d [ [ d ` [ d ` { _ ' } } i.1.1.1.w.7.i.,.X.A z u q 6 1 1   < @ , > , W W Q ; Q W ! W : ; ; > ; ; ; ; > : > ! : : : ! ! : ; W W W W ",
"P P P % $ I U U P L U L L $ L P # # $ $ $ # L P & L I U Y Y Y T ( ( ( 1.i.,.&.b v c u 1 1 1 1 @ @ * * , R - - R I I % = = = R = = = ; % R R R - = = = ; W : ; W ; = : ; : : : > : : ! : : a : : a s s s a d a a d ` ) ` ) ' ) ) { } <.( 1.1.1.7.i.,.X.A c u e 6 6 1 1 D D j j f s d d d d [ ` h [ [ ` [ h ` d d h d h d d ` ` S d h h d h ` [ h ` d [ ` d [ ` [ ` ` a d ` ` ` a ` ` ` s _ _ s _ ) ) ) { ^ } <.i.1.1.w.7.u.,.@.v c u q q 1 1 D D < , , f s a _ _ a s ` ) a d d s ` ` s s a s a ) a a d a s s s ` ) a s ` a s _ _ s _ ) ` _ _ d a _ ` ` _ ` ` ` ` ` ` d ` _ _ ^ { } <.<.1.1.w.7.u.u.X.A c u q q 6 1 1 D p p a f f ) ` s a s a s s a f s d s d d d d d h d [ d [ d h [ h [ ] h h h | ] | | ] | ] | ] h h ] h ] ] h h h h h g h h ] | { X.{ } i.i.w.1.w.7.,.,. .x y 0 q 6 q i i p j j d d d d { d ' ` ` ` ` ) ) ' ` ' ) ) ! ) ) ) ) ~ ! W W W ; W Q W W W ; Q ! ; Q : ; Q : Q : Q ! : ; : ; W ! ! Q Q W ~ E ^ Y / T 1.( 1.1.1.,.&...m c c i 1 1 1 @ @ @ & & & P L P $ $ U P P L % $ # L % $ $ # $ % $ $ $ P % P P P I $ I I ",
". H H o F G F J F F F H F o . . F . . . F . F . o G F F K K K K T T ( ( <.} { m n c p i i D   @ @ + * + O $ o $ o o # o # L o o o o # # # # # # $ # $ $ P $ L # $ # $ # $ # $ % $ % = % % = = = - = = - ; - ; = ; = W W % E E E / Y T ( ( 1.1.1.u.,.X.n c c u 1 1 1     @ , , - > > > > > Q Q Q ! ! > E > Q > Q : : Q > : ! : : ! : : ! : ! ! a Q a ! ~ : ! ! Q W ; Q W ; ; W W W ; W ; R W ; ; Q W E Y ^ T ( ( ( 1.1.i.u.,. .v c u i 1 1   @ @ * * * = R = = E % ; ; W = = = ; = R R R = = R = = = = = ; W W ; ; ; ; : W ; ; ; W W W ; ; W Q ; ; ; > Q ; ; > Q W ; = W W E E ^ / T ( ( 1.1.i.<.&.X.m c u q 1 1 1   @ * * - - % R R R R R R = = > = = : ; ; : ; > ! : > > : : : a a : ! : _ ! a > : Q Q : : > ; _ ) ) a s s : s s _ s : s s _ ! s ) { } / <.1.1.w.1.1.i.,.] j u u 1 6 1   D < , , - : > Q ~ ~ ; Q Q ~ Q W ~ W U ~ E W I E U I P I U L L $ $ $ P H E $ R o R H R P P = P L P P $ P $ L % L L P U P P U L Y Y T Y ( ( 1.<.i.} X.%.m c c p 1 1 @ @ @ + + o H H . H . . F . . . . X X o F X o . O X . . H . H H G H o H F . ",
"F F . H H H F G H H H G o H H F . . H F . . . F . J . . J K K T Y T T / { } X.m n v c i D     @ @ + + O O O . O o H H o o H o o # o o o H o o O O o O O O o o o O # o & o o & o o o o # o o o o o o o o o # O # # L . # # L U U Y Y T T ( ( T 1.} &...b c i i i 1 1   @ @ @ * & $ & $ $ = $ = R H - R R R = = $ $ = P % $ P % % % % I % % I P $ I $ I Y % P P P E P R E P P P P P $ % I P P # $ L P U U Y Y T T ( 1.1.i.} &...v c u i 1 1 @   @ * & & o . # # # # o o # o # # o $ # # % $ $ % # P R = o $ $ # $ $ $ $ # # P $ $ P # = o o = = o o P R H P P P P P = $ E R H U U K T ( ( ( 1.i.i.,.X.m v c u i 1     @ + @ - # $ % $ % $ $ $ $ $ & $ $ O & $ % & % % % % % % = % = & = R - W R % R R W I = R W R = = = R R = ; = = = = = = R R E % E Y Y T T ( 1.1.1.i.,.%.o.c c u q 1 1     < * * & I & $ I P % P P L U L P U L H L L L J J L H L L L # # O # F o F o O o o o J o o o o # H # . # # # # # # # # o H H H J Y K T T ( ( T <.} X.X.n v c p p D @ < @ + O X . F . F F H H H F H o H . F . . H H o o X o H X X F o o G F F F ",
". J o . F F F H F H H o o o H H H . . o . L H H F H H o J J G Y Y / / { { ,.@.V o.v c c p < @ @ * + + O X X G G . . . . . o . o . . . H F . X o X X X X o . . . X . . X . . . X X X X X F . . X X o . # . X O . . . . . . J G G K K K T T ( T <.} X.| n v c c i     @ @ + + O o O O o o o o . o o o o H F o o F H o H O . H o . H . . L . H H H L . . F L H L H F . o H H H o . H F H H . H H . J J J J K K K T ( T <.} } X.| m v p p D   @ @ + * + X O O F X X . . . . . F H X . G G F . . . . . X X o . o L . # . . . . . H o . . H o o . . . o o o o o o F o F o F F o H J J K T T T ( ( / ,.,.[ v v c i D D   @ @ + + X F . . . . F F F . . O o X O O o o o H . o o o O # # # o o o O # o # # # L L # # $ # # . # L H o o o # o # # # # L L $ L Y K T K T ( ( <.i.,.X.o.m c c i     @ @ * O & # L . H H F # . F U L H J H J G G F G G G G G G G G G G X G X . X X X . F G X F F F . G X G F G . X X X G X G G G G G G K K K T T T <.} } ..X.n v v c p < < @ * O X X F F F F F . H H H o o H o F . o X X X o G F . . . H G F . . F . ",
"o O o P L L # L L I L I P P I P # $ I I $ $ L I I P E P E ^ U ^ ^ ^ } { { X.g Z O.Z c v j p j * * - & O $ $ H . o o o o H H H H H o o o L o o o o o o o o o F H . o o . o o X o O o o o o o o X X o X . . O X X X H . . . G J G K Y Y T K <.} ,.,...X.m B c p p D   @ + * + + X o X . . . . G G G F F F F F . F X . G X X . . . F F F . . F G . G F F X . . . F . G F F F F F G G . G . . G F F F F G J K K T T T ( Y } &.X.o.A v c c D < @ @ * * O o . X . . . . . . . . . . o . . o o . . . H F H . . F . X X . F F F F . F F G . G F F G . G . . . . . F . F F . F G G G K K G K K T T <.} } &...m v c c p i , @ @ $ * O o o G . . H o H o o . . . X . . . X . X . X X X X . . . F F X . H . G X . . F F X X F F F F F F F . o . . o . X H F o J K K K T T ( T / } &.&.[ v c p D 1 @ @ @ + O . . F G G G G F G G G G G G G G H H H F J J H H H J F F H H . F o o o o o F o o H o o F o o o o o H F H F H F F L H H o J K K Y T T / } { &. . .O.B v c v < , , * - - O o % I P P P # P P # % # % P $ E $ % # o $ L P L P H H L H H o P ",
"= - = = ; ; > a : : : : : ! ! ! a a : : s : a : ! Q ! ) ; ! { ! ' { X.%.+.*X2XH.Z L.G.B B v j j , , - = & = ; Q W R = R I % % % % % $ = % P % & - % & $ $ o $ P $ L P P o # P o H $ o o o # H o L L . . o o o o . . F . X L J U J U Y U ( Y { } { +. .O.A B p p p @ @ * * O + o o o X . X . . F H H . o . F o o H o F o o H F . . . H H . G G X X H H X F F F H H o H o F . . F . H o H o o H H o F F H J K Y Y / / ,.{ X...V n v B c j < < , - O + O $ H o # o o o o o o . H H o o o H # . o # o X o o . o H o . o H o . . X o o . . o X . . o F . . . F . . . . . H H . F F J Y Y T T Y } } &.X.b V v v p p j @ < * + & O o O o o o . o H o o o o o o . X X O o O O . H . H F X X . . X F G X . . X . H H . o F . . . o F o o . o o . . o . F . G G K K K T T / } } { ..V C v c p p < * @ + O O X . H H . F H H F F H L H H H L L J H H H L P H L P P # L $ P P H E $ # o P P H $ # P P H P # P # o # L P L L # P L U U E Y E U { } [ %.+.-X&XJ.F.C F.j v j j f , > > > : ; W Q ; ; Q : : > ; : Q : R > : ~ Q ; ; ! W ~ R I I I $ % % ",
", a f s d d f f g g g ] | | ] | h ] ] ] g g g ] ] | ..| | ..| ..@.%.#.%.*X=X-XP.U.P.J.C v A v m h f h h f : ! > ! : : : : : ! ! Q : : : Q : ! ; > > : > : > Q > ; ; ; : W ; ; = ; = = = W % W - - = = = % % % R % W % ; % P E E U Y ^ ~ ^ { { X.X.o.@.O.A B A v j j j , , - & - = $ P = o E P o H P $ O o R P & # % P % o o o o o H L H # H o # O H P # L $ P P o R R H R P P R P $ $ R % R R P R E E U E Y U ^ / ^ { X.X.@.O.V B v v v j j , , > > - = R - R = R % = = = = = % = = P R % % % $ = R % % % % % I $ = P R P R P = P R % P R R P = P R P E H R $ E $ % P P $ % U I U Y ^ ^ { { { X...O.o.m B v v j j , * < = = - R R P = R = R = $ $ % = & % % % $ $ # $ P # $ L L O # H o & . H X o $ # # P # o O $ L P H # P H H o H o o o o # L H U J U Y Y Y / } } { X...b v v c p p j , * - - & % P P I P I I P $ I E I I E = W U I E E W W W Q W = ; W ; W ; ; = = = W W = - Q = = = ; Q W W ; W W W W W W ; ; R W ; ! ^ ' { { { X.X.X.#.O.*XK.J.H.J.F.m v v g h g h h ] ] ] ] ] ] ] [ h g g ] [ h ] g f ` ` d s _ _ ' ' ' _ ! ! ! : ",
"h g m m v B H.L.H.L.P.,X,X=X,XP.<X<XI.I.<X<X,X,XP.P.,X,X,X,XP.0XqXqXqXrX8XwXeXHX8XeXwXW.!.U.U.H.H.H.o.| | b ] | b | b | | | | | | | | | | | | ] g g g g g g h h g h h ] [ ] [ h h d d [ ` ' _ s s s s s a : : s a : : : a ! ! ! _ ) { { ....$.#.-X,X<X<XU.G.G.H.v v j j , > : > = = Q R ; Q = = ; R ; ; = W = = ; = R = ; E W I R E I R % I I - % R R - % ; R W > ; Q > Q : : ! Q ! Q Q : : ! ! : ! : ! ) ' ' { { X.X.#.>XP.,X<XP.L.M B B v h f f f s : _ a s : : s : s : s : : : ! ! : ! ! : ! W : ! : : : : W : ; : ; ; Q ; W : W Q ; ; ; ; ; Q > Q > ; > Q > Q ; W W ; ~ ~ ! W ) ' ' { X.%.#.-X,X,XU.L.F.M v v g j f s > ! > ! : Q ! ! ! : : : : : ; > ! : ; W Q R E I I I & % I P P & # U = & & - - = R = % I I I = P % P R % = % = = = P P P $ E P ^ ^ ^ } { { X.#.*X=XL.G.B v v j , , , , > ; W = ; : W W Q ! ! ! ~ ) _ : ! ) ) _ _ _ _ _ ' [ d [ [ ' ` h f h [ [ h d h [ d d [ h ` [ ` d h ` h ` ` h h h h ] [ h [ [ ] ..@.o.-X1X<X<X9X9X!././.Q.!.U.U.L.L.H.Z H.Z J.&XZ Z J.K.J.J.J.J.J.K.=XK.&XJ.P.;X*XZ +.%...X.] { [ { [ ` [ ",
"v x B D.Y.Y.!./.!.E.^.^.^.~.^.^.8X^.eX8XeXR.eXR.eXeXeXrXeXeXeXE.rX8X8XHXHXJXPXHXOXeXOX8X^.^.rXqX0X<X1X,XP.P.K.,XP.,X<XI.,X,X,X,X,XK.P.K.,X=X,XK.K.K.K.K.K.=X=X=XK.K.J.J.J.&X&X&XO.O.Z V o.o.o.o.o. .b  .n n n | n b | b | | ..|  . .@.*X;X+.@.-X,X,X<X1XU.P.G.L.F.N m m m | m h h d h d h [ h ] h [ ] h ] ` [ h h [ ' h ` ' ' ' _ ! ~ ~ ! Q Q > : > > j s d [ h h h h h ] ] h ] g ] ] g h g [ ] ] ] h | .... .@.#.+.*X-X=X<XP.P.U.U.U.L.G.C N V A A n n n b b  .b b n b b | | | b | | g g g ] | ] ] g b ] ] ] g ] ] g ] ] ] g h [ ] h h h ] g ] [ [ [ h [ h ] [ ] h [ ] | ] ] ] ....X.@.@.+.-X-X,XP.<XU.P.K.F.A B B A m b b | m | | b g b b n | b b g b b ] g h ] [ [ ' ` ' ) ! ! W W : : ; Q , : , : a : : _ h d _ ` _ s s s _ _ _ _ ! ! _ ! _ ) ` ! _ ' [ { { X...@.O.-X=XK.H.C C A v v v g h f h [ [ h h h ] ] ] b ..| |  .n o. .o.o.V O.O.O.O.O.&XO.Z Z O.O.Z Z Z Z O.O.J.J.O.Z Z Z &X&X&XZ O.O.J.&X&XJ.J.J.J.&X=X=XK.=X=X,X,X1X1X<XW.rXwXwXE.^.^.~.~.^.E.W.!.!.!.!.!.Q.!.qX!.!.!.W.W.W.~.~.W.qX~.qXW.!.tXqXqX1X2X>X%.X.X. ...| | ] ",
"G.Y.S.Y.T.T.$X$X#X#X#X#X'.'.MXBX@X@X@XKXKX@X@X@XMXMXMXMX@X'.'.].MXMXMXNXMXMXMXNXNX'.MXMXMXMXJXJXJXJXHXPXPX8X8XeX8XwXwXwX~.wXwXwX~.wXwXwXW.wX9X~.W.W.W.W.!.W.W.wX9X9XqXW.9XqXqXqX0XqX0X0X1X0X<X0X1X0X<X,X,X,X,XP.=X,XP.,X,X,X,X,X=XP.,X<XQ.qXrXwX~.wXeXeXwXE.~.E.W.!.!.U.,X,X=XJ.J.J.J.J.=XJ.J.O.O.&X&X&XO.O.J.Z O.+.o.@...X...] X.[ [ ` [ ` f f j f h c A B C Z J.K.J.K.K.=X=X=X=X=X=X=X=XJ.=X=XK.=X=X=X=X=X1X,X<X0X0X~.eXwX^.^.^.~.E.~.W.!.!.U.U.<X<XP.P.I.,XP.,X,X=XP.,X=XP.=X,X=X,X,X,X=X=X=XK.=X=X=X=X=X=XK.=X=X=X=X=X=XK.=X=X=XK.K.=XK.=XO.J.=X=XJ.=XJ.J.J.=XJ.J.K.=X=X=XK.L.<XqXqXqXrXqX9XwX~.^.~.wX~.!./.Q.U.U.U.P.K.P.P.P.K.K.,X<XK.P.,XP.U.<X,X,XP.=X=X&X#.&X;X@.X...X.' ' _ ` f d f j b v m b m n V A @.o.V o.o.o.o. .o.o. . .n n n  ... .@. .@.O.+.-X2X<X0X2XqX!.qX!.Y.Q.Q.U.U.L.K.H.H.J.Z H.F.=XK.H.P.P.P.I.I.I.<X0XQ.<X0X0X0X0XQ.<XQ.0XQ.0XqXqXQ.!.!.!.qX!.!.!.0XQ.Q.qX0XQ.0XqX0X0XQ.Q.!.qXQ.!.!.!.W.W.W.~.~.^.~.^.HX8X+XOXoXoX@XGX@X@X@XGXoXoXoXoX+X+X+X#XoXJX+X@X@X@X'.oX@X@X'.GXKXKXGXJXJXGXPXPXHXIXPXtXyX7X2X1X>X*XC *X",
"Y.S.T.T.%X%X%X{.{.{..X X`.}.mXmXmXmXmXSXmXmXmXSXNXmX].mXmX`.SXNXSXSXSXSXDXZXZXSXSXZXBXBXBXmXBXBXNXMXMXLXLXMXKXGXGXMXGXMXGXKXKXGXGXGXJXJXGXJXJXoX@X@XoX@X@XoXoX@XGXGX@XoXGXMXGXGXJXJXGXJXJXPXHXJXHXHXeXHXHXeXeXeX^.^.^.wXwXeXeX^.eX8XeX8XOXHXJXJXGXJXJXGXJXoX+XOXHXR.R.~.~.eXwXwXwXwXwXqXqX0XQ.0XQ.Q.Q.!.qXqXW.W.0XqXqXrX0XqX2X2X;X:X#.@. . .n A B M Y.U.G.Y./.W./.~.~.^.~.wX^.~.R.eXeXeXeX8X8XwXeXwXwX~.wXwXeXwX8XHXPXOXJXPXJX+X#XoX+XoXOXOX^.OXE.~.~.wXeXeXeXeX^.R.eX^.^.^.^.^.eX^.eXeXeX^.eX~.eXwXeX^.~.~.~.wX~.~.wX^.^.eX~.~.~.~.~.eX~.~.~.wXwX9XwXwXwXwXwXwX9X~.^.~.wXwX~.~.eXeXrXrX8XHXJXPXPXoX+XJXJX+X+XOXOXR.^.^.^.^.eX^.^.OXHX^.^.OX^.OXR.8XOX^.eXeXeXrXtXtXqX2X2X2X:X>X#... .| n B v x A G.G.L.G.U.Y.U.qX0X0X<X0X0X0X0XI.<X<X<X<XI.I.P.<X0X<X<XI.0X!.rXrXeX8XrXE.^.OXE.^.^./.~.!.!.W.!.E.!.!.~.E.~.~.E.E.^.^.OXOXHXHX+XHXJXHXOX+XJXHXJX+XOXJXoX+XJXJX+XHXOXJXOX+X+XJXOX+X+XoX+X+XoXoX+XJXoXGX+X+XoXoXoX#XoXGX@XoXoX#X+X@X'.'.].MX`.`.].[.`.`.NX].].[.MX'.[.[.].].mX].].].'.NX`.].].].NX].mX`.mXmXBXBXBXBXIXIXIXyXyXtX2X>X-XL.J.",
"S.S.T.(._._.XXXX|.XX.X X}.|.AXZX}.}.}.}.}.}.}.}.ZXZX}.ZX}.SXSX}. X}.SXSXZX}.ZXZXAXZXZXAXZXAXSXSXZXDXDXSXmXSX`.mXSX`.SXZX`.SXSX`.SXmXSXmX`.`. X XmX`.`.`.`.`.mX`.mXmXBXmXmXmXmXMXBXNXMXMXBXBXMXMXMXMXMXMXKXKXMX'.MXMX@X'.MXMXKX].MXMX'.MX].].MX].].].mXNX`.'.].NXKXKXKX'.@XGXGXoXoX@XKXGXoXGXGXGXKXoX@X@XoXGXoXoXJXPXPXPXPXtXPXyX7X2X;X;X+.n A N D.C.Y.S./././.$X#X#X@X@XKXKX@X@X@XGXKXKXMXMXGXMXMXKXKXMXMX@XKXKXKX].LX[.'.MX].[.@XKX[.].NX`.KXKXKXMX'.GX@X@X@X].KXKXKXKXKXoXKXKXoXKX@XKXKXKXKXGXKXKXKXoXKXKXGXMXKXGXKX@XoXKXKXGXGXKXGXKXKXGXGXKX'.GX@XGXoX@XKX@XGXoX@XoXKXKXoX'.GX@XKXGX@XMXKX].NX'.].MX'.].@X@X].'.'.].@X'.].#X'.LX@X'.'.@XMX'.'.MXMX'.BXBXLXBXPXLXIXPXyXyX2X4X;X#. . .V B N Z.G.S././.$X$X$X#XJXoX+XHXJXJX8XJXHXOXOXJXHXHXHXHX^.8XHXHXHX8XHXHXHX+XoXGX@X'.@XoX#X#X#XoX#X+X+XoX#XoX#X#X#X#X'.'.[.@X@X[.[.NXNX].MX].NX`.].NX`.'.NXmXNXmXNXmXNX].`.mXmX`.NX[.mX`.`.`.].NXNXNXmX`.NXNXNXNX].`.`.[.[.`.`.].`.[.[..X[.`. X|. X|.}. X}.|. XSXZX}.}.}.}. X.X}.SX XSX|.}.}.}.}.}.}.ZXZXZXSXZXZXZXAXVXDXDXCXCXIXIXuX7X7X7X;XA n ",
"T.M.M.(.).)._._.|.XX.XSX}.ZXZXAX XZXZX XZXZXSX}.ZXZXZX}.}.}.}.}.ZXZXZXZXZXAXAXZXAXAXZXFXZXAXAXAXAXAXZXDXSXZXZXZXSXSXSXZXSX}.SXZXZX}.SX}.ZX X X}. X X XSXmX`.ZXZXmXZX}.mXmXmXZXmXZXZXSXSXmXDXSXSXSXBXmXmXNXmXmXNXmXmX`.NXmX`.NX X X[.mXSX`.SXSXSX X XmXZXSXZXmXmX XZX XSXmXBXBXmX].].MX].].mXmX`.mXmXNXNXmXNXMXMX`.BXBXVXLXCXIXuXyX7X2X7X-XL.G.Y.Y.T.T.M.{.%X_.{.[.[.[.[.`.`.SX].`.mXmX`.mX`.mXNXNXmXmXmXmXSXSXSX X]. X.X`. XSX XSX X`.mXSXSXSXSXZXAXZXmX`.SX X@X`.mXmX`.`.mX`.`.mX`.mX X`.`.mX`.mXNXNX`.NXMX`.`.MX`.MXNXNXNXNXNX].`.NXSXNXNXNXNXNX`.NX].].NX].`.NX].].`.].MX`.[.[.`.SX}. XSX X XZX X X XZX X X.XSXNXmXNX[.`.`.].[.`.`.`.SX`.`. X`.NX`.`.BXMXNXBXVXVXVXVXIXyXyXyX7X2X=X=XF.Z.S.T.T.(.%X_.{.{.[.LXmXMXmXMXNXMXMXBXKXMXMXMXLXMXKXKX'.'.KXMXLXMXBXMXKX[.`.DX`.`.[.`.[.[.[.].`.[.[.].#X#X[.[.[.[.[.[.[. XSX[.[.`.mXSXNXmXmXmX`.mXmXSX`.`.`.`.`. X X`. XmXmXmXmX.XZX`.SX`.SXSX`.SXSX X X`. X X X X X.X X.X X X}.}.|.}.}.|.|..X|.|.}.}.|.}.ZXZXZX}.ZXZXSX|.|..X}.ZX}. X|.}.}.ZX}.}.ZXZX}.ZX}.ZXZXAXAXFXFXCXCXUXuXuXnXyX7X2X<XP.",
"M.M.z.z.).)._.XX{..X[.[.[.NXNXNXmXmXmXmXmXmXmXmXSXmXNX XSX X`.`.mXmX X`.mXmXmXmXmXmXmXBXmXmXDXAXDXDXZXZXAXmXZXZXZXZXZXZXZXZXZXZXZXZXZXZXZXZXZXZX X}.}.}.ZX}.}.ZXZXZXZXZXZXAXZXAXAXAXAXZXZXAXZXDXAXAXZXAXZXZXZXZXSX}.SX XZX X}. XZX}.ZX}.}.}.ZXZX}.ZXZXZXZXZXZXZXDXZXZXSXZXZXZXZXZXZXSXZXZXSXZXSX}.ZX}.ZXZX}.AXZX}.AXAXFXFXCXCXCXuXuXyX5X2XN L.D.C.M.z._.)._.XXXX|.|.|.|.}.}.}.}.}.}.ZXZX}. XZXZXSXSX}.}.ZXZXZX}.ZXZX|.ZX}.ZX|.|.ZXZX}.}.ZXZXSX`.ZXZXmXZXZXZXZXZXZX}.}.ZXZX}.}.ZXZX}.}.}.ZX}.}.ZXZXZXZX}.ZXZX}.ZX}.ZXZX}.}.}.}.}.}.}.ZXZXAX}.ZX}.ZXZXZX}.ZXZX}.ZX}.}.}.}.}.}.}.}.|. X X}.ZX}.ZX}.AX}.}.ZXZXZX}.ZXZX}.}.}.}.}.ZXSX|.}.}.|..X|.}. X}.}.}.ZXAXAXAXAXVXFXFXCXCXUXlXyXyX2X2XK.L.Y.m.T.z.(.%XXX{.[.|.}.`.}.ZXZXZXmXZXAXZXZXZXZXZXZXZXZXSX}.}.}.|.}.ZXSX XZXZXSXZX}. X}.}.|.}.}.ZX}..X}..X.X|.|.}.|.|.|..X}.}.}.|.|.}.}.ZXZXZX}.}.}.ZX}.ZXZXZXZXZXAXZXZXZXZXZX}.ZX|.ZX X}.}.}.}.}.|.ZXZXZXZXZXZX}.}.|.}. X}.ZX}.}..X|. X}.|. X}.|. X}.ZX X}.SX XZXSXSXmX X X}.`..XSX X.X X X`.`.}. X`.mX`.ZX`.VXSXVXFXFXFXCXCXUXUXlXnXyX7X2X1X=X",
"m.M.z.z.).)._.%X{.$X#X#X@XKXKX@X@X@X@X@X@X@X@X@XKXKXKXKXKXoX@XGX@X@X@XKX'.@X@XKXBXNXNXBXmXBXBXmXmXBXmXBXmXmXmXmX`.`.NX`. XSX`.mX X`.ZXmX XmX`. X`.`. X`. X XmXmXSXmXZXZXZXmXZXmXmXSXSXAXDXDXSXZXZXZXZXZXZX}.ZX}.}.ZXZX}.|.|.}.}.}.}.}.}.|.|.ZX.X}.ZXZXZX}.ZXZXZXZXZXAX}.ZXZXAXZXAXZX}.SX}.}.}.ZX XSX}.SX}.}.SX XSXDXDXFXFXCXCXUXIXuXyX7X2XU.Y.T.M.(.z.z._._._.XXXX|.|.}.ZX}.ZX XZXZXmXZXZXZXZXZX XZXZXSX}.ZX X XZXZX|.ZXZX}. X X}.}.SXZXZXSXZXZXZX}.}.ZX}.}.}.ZXZXZXSXSXZXZXSXSXSXZXZXSXZXZXZXZXZXZXZXZXZXZXZXZXZX}.ZXZXZXZXZXZXSXZXZXZXZXZXZXSX}.}.}.}.}.}.}.ZXZX}.ZXZXZXZXZXZX}.|.|. X}.}.}.ZXZXZX|.}.}.}.}.ZX}.}.|.}. X}.}. X|.}.ZXZXZX}.ZXZX XZXZXZXZXZXAXAXFXCXFXUXUXCXuXuXnX2X1XP.Y.C.T.M.z.)._._.{.XXXX|.ZXZX}.ZXZXZXZXZX}. X}.SXSX XmXZXZXZXSXZX}.SX}. XZX}.ZX.XZX}..X}.}.|.|.}.ZX}.|.}.}.|.|.|.}..X.X}.|.}.SX}.}.}.SX X}. XZX}.}.`.}.}.}. XSXSXSXSXZXmX XmX X.X X.XSX XDX X XSXmXmXZX XSXSX X X}.}. X X}.}..X X X X X[..X X.X.X[.`.[.NX[.SXNX`.`.].NXmX`.[.[.[.[.LX].`.'.'.'.NX'.'.'.'.GX'.MXMXMXVXLXVXCXCXUXUXUXlXnXnX7X>X-XZ ",
"m.l.z.z.z.z.%X%X$X$X^.^.OX^.eXeXR.R.8XR.OXeXR.R.eXeXHXeXHXeXeXeXHXOXHXHX8XR.HXHXPXHXHXHXHXJXGXGXJXGXLXGXKXKXKXKXKX'.@X@XKXKX'.'.NXNXMXNXNXNX'.'.NXNX].].NXMX'.'.'.'.'.'.`.NXMXNXBX].NX].`.BXmXBXmXBXmXmXDXSXmXmXmXmXSXmX`.`.mXmX`.[.SXNX X`.`.].`.`.mXNXNXmXNXSXmXSXSXSXmXmXDXmXSXSXSXSX X X X X}.SXmXSX XmXSXDX}.VXFXFXFXCXUXUXUXlXnXyX2XU.Y.S.M.M.z.).)._.XXXX{.[.[.`.mXmXmXmX`.mXmXmXmX`.mXmX`.mXmXSXNXmXmXNXmXNX{.mXZX X`. XSX[.NX[.mXmX`.mXNXmXmXmXNXmXZXmXNXmXNXSXSXmXSXSX X XmXmXSXmXmXmXmX`. XmX`.`. X`.ZX}. X`.SX X}.SX`.`.`.SX}. X XmXmXmXmXmXmXZXmXmX XSX`. X}. X X X X X}. X XSXmXmXmX X`.mXmXmX}.mXSXmXmXSXSX`. X`.[.SX`.].].]. XNXmXmXNXmXNXMXVXVXDXFXCXCXUXUXlXnXyXyX2XI.S.S.l.z.).)._._.XXXXXX|.mXZXmXmXmXAXSXSXmXZXmXZXZXZX}.DX}.}.ZX}.ZX X}.}.SXZX}.}.}.}.|. X XSX}. X X`.`.`. X.X.X`.`.[.[.[..X@X X#X[.].KXNXNXNXmXNXNX`.NXNX`.].`.NX`.NX].`.NX`.].`.NX[.NX`.].MXNX].].].].NX`.].NXNX].].].].].@X#X@XNX].@X@X@X@X@XoX@XoXoXoXGXJX+XJXoXGXJXJX+XoXoXGXOX+X+X+X+XJXJXHX+XJXJXJX+XJXJXJXoXPXPXPXuXUXUXlXlXlXlXnXbX>X>X=X",
"m.l.l.f.f.z.M.S././.W.~.!.W.9X9XqXW.qX9XW.qX9XqX9X9XqX~.qXW.~.~.qXqX!.W.W.qXqX!.0X9X9X9XwX9XrX8XwX8XeXPX8XHX8XHXHXHX8XHXHXOXHXHX8XHXHXHXHXOXOXOX+XOXHXOXOXOXOXJXHXHXJXHXR.OXJXJXHXJXJXJXGXJX@XGXoX@XGX'.@XKXKXoXKX'.KXKX@X'.@XKX@X'.KXKX@X@XKXoXGXMXGXGX@XoXKXKXKX@XKXKXMXKX'.MXMXMXMX'.].MXNXMXMX].MX].`.NXmXmXNXVXLXVXCXCXUXlXlXlXnX7X2XY.Y.m.c.f.z.).).)._.{.$X[.[.'.GX@XMXoXMX@X@XMXMX@X'.MXKXMXKX'.'.'.MX].'.].#XGXKXKX@XKXMXMXKXKXKXKX@X@XMXMXGXMX'.'.MX'.'.MX'.MXKXMX@XMX'.KXMX'.MXKX'.MXKX'.NXNX].NXMX].MXNXMXMX@XMX'.MXMX'.KXMXMX'.MXMX'.'.'.MX'.'.'.`.MX].@X'.'.@X@XKX@X@X@X@XKX'.KX@XGXMX'.GXKX'.oXMX'.@XKX@X@X@X@X@X@XKX@X@X@X@X@XKXGXMXoXMXGXLXLXLXLXIXUXUXUXlXlXlXnX3X2XP.S.c.M.z.z.z.z._._.%X$X@XNX'.NXmXNX'.mXNXmXmXmXNXNXmXmX`. XDXNXNXSXSX`.mX XNX`.`.mXmX`.].NX].NX[.`.].'.`.].'.[.@X'.'.@X#XoX@XKX+X@XGXKXoXoXGXoXoXoX+XGXoXoXJXJXoXJXJXoXJXoXoXJXJXGX+XJX+X+XGXGX+XoXJXHX+XJXOXJX+XOXoXOXOXOXOXOX+X+XHXOXOXOX^.eXE.eX^.^.^.eX^.^.eXwXE.R.wX^.~.^.eX~.W.~.W.~.W.~.W.W.9X~.~.wXwX~.rXeXrXrXPXyXUXlXkXdXkXsXbXbX7X>X=X",
"m.l.f.f.l.M.m.T.Y.Y.1XP.U.=X<X,X,X,X,X,X,X,X,X,X,X,XP.,XP.,XP.<X,X<X,XP.P.P.P.P.<XP.P.<X<X<X<X<XQ.0XqXqXqX9X9XW.W.W.W.W.W.W.W.9XW.9X9X9XW.W.W.wX9X9X9X9X9X9X9X9X!.qX!.W.W.W.W.W.W.wXwXwXwXwX8XwX8XwX8XR.R.8X8X8X8XHX8XHXHX8XR.R.8XR.R.E.R.oXR.oX8X8X8X8X8X8X8XE.8X8X8X8XHX8XHX8XR.HXGXJX+X8XR.JXHXJXOX+XOX+XJXHXOXJXPXIXIXIXlXlXlXlXnXyX7XP.Z.S.l.f.z.f.z.z.%X/.$XE.$X^.HXeXHXHX8XR.HX8X8XOXR.8XHXHX8XHXHXHXHXOXHXHX8X8XR.R.R.R.E.8XR.R.8XR.8X8XOXOXOXOXR.JXR.R.JXR.R.R.OXR.OXOXOXOXHXOXOXOX8XOX8XHXR.R.R.eXeX8X8X8XR.8XOX8XHX8XR.R.JXHX8XOX8XJXHXHX8XOX8XR.8XHXOX8XHXHXHXOXHX8XeXOXOXR.R.OX8X8XR.OXR.HXR.8XOXHXR.OXOXHXR.OXR.8X8X8XR.R.E.wXeXR.wXwXwXR.8X8XrX8XIXIXuXUXlXlXkXlXnX6X2XP.C.m.l.l.z.z.z._.%X$X#X#XJXoX+XGXJXJXJXJXJXoXJXJXoXJX+XGXGXGXoXJXoXoXoXoXJXJXJXoXoX+XoXGXGXoXoXoXoXOX+XOXOX+XOXOXOX8XR.R.E.^.wXE.E.E.E.8XwXwXwXwX8XwXwXW.wX9X9X9XwXwXwXwXwX8X~.R.~.E.~.E.wX~.~.W.~.wXwX~.wXwXwXwX~.~.~.W.~.W.W.W.!.9X!.W.!.W.!.qXI.qXI.!.I.0XI.0XU.0X0XqX0XI.Q.Q.<X<X<X<XI.I.I.<X1XP.P.,XP.,XP.,XP.1X<X2X7XnXdXkXkXkXdXsX3X7X;XK.",
"k.k.k.d.k.c.S.Y.G.L.J.&XH.O.O.&XJ.&X&XJ.O.O.J.O.&X&X&X&X&XK.&XJ.&XK.J.K.J.K.K.K.=X=X=X=X=X=X,X=X,X,X,X,X,X,XP.P.<X,XP.<X,X<X,X,XP.,X,X<X,XI.P.I.P.P.I.<XP.P.I.I.<X<X<X<X<X<XI.<XI.I.<X0X<X0X0X<X9X9XqXqX!.!.!.W.W.9XW.W.W.!.!.W.!.W.9XqX<X<X<X<X<X9X<X9X<XW.9XW.wXqX9X9XW.wXqX~.wXE.W.9XwXW.W.W.!.!.W.!.!.qXqXqX!.tXtXtXnXnXlXlXkXkXsXbX7XU.S.m.l.f.f.z.l.M.S././.~./.!.qXqX!.Q.qXW.W.qX!.9X9X9XqXW.W.!.!.!.!.!.!.!.!.wX9XqX!.qX!.W.9X0X9X9X!.qXqXqXqXqXqX9X9X9X9X9X9X9X9X9X9X9X!.qXqXqXqXqXqXqX!.qX9X!.qX!.!.!.!.W.9XW.9X~.qX9XW.9XW.W.W.W.W.wX9XwXW.W.9XE.W.W.W.~.W.~.W.W.W.W.!.W.W.W.W.qXqXW.W.qXqX!.9X9XqX!.W.!.W.qX!.qXqX!.!.W.!.qXqX!.!.!.qXqX0X!.!.9XqXtXtXtXyXnXlXkXkXkXsX7X>XK.S.c.f.f.f.f.M.M.(././.~.wXR.~.~.wXwX8XwX~.W.~.wXwX~.^.~.~.~.~.wX~.~.~.~.wX~.^.~.~.~.~.~.wXeXwXwXwXwX~.wX~.wX9XW.9X!.W.!.Q.0XqXI.U.I.P.qXQ.Q.Q.I.Q.I.I.<X0XQ.Q.0XQ.I.0X<X<X0X<X<X<X<X<X<XI.<X0XI.<X<X<X<X<X<XP.<X<XP.I.<XI.P.<X,X<X,XP.I.,XP.K.P.U.P.K.,X=XP.1XP.-XP.=XP.K.P.P.K.P.K.K.P.P.K.K.=XJ.K.J.=XJ.=XJ.=XJ.*X=X;X7XbXsXdXdXkXsXsXbX5X:XJ.",
"m.h.s.a.k.x.n.G.U.L.-X=XK.=X=X=X=XK.K.P.K.,X=X=X=X=X,X=X=X=X,X=X=X,X=X=X=X=X=X=XK.=XK.K.K.K.K.K.K.K.=X,XP.P.P.K.=XK.=X=XK.,X=X,X,XP.P.P.P.P.K.K.,X=X=XP.=X=X=X,XK.K.,X,X,X=XP.P.,X,XI.<X<X<X<XI.,X,XI.<X,X<X<X<XI.P.<XI.<X<X<X<X1X<X9X<X,X<X<XU.U.<XU.<X<XU.9X<X<X<XI.I.I.Q.Q.Q.9XI.<XW.0XqX!.qX!.0XqXqXQ.0X0X0X!.qXtXtXyXnXsXdXkXkXkXbX5XL.C.m.k.d.a.f.M.M.T./.!.Q.!.I.I.,X<X<X<XI.I.<X<X<X<X<X<XI.<XI.I.<X<X<X<XI.I.I.<XQ.<XI.<X<X<X<XP.I.<XI.<XP.I.P.I.I.<XP.P.<X<XI.,X,X<XP.<XI.<XP.I.<X<X<XP.<X<X<X0X0X<X<X0X0X<X0X0X0X0XQ.!.I.I.Q.I.Q.I.Q.I.qX0X0X9XI.0X0X0X<X<XI.Q.<X<XI.Q.Q.Q.<X0X<X<X<XI.I.<XI.I.<X<XI.<X<X<X<X,XI.I.P.I.I.I.<XI.<XP.,X<X<X<XP.I.<X<X1X1X7X7XdXdXkXkXjXsXbX;XL.V.c.l.k.f.f.M.M.S.Y.Y.U.I.I.Q.qX0XQ.Q.!.qX9X9X9X9XqXqX!.9X9X9X9X9X9X9X9X!.W.!.qXqX!.!.!.0X!.0XQ.Q.Q.0XQ.U.I.Q.I.P.<XI.U.U.I.1XI.I.I.I.,X,X1X<X,X,XP.P.,XP.P.P.P.P.P.P.I.,X,X,XP.P.P.,X,XP.,XP.P.,X,X,XK.K.,X,XP.P.,X,X,XP.P.P.P.,X,XP.K.P.K.,X,X1XK.P.P.=XL.K.=XP.J.J.,XK.=X=XK.=X=X=XK.K.=XK.=X=X=X,X,X=X,XP.-XP.1X-X2X5XbXbXgXgXgXsXpXxX5X-.O.",
"x.k.a.d.k.n.N.A.N F.O.O.H.o.Z O.Z O.Z O.O.Z Z O.Z Z O.Z Z Z Z J.o.O.O.O.O.O.o.O.@.o.o.o.O.o.o.o.O.Z o.O.o.O.o.Z o.O.Z V V V o.O.O.O.&Xo.O.o.O.O.o.O.O.o.O.O.O.o.Z Z Z Z O.Z Z J.o.O.o.O.o.O.&Xo.O.O.O.O.O.O.o.O.&XZ &XO.&XZ =X&XZ Z J.J.J.J.L.K.=X&X=X&X-XO.&XH.&X&X=XO.&X&XJ.J.J.J.Z K.K.K.J.L.=XK.J.=X&XJ.&X=XJ.*X*X>X3XnXsXkXgXkXdXbX5XC A.c.h.d.a.d.l.m.B.Z.H.H.C Z &XZ Z Z O.Z Z Z Z Z Z Z &X&XZ J.O.O.O.O.&X&X&X&X&XJ.&X&X&X&XO.J.Z O.Z O.O.O.O.&XO.O.O.O.O.Z O.O.J.&XO.O.O.O.O.O.J.&XO.O.J.K.J.J.J.K.J.K.&X&X&XJ.O.&X&X&X&X&X&X&X&X&XJ.&XZ &X&X&X&X&XO.=XJ.K.&X=X&X=X=X&XJ.J.Z Z O.&X&X&XZ Z =X&XJ.&XJ.O.&XO.Z O.&X&X&X&XO.&X&X&XO.O.O.O.o.O.&XZ O.&X+.#.;X>XbXcXdXjXkXjXsXxX>XL.N.j.l.d.f.f.l.S.S.Y.P.L.&X&X&X&X+.J.J.J.=X=X=X=XP.K.P.K.P.P.K.K.P.=X=X,X=XK.K.=XK.K.=XJ.J.J.J.J.J.J.&XJ.J.J.J.&X&XJ.J.J.Z J.O.O.Z Z Z Z O.O.O.O.O.O.O.O.O.O.&XO.O.O.O.O.O.O.J.O.J.&X&X&XO.Z Z Z Z O.O.O.Z J.J.Z Z Z Z Z Z Z Z Z V Z Z Z C Z Z Z Z V V A Z +.O.&XA V Z A o.O.o.o.o.O.o.o.C o.O.Z O.O.Z Z O.O.Z O.H.#.O.%.5Xr.e.iX8.8.3.aX3X5X;XJ.",
"w 7 s.s.k.n.B.Z.Z N C O.&XO.Z O.O.O.O.O.O.O.O.O.O.O.O.O.O.O.O.O.O.J.O.J.Z O.&XO.L.&X=XK.J.K.=XJ.J.J.J.J.=X&X=X&X=X=XK.=X=X&XK.K.J.&X=XK.&X=XK.=XK.K.=XK.=X=X&X=X=X&X&X*X=X&X&X*X=XK.&XK.K.J.J.K.K.K.K.=XK.=X=X=X=X=X=X=X=XK.K.&XK.K.=X=X-XJ.L.&XO.O.&X&X-XJ.L.-XK.K.K.=XK.=X=XK.=XK.K.&X=X&X&X-X=XJ.&X=X=X&XK.J.K.+.&X>X6XcXsXiXiXfXiXxX7X=XA.w k.d.a.k.h.m.V.G.H.F.J.K.=XP.,XK.=XP.K.K.K.P.K.P.=X=X=X=XK.K.=X=X&X&X=X=XK.&X=X=XL.=XL.=XK.K.K.K.=XK.=X=XK.=X=XK.=X=X=XP.=X=XK.=X=X=X=X=XP.K.P.K.,X=X=XK.=X&X=X&XK.J.=X=XJ.K.K.L.K.=X=X=XK.K.=XK.K.K.K.K.K.K.K.K.K.=XJ.K.K.=XJ.=XK.K.K.J.=XJ.K.J.=X=X=XJ.=X=X=X=XK.K.K.K.K.=X=X=XK.K.K.K.K.K.K.J.K.K.=X=XK.=X=X,X>X4X6XvXjXfXgXhXaXxX;XL.C.c.k.a.a.d.j.m.S.Z.P.K.=X=XK.K.K.K.P.L.=X=X=X=X=X=X,X=X=X=X=X=X=X=X=X=XP.=XK.J.,X=XK.=X,X,X,X,X,X,X,X,XP.P.P.K.K.K.K.P.=X=X&X=X&X-XJ.&XJ.J.J.K.K.=X=X=X=X=X=X=X=X&X=X=X=X=X&X=X=X&X=X=XK.K.=X=XJ.J.=X=X=X=X=X&X=X=X&XJ.&X=X&X*X=X&X&X=X&X&X&X&X&X&X&X-X&XZ &X&X-XZ J.-X&XJ.&X&X=XK.J.K.&XJ.&XJ.Z Z J.Z J.&XJ.O.J.*X&X;X6XbXvXiXgXfXiXpX3X6X>X=X",
"n.8 s.p.h.v.N.D.H.C O.O.J.&XZ &XZ O.O.O.O.O.O.O.O.O.O.O.&XO.O.O.O.O.O.O.O.O.O.&XZ O.J.o.Z O.O.O.O.O.O.O.O.Z O.Z Z Z Z Z O.O.Z Z O.O.O.Z O.O.O.Z &XO.O.O.O.O.O.O.J.J.Z O.J.J.J.Z Z o.O.O.O.O.J.Z o.O.O.Z Z O.O.O.Z Z Z Z O.Z O.Z Z Z Z Z Z Z Z Z O.O.&X&XO.O.O.Z Z Z O.Z &XO.O.O.Z Z Z O.O.O.O.O.O.O.Z O.&XJ.J.J.-X+.+.4X6XcXvXhXfXfXsXcX-.O.Z.9 7 4 2 2 v.t V.N J.F.*XO.O.o.Z Z o.O.O.O.O.o.O.o.Z Z O.O.O.Z O.O.O.O.O.O.O.O.O.O.O.O.@.O.o.O.O.O.O.Z Z Z Z Z O.Z o.J.O.O.O.Z O.O.O.O.O.O.o.O.O.O.Z Z Z Z Z O.O.O.Z O.O.O.O.+.O.O.O.O.Z O.O.Z Z O.&XZ Z O.Z o.O.Z Z O.O.O.O.Z Z &XZ Z O.O.O.O.O.O.O.O.O.O.O.O.O.Z O.o.O.O.O.O.O.O.Z O.O.o.O.O.O.O.Z O.O.O.O.O.o.O.;X:X3Xy.vX8.0.hXpXxX:XF.N.j.s.p.s.h.v.b.V.Z.J.H.O.&XZ Z O.O.Z Z Z Z Z Z Z Z Z Z Z Z Z Z Z Z O.O.Z O.O.Z O.O.O.O.o.O.O.o.O.o.Z Z Z O.O.O.o.O.Z Z Z Z Z Z J.Z J.J.O.O.O.O.O.Z O.Z O.O.o.O.O.O.O.O.O.O.O.O.O.O.O.O.O.O.O.O.O.O.O.O.O.Z O.O.O.O.Z O.O.Z Z Z O.O.Z Z O.O.Z &XO.O.Z Z O.&X&X&XO.O.O.Z O.&XO.O.o.O.O.O.J.J.Z Z O.O.&X&XO.O.&XO.J.+.+.:X>.xX4.3.8.hXiXy.3X>.#.&X",
"v.g.s.s.h.n.N.Z.C H.&XO.Z J.J.&X&XO.O.O.O.O.O.O.O.&XZ &X&X&XO.O.&X&XO.O.O.O.O.O.&XO.O.O.O.O.O.O.Z O.O.&X&XZ &XZ O.O.O.O.O.O.O.*XO.O.O.O.O.O.O.O.O.O.O.O.O.O.Z Z H.&X&XO.&X&X&X&Xo.&X&XO.O.O.O.O.O.O.O.O.O.J.J.J.&X&XO.O.O.O.O.O.+.O.O.O.O.&XJ.&XJ.Z Z J.O.O.O.O.O.O.&X&XO.&XJ.J.O.O.O.O.Z J.J.J.O.O.O.O.&X&XJ.J.&X*X*X;X5XcXaXhXgXfXiXcX5X*Xz c.s.s.d.s.h.v.V.G.H.G.&X&X&X&XO.O.O.O.O.&X&X&XO.&X&XJ.Z Z O.O.O.O.J.J.J.J.J.Z O.O.&X&X&XZ &XJ.&X&XO.&XZ &X&X&XO.&XO.Z Z O.Z &XO.Z O.Z O.O.&XZ O.Z J.&X&X&XZ O.O.Z O.O.O.Z O.O.O.O.&XO.O.O.J.J.O.&XZ Z &XO.&XO.O.O.O.O.&X&XZ O.Z &XO.Z &XZ &X&X&XO.Z J.J.&XO.Z J.J.O.O.&XO.O.&XO.O.O.O.O.O.O.O.O.&XJ.J.O.Z J.&XZ *X:X4X6XvXiXfXhXiXvXxX>XF.B.j.k.2 d.k.c.C.A.Z.J.J.&X&X&XJ.&X&X=X&X&X&X&XZ Z O.J.Z O.&XZ O.O.O.J.O.Z Z Z =XJ.Z &XZ O.O.O.O.O.O.O.O.O.O.O.O.O.O.O.O.O.O.O.O.O.O.O.O.O.&X&XZ Z O.&XO.O.&XO.O.O.O.O.O.J.J.O.J.O.Z Z J.O.O.O.O.Z Z &X&XO.O.O.O.O.O.O.O.&XO.J.O.O.O.O.&XO.O.O.&XO.O.O.O.O.J.Z &XZ &XJ.&X&XO.&XZ Z &XO.O.&X&XO.O.&X&XO.o.O.O.&XO.J.+.O.#.5X3XpXaXfX8.iX4.3X>.;XJ.",
"c.s.a.s.j.v.N.D.Z N Z O.O.&XO.O.O.O.O.O.&XO.O.O.O.O.O.O.O.O.O.O.O.O.O.O.O.&XO.Z O.O.O.O.O.O.O.O.O.&XO.O.Z O.&X&XZ &XO.O.J.J.O.Z O.O.O.O.O.J.O.&X&XO.O.O.J.J.&X&XO.O.O.O.O.Z O.O.J.J.&XZ O.J.O.&XO.O.O.O.O.O.O.O.O.O.O.O.O.O.O.O.Z O.O.O.O.O.O.Z O.&XO.J.O.O.O.&XO.O.O.O.O.O.O.O.O.O.O.O.O.O.O.O.O.&X&X&XZ Z &XJ.O.*X&X:X5XcXpXfXfXfXpXzX5X&XA.w 7 4 a.s.j.N.V.D.J.F.O.J.Z Z &XO.O.O.O.O.J.Z J.J.Z &X&XO.O.O.O.O.O.&XO.J.Z O.Z +.Z Z J.J.&X&XZ J.O.O.&XO.O.O.O.Z O.O.O.O.O.O.O.O.O.O.Z O.Z J.O.&XO.O.O.O.O.O.O.O.O.O.O.O.O.O.O.O.O.O.O.O.O.O.O.O.&XO.Z O.O.&XO.O.O.O.O.O.&XZ O.O.O.O.O.J.Z O.O.O.Z O.O.O.+.Z Z &XO.O.&XZ J.O.Z O.O.O.O.O.O.O.O.O.O.O.O.O.O.O.&XO.;X:X6XvXiXfXfX0.vXxX:XD.B.j.g.a.p.s.x.N.Z.Z.J.H.O.J.J.Z &XJ.Z O.Z O.O.&XO.O.&X&XO.O.O.O.O.O.O.Z O.&XO.O.O.O.O.&X&XO.O.O.O.O.&XJ.O.O.O.O.O.O.O.&XO.O.O.Z O.O.O.Z O.O.Z O.O.O.O.O.O.O.O.O.O.O.O.O.O.O.O.O.O.&XO.O.O.O.O.O.&XO.Z &XO.Z O.O.O.O.O.O.Z O.O.O.O.O.O.O.O.O.O.O.&XZ O.O.Z O.&XZ O.O.&XZ O.O.Z O.&XO.O.O.Z O.O.O.O.J.&XJ.O.O.J.&XH.*X&X*X>.:.pX3.8.fXfX4.3X>.;XJ.",
"v.g.s.s.7 v.z M Z F.H.O.O.O.Z O.&XO.O.O.O.O.O.O.O.O.O.O.O.Z &XO.O.Z &XO.O.O.O.&X&XO.Z &XZ &XO.O.O.O.O.O.&XO.O.O.O.&XO.O.O.&XO.O.O.O.O.O.O.O.O.O.O.O.&XO.O.O.&XO.&XO.O.O.O.O.Z O.O.O.O.O.&XO.O.&XO.O.O.Z &XO.O.O.O.O.Z &XO.O.O.O.O.O.O.O.O.O.O.O.O.O.&XO.O.O.O.Z O.O.O.O.O.O.O.O.O.O.O.O.Z &XO.O.O.O.O.O.O.&XZ &XO.*X*X;X6X3XaXfX2.8.3.r.>.Z x w g.7 2 s.w y V.N C N &XZ &XO.O.&XO.O.O.O.O.O.O.O.O.O.O.O.O.O.&XO.O.O.O.O.Z O.O.O.&XZ O.&XO.O.O.O.O.O.&XZ Z O.O.O.O.O.&XZ O.O.&XZ &XO.O.O.O.O.O.O.O.O.O.&X&XO.O.Z O.O.O.O.O.Z &XO.O.O.O.O.O.Z O.O.O.O.O.&XZ &XO.Z O.O.O.O.O.O.O.O.&XO.O.O.O.O.&XO.O.O.&XZ Z O.O.O.O.O.O.O.O.O.O.O.&XZ O.O.&XO.O.O.&XO.J.O.Z +.H.+.:X-.*.e.5.8.8.fXpXxX#.F.b.x.g.p.2 7 v.l x x O.C &XO.O.O.O.O.O.O.O.O.O.O.O.O.Z O.O.&XZ O.Z O.O.O.Z O.O.O.&XO.O.O.O.O.Z &XO.&XZ O.O.O.O.O.O.O.O.O.O.O.O.O.Z O.O.O.O.O.O.O.O.O.&XZ O.O.O.O.O.O.O.O.O.O.O.O.O.O.O.&X&XZ O.O.O.O.O.O.O.O.O.O.O.Z O.O.O.O.O.O.O.O.O.O.O.O.O.O.O.O.O.O.&XO.O.O.O.O.O.O.O.O.&XO.O.O.Z &XO.O.O.O.O.O.J.O.Z &XZ &XJ.*X+.#.6Xr.y.iX8.0.3.pX6X6X;X&X",
"n.g.s.s.8 n.l D.C F.Z O.O.O.Z O.Z O.O.O.O.J.O.O.O.O.O.O.O.O.O.O.O.O.O.O.O.O.O.O.O.O.O.O.O.O.O.O.O.O.O.O.O.O.O.O.O.O.O.Z O.O.O.O.O.O.O.O.O.O.O.O.O.O.Z O.Z &XZ O.Z O.O.O.O.O.&XO.O.O.O.O.Z O.O.O.O.O.O.O.O.O.O.&X&XO.O.O.O.O.O.J.O.O.O.O.O.O.O.O.O.O.Z O.O.&XO.O.O.O.O.O.O.O.O.O.Z &XO.O.O.O.O.O.O.O.O.O.O.O.J.J.O.+.+.:X=.xX6.iXfXfX3.r.;.O.V.x.g.s.p.s.x.y V.F.Z H.&XZ O.&XO.O.O.O.O.O.O.O.O.O.O.O.O.O.O.O.Z O.O.O.O.O.&XO.O.O.O.O.O.O.O.O.O.O.O.O.O.O.&XO.O.O.O.O.O.O.O.O.O.O.Z O.O.O.O.O.O.O.O.O.O.Z Z O.O.&XO.O.O.O.O.O.O.O.O.O.O.O.O.&X&XZ O.O.O.O.O.O.O.&XO.O.O.O.O.J.O.O.Z O.O.O.&XO.O.O.O.O.O.O.&XO.O.O.O.O.O.O.O.O.O.O.O.O.O.O.O.O.O.O.O.O.J.O.J.O.J.*X;X-.*.e.5.9.0.iXpX:.:XF.b.x.g.s.p.s.v.B.A.D.&XZ &XZ O.O.O.O.&XZ O.O.O.O.O.O.&XO.O.O.O.O.&XO.O.&X&XO.O.O.Z O.O.O.O.O.O.O.O.O.O.O.O.O.O.O.O.O.O.O.O.Z &XO.O.&XO.&XO.O.O.O.O.O.O.O.O.O.O.O.&XO.O.O.O.O.O.O.O.O.O.O.O.O.O.O.O.O.O.O.O.O.O.O.O.&XO.O.O.Z &XZ O.&XO.O.O.O.O.&XZ &XO.O.Z O.O.O.O.O.O.Z O.O.O.Z &XO.O.O.O.O.O.O.O.O.O.O.&XZ O.O.Z *XO.;X;.xXvX0.8.fXfXy.6X=.+.J.",
"v.g.4 g.j.v.l M Z F.Z O.O.&XO.&XO.O.O.O.O.O.O.O.O.O.Z O.O.O.O.O.O.O.O.O.O.&XO.O.O.O.O.O.O.O.O.O.O.O.O.O.O.O.O.O.&XZ O.Z O.O.O.O.O.O.O.O.O.O.O.O.O.O.O.O.O.&XO.O.O.O.Z &XO.O.O.O.O.O.O.O.&XZ O.O.&XO.O.O.O.O.O.Z Z O.O.O.O.O.O.O.O.O.O.O.O.O.O.O.&XZ O.O.Z &XO.O.O.O.O.O.Z &XO.&XO.&XO.O.O.O.O.O.O.O.O.O.O.O.J.O.J.+.O.$.>.t.4.8.8.8.3.r.4XO.A.j.4 4 2 4 9 r z M C N O.Z O.O.O.&XO.O.O.O.Z &XO.O.Z &XO.O.&XO.O.O.O.O.O.O.O.O.O.O.O.O.O.O.O.&XO.O.O.O.O.O.O.O.O.O.O.O.&XO.O.O.O.&XO.O.O.O.Z O.O.Z O.O.O.O.O.O.O.O.O.O.O.O.&XO.O.O.&XO.O.O.O.O.O.O.O.Z O.O.O.O.O.O.O.O.O.O.O.O.O.O.O.O.O.O.Z O.O.O.O.O.O.O.O.O.&XO.O.O.O.O.O.O.O.O.Z O.O.O.O.Z &XO.O.O.J.O.O.O.J.*X#.-.=.zX5.8.3.fXy.:.#.M B.9 s.p.s.s.x.B.Z.D.&XH.&XO.O.&XO.O.O.O.Z &XO.O.O.O.&XZ &XO.O.&XO.O.O.O.O.O.O.O.O.O.O.O.O.O.O.O.O.O.Z O.O.O.O.O.O.O.O.O.O.&XZ &XO.O.O.Z O.O.O.O.O.O.O.O.O.O.O.O.O.O.O.O.O.O.J.O.&XO.O.O.O.O.O.O.O.Z Z &XO.O.O.O.O.&X&XZ O.&XZ &XO.O.O.O.O.O.O.O.&XZ O.O.O.O.O.O.O.O.O.&XO.O.O.O.Z O.O.O.O.O.O.O.O.O.O.O.O.&XO.O.J.*XO.;X>.3XvXiX0.8.fXvX3X6X;XZ ",
"9 g.s.4 h.v.V.x H.H.H.O.O.O.O.O.O.O.O.O.O.O.O.O.O.O.&XO.Z O.O.O.O.O.O.&XO.Z O.O.O.O.O.Z &XO.O.&XO.O.O.O.O.O.O.O.O.O.O.&XO.O.Z &XO.O.O.O.O.O.O.O.O.O.O.O.O.O.O.O.O.O.O.O.O.O.O.O.O.O.O.O.O.O.O.O.O.Z O.&XO.O.O.O.O.O.O.O.O.O.O.O.O.O.O.&XO.&XZ O.O.O.O.O.O.O.O.O.O.O.O.O.O.O.O.O.O.Z O.O.O.O.O.&XO.O.O.O.O.O.O.J.&X+.*X$.6XxX4.0.8.hX5.t.-.Z A.x.s.2 p.s.w b.A.M C C O.Z O.O.O.O.O.O.O.O.O.O.O.O.O.O.&XZ O.O.Z &XO.O.O.O.O.O.Z &XZ &XO.O.O.Z O.O.Z &XO.O.O.O.O.O.O.O.Z O.O.O.O.O.O.O.O.O.&XO.O.&XZ O.O.&XO.O.O.O.O.O.O.O.Z O.O.O.Z O.O.&XO.O.O.O.O.&XZ O.&XO.O.O.O.O.O.O.O.O.O.O.O.O.O.O.O.O.&XZ O.O.O.O.O.O.O.O.O.O.O.O.O.O.O.&X&XO.O.Z O.O.O.O.O.O.&XO.O.O.J.*X;X5X6XzX3.8.fX8.4.r.:XN b.9 g.p.p.7 c.B.Z.x O.Z &XO.O.Z O.O.O.O.O.O.O.O.O.O.O.O.O.O.O.Z O.Z &XO.O.&XZ O.O.O.O.O.O.Z &XO.O.O.&XO.O.O.O.O.O.O.O.O.O.O.O.O.O.O.O.O.O.O.O.J.O.O.O.O.O.O.O.O.O.&XZ O.O.O.O.O.Z O.&XZ O.O.O.O.O.&XO.O.O.O.O.O.O.O.O.O.O.O.O.O.O.O.Z &XO.O.O.O.O.O.O.O.O.O.O.O.Z &XO.O.O.O.&XO.O.O.O.O.O.O.O.O.O.O.O.O.O.J.O.O.Z *XO.#.5X*.y.hXfX8.iXpX3X>.#.Z ",
"9 g.g.2 8 b.N.x H.H.J.O.&XO.O.O.&XO.O.&XO.O.O.O.O.&XZ O.&XO.O.O.&XO.O.Z O.&XO.O.O.O.O.O.O.O.O.Z &XO.O.O.O.O.O.O.O.O.O.O.O.O.O.O.O.O.&XO.O.O.O.O.O.J.O.O.O.O.O.&X&XO.O.O.O.Z &XO.&XO.O.&XO.O.O.O.O.&XZ O.O.O.O.O.&XO.O.O.&XO.O.O.O.O.O.O.O.&XZ O.O.O.Z O.O.O.Z O.O.O.Z &XO.O.O.O.O.O.O.O.O.&XO.Z O.O.O.O.O.O.J.O.O.+.*X-.3Xt.pX2.8.hXy.r.;.&XZ.v.9 s.p.2 j.b.A.N Z H.O.Z O.&XO.O.O.O.O.Z O.O.O.O.O.O.O.O.&XO.O.O.O.O.O.O.&XO.O.O.O.O.O.Z O.&XO.O.O.O.&XZ O.O.O.&XO.O.O.O.Z O.O.O.O.O.O.O.&XO.O.Z &XO.O.O.O.O.O.O.O.O.Z O.O.O.&XZ O.&XZ O.O.O.O.O.O.O.O.O.Z &XO.O.O.O.O.&XO.&XZ O.O.O.O.&XO.Z O.O.O.O.O.O.O.O.O.O.O.O.O.O.O.O.O.O.O.O.O.&X&XZ O.O.O.O.O.O.J.O.J.*X+.5X>.zXhX0.fX3.vXxX:XF.b.9 g.2 p.g.x.V.x x O.Z O.O.O.O.O.O.O.O.O.O.&XO.O.O.O.O.O.O.O.Z &XO.O.O.O.O.O.O.O.&X&XO.O.&XO.O.O.O.O.O.O.O.Z &XO.O.O.O.&XO.O.O.O.O.O.O.O.O.O.O.&XO.O.O.O.O.Z &XO.O.O.O.O.O.O.O.O.O.O.O.O.Z O.O.O.O.O.O.O.O.O.O.O.O.Z &XO.O.O.O.O.O.O.O.O.O.O.O.O.O.O.O.O.O.O.&XO.O.Z &XZ O.O.O.O.O.O.O.O.O.Z O.O.O.O.&XO.J.O.O.J.+.O.;X6X*.4.iXfXhXiXvX*.:.#.Z ",
"j.7 7 2 h.t z M Z C J.O.J.&XZ O.Z O.O.O.O.O.Z &XO.O.O.&XO.O.O.O.O.O.O.O.O.Z O.O.Z &XO.O.O.O.O.O.O.Z O.&XZ &XO.O.O.&XO.O.Z O.O.O.&XO.Z O.O.O.O.O.O.O.O.O.O.O.O.Z Z O.O.&XO.O.O.O.Z O.O.Z O.O.O.O.O.O.O.O.O.O.O.O.O.O.&XZ Z O.O.O.O.O.O.&XO.O.O.O.O.O.&XO.O.O.&XO.Z O.O.O.O.O.O.Z O.O.O.Z O.O.O.O.Z &X&XZ O.O.O.J.&X*XO.$.=.xXaX0.8.8.0.cX-.Z z j.g.2 2 4 h.b.A.M C F.&XZ Z &XO.&XO.O.&XO.&XO.O.O.O.O.Z O.Z O.O.O.O.O.O.O.Z O.Z &XO.O.O.&XO.Z O.O.O.O.O.O.&XO.O.Z O.&XZ O.&XO.O.O.O.O.Z &XZ O.O.&XO.O.O.O.O.O.Z &XO.O.&XO.O.O.O.O.O.O.O.O.O.O.O.J.O.O.O.O.O.O.O.O.O.O.O.O.O.O.O.O.O.O.O.Z O.&XO.Z J.O.O.O.O.Z &XZ O.O.O.O.O.O.O.O.O.O.O.O.O.O.O.O.O.O.&XO.J.O.J.;X+.5X>.zXhX0.hX0.4.xX;XF.b.9 s.p.s.7 r B.x D.O.C &XO.O.O.O.O.O.O.&XO.O.O.O.O.O.O.Z O.O.O.O.O.O.O.O.O.O.Z O.Z Z O.O.Z O.&XO.O.O.O.&XO.O.O.Z O.O.O.Z O.O.O.O.O.O.O.&XZ &XO.Z O.O.O.&XO.O.O.O.O.Z O.O.&XO.O.Z O.O.O.O.&XO.O.Z &X&XO.Z O.O.O.O.O.O.O.O.O.O.O.Z O.O.O.O.Z &XO.O.O.O.O.O.O.O.Z &XO.O.O.&XO.O.O.O.O.Z &XO.O.&XO.O.O.O.Z O.&XO.O.Z +.O.;X5XxXpXiXiXfXgX4.6X6X;XZ ",
"x.7 7 2 h.r N.x H.F.J.O.Z O.J.O.O.O.O.O.O.O.&XZ O.O.O.O.&XO.&XZ Z O.O.O.O.O.O.O.&XZ O.O.O.O.O.O.O.O.O.O.O.O.O.&XO.Z O.O.&XO.O.O.O.O.O.O.O.O.O.O.O.O.O.&XO.O.O.O.O.O.O.Z &XO.O.Z O.O.O.O.O.O.Z &XZ O.O.O.O.Z &XO.O.O.O.O.O.O.O.O.O.Z Z O.O.O.O.&XO.O.&XZ O.O.O.O.&XO.O.O.O.O.O.&XO.O.O.&XZ O.O.O.O.&XO.O.O.Z &XO.J.*X+.$.5XxXiXfXhX8.3.t.-.A z v.9 s.p.s.h.t z M C F.O.Z J.J.O.&XO.O.&XO.O.O.O.&XO.O.&XO.O.O.O.O.O.O.Z &XO.O.O.O.O.O.O.O.O.O.O.O.O.O.O.O.O.O.O.O.O.O.O.O.O.&XO.O.O.O.Z O.O.O.O.O.O.O.O.O.O.O.&XZ O.O.O.O.O.O.O.O.Z O.O.O.O.O.O.O.O.O.Z &XO.O.O.O.O.O.O.Z O.O.O.&XO.O.Z O.O.O.O.&XO.O.O.O.O.&XZ &XO.O.O.O.O.&XO.O.O.O.O.O.O.O.O.O.&XZ O.O.J.Z J.#.*X;.3XzXhXiX0.fXpXxX#.F.b.x.s.s.4 g.x.V.x D.&XC O.O.O.O.O.O.O.J.Z O.&XO.O.O.O.O.&XO.O.O.O.O.O.&XO.O.O.&XO.O.O.O.O.&XO.Z O.Z &XO.Z O.O.O.O.O.O.O.O.O.O.O.O.Z Z &XO.&XZ O.O.O.O.&XO.O.O.O.O.O.&XO.O.Z O.O.&XO.O.&XO.&X&XZ O.O.&XO.&XO.O.O.O.O.O.O.Z &XO.O.&XO.&XO.&XO.Z O.O.O.Z &X&XO.Z &XZ O.O.O.O.O.O.O.O.O.Z O.O.O.O.O.O.O.O.O.O.O.O.O.J.*X+.;X>.xXvX3.fXfXfXpX3X6X;X=X",
"x.7 7 4 j.v.z x Z F.Z &XZ &XZ O.O.O.&XZ O.O.O.O.O.O.O.O.Z O.O.O.&XO.O.Z &XO.O.O.O.O.O.O.O.&XZ O.O.O.O.Z &XO.O.Z O.O.O.O.O.O.&XZ O.O.O.O.O.O.O.O.O.O.O.Z O.O.O.O.O.O.&XO.O.O.O.&XO.O.O.O.O.O.O.O.&XO.O.O.O.&XZ O.O.O.O.O.O.O.O.O.O.&XO.O.&XO.O.Z O.O.O.O.O.O.&XO.O.O.O.O.&XZ O.O.&XZ O.O.O.&XO.O.O.O.O.O.O.O.J.J.&XO.*X:X3Xt.3.2.2.8.5.r.5XZ A.9 g.2 2 s.j.n.x F.Z F.*XZ &X&XO.Z O.O.Z O.O.O.O.Z O.O.O.O.O.O.O.O.&XZ O.O.O.O.&XO.O.&XZ O.O.O.O.O.&XZ O.&XZ &XO.O.Z &XO.O.O.Z O.O.&XO.O.&XO.O.O.O.O.&XZ O.O.O.O.O.O.O.O.&XO.O.Z &X&XO.O.O.O.O.O.O.O.O.O.O.O.O.O.&XZ O.O.O.&XO.O.Z O.&XO.O.O.&XO.O.O.O.O.O.O.O.O.O.O.O.O.O.O.O.O.O.&XZ O.O.O.O.O.O.&XZ O.O.J.Z Z +.&X>.=.xXfXhXfXiXy.r.#.F.t w 4 2 p.g.v.B.x D.J.H.&XO.O.O.O.O.O.O.O.O.O.Z Z &XO.O.O.O.O.O.O.O.O.Z &XZ O.O.O.&XO.O.O.O.O.O.O.O.O.O.O.O.O.O.O.O.O.O.O.O.O.O.O.&XO.O.O.O.O.O.O.O.O.O.O.Z Z &XO.O.O.O.O.O.O.O.O.O.O.Z O.O.O.O.O.O.Z O.O.O.O.&XZ O.O.O.O.O.O.O.O.O.O.O.Z O.&XO.O.O.O.O.O.O.O.O.O.O.O.O.O.&XZ O.O.O.&XO.O.O.&XO.O.Z &XO.O.J.Z J.J.*XO.#.5X*.zXiXfXfXiXaX3X3X;XJ.",
"r 8 7 2 g.b.l Z.Z H.Z J.Z J.O.O.&XO.O.Z &XO.O.O.O.O.O.O.O.O.O.Z O.O.O.&XO.O.O.O.O.O.O.O.O.Z O.O.&XO.O.O.O.O.&XO.O.Z &XO.O.O.O.O.O.O.O.&XO.O.O.O.O.O.O.O.O.&XZ O.O.&XO.O.O.O.Z &XO.O.O.O.O.O.O.O.O.O.O.O.Z &XO.O.O.O.Z O.O.&XZ O.O.O.O.S ,X-XO.O.O.O.O.O.O.O.&XO.O.O.O.O.O.O.&XO.O.O.&XO.Z O.O.O.O.Z &XJ.&XO.Z &XJ.*X*X-.>.e.6.0.fXfX6.e.-.J.V.x.7 a.p.g.j.v.A.F.H.C J.J.O.O.Z O.Z O.O.&X&XO.O.O.&XO.O.O.O.O.O.O.O.O.O.O.O.&XO.O.O.O.O.&XO.O.O.O.O.O.O.O.O.&XZ O.O.&XO.O.O.O.Z &X&XO.O.&XO.O.O.O.O.O.Z &XO.O.O.O.O.O.O.&XO.O.Z &XO.O.O.O.O.Z O.O.O.O.O.O.O.O.O.O.O.O.&XO.O.O.O.O.O.O.O.O.O.O.O.&XZ O.O.&X&XO.O.O.O.O.O.Z &XO.O.O.O.O.O.&XO.O.O.O.O.O.O.&XJ.Z J.;X*X;.>.e.hXfXfX3.vXxX:XF.t j.s.p.2 g.x.z Z.D.&XC O.O.O.O.O.O.O.O.&XZ O.O.O.O.O.O.O.O.O.O.O.O.&XO.O.O.O.O.O.O.&XO.O.&XO.O.&XO.O.Z &XZ O.O.O.O.&XO.O.O.O.O.O.Z &XO.O.O.Z O.O.O.O.O.O.Z &XO.O.&XZ O.O.&XO.O.O.O.Z &XO.O.O.&XO.O.Z O.O.&XO.Z Z O.O.&XZ O.O.O.O.O.O.Z &XO.O.O.O.O.Z O.O.&XZ O.Z O.O.&XO.O.O.O.Z O.O.O.Z O.O.&XZ O.O.O.O.O.O.O.H.*X*X#.=.3Xy.3.hXhXhXaX3X>.#.&X",
"8 7 7 p.h.y l x C H.Z O.J.Z O.O.O.O.O.O.O.O.O.O.O.O.&XZ O.O.O.&XO.O.O.O.O.O.&XZ O.O.O.O.O.&XO.O.Z O.O.&XO.O.O.O.O.&XZ O.O.O.O.O.O.O.O.Z O.O.O.O.O.O.O.O.O.O.O.O.O.Z O.&XO.O.O.O.O.Z &XZ &XO.O.O.Z &XO.O.O.O.O.O.O.O.&XO.O.O.O.O.&XO.O.O.O.C O.O.O.O.Z &XO.O.Z O.Z O.O.O.O.O.Z O.O.O.Z O.&XO.O.O.O.O.&XO.O.&XZ Z Z +.&X-.>.cXpX0.3.hXiXxX-.Z z x.h.p.p.g.h.y x D.H.H.Z Z O.&XO.O.&XO.O.O.Z O.O.&XZ O.Z &XO.O.O.O.Z &X&XO.O.Z O.O.O.O.O.Z O.O.O.O.O.O.O.O.O.O.O.O.O.Z O.&XO.O.O.O.O.O.Z O.O.O.O.O.O.O.O.O.O.O.Z &XO.O.O.O.O.O.O.O.O.&XO.O.O.&X&XZ O.O.&XO.O.O.&XZ &XO.Z O.O.O.O.O.O.&XO.O.Z O.O.O.O.O.O.O.O.Z O.O.Z O.O.O.O.O.O.O.O.O.O.Z O.O.O.O.O.O.O.O.J.O.H.#.*X5X6XzX3.8.fX3.pXr.#.D.t x.s.p.p.h.x.N.Z.M J.C O.O.O.O.O.O.O.&XO.O.O.O.O.O.&XO.O.O.&XZ O.O.Z O.O.O.O.O.&XO.Z O.O.Z O.O.O.O.O.&XO.O.O.&XO.Z Z O.O.&XO.O.O.O.O.O.O.O.&XO.O.O.O.O.O.O.O.O.O.O.O.O.O.Z O.&XO.O.O.O.O.O.O.Z O.O.&XO.O.O.O.O.&XO.O.O.O.O.O.O.O.O.O.&XZ O.O.O.O.O.&XO.O.O.O.O.&XO.O.O.O.O.O.O.&XO.O.O.&XO.O.O.O.O.O.O.O.O.+.O.H.+.&X>X6X3XvXhXfXhX3.aX:.:.#.O.",
"9 7 g.4 g.y l Z.Z C Z O.O.J.O.O.O.O.O.O.O.O.O.&X&XO.O.O.O.O.O.O.&XO.O.Z O.O.O.O.&XO.O.O.O.O.O.Z O.O.Z O.&XZ O.Z O.O.O.O.O.O.Z &XO.O.Z O.O.O.O.O.O.O.O.O.O.O.Z O.O.O.O.O.O.O.O.O.O.&XO.O.O.O.&XO.O.&XO.O.O.O.O.O.O.&XO.O.&XZ O.&XO.O.O.O.O.O.O.O.O.Z O.O.&XZ O.O.&XO.&XO.&XO.Z O.&XO.Z O.O.O.O.O.O.O.J.O.O.O.O.&X&X+.O.-.>.xXaX0.fXhX6.xX-.C V.v.h.2 2 2 j.t x D.C C O.&XO.O.O.O.O.O.O.O.O.O.O.Z Z O.O.O.O.O.O.J.O.O.&XO.Z O.O.O.O.O.Z O.O.O.O.O.O.O.O.O.O.O.Z O.O.O.O.O.O.O.O.O.O.O.O.O.O.O.Z O.&XO.O.O.O.O.Z O.&XO.O.Z O.O.O.O.O.O.O.O.O.O.O.O.Z &XZ O.Z &XO.O.Z O.O.O.O.O.Z &XO.Z O.O.&XO.O.O.O.O.O.O.O.O.O.O.&XO.O.O.O.O.O.O.&XO.Z O.O.O.O.O.O.O.O.O.J.O.J.*X+.;.:.e.iX8.8.hXpXr.#.N t h.s.2 p.h.x.z Z.M &XJ.O.O.O.O.O.O.O.Z O.O.O.O.O.O.&XZ O.O.O.O.&XZ O.O.Z &X&XO.O.O.O.O.O.O.O.O.O.Z O.O.O.O.O.O.O.&XO.O.O.Z &XO.Z O.O.O.&XO.Z &XO.O.Z O.O.O.O.O.O.O.&XZ O.&XZ O.O.O.O.O.O.O.O.O.O.&XZ O.O.O.&XO.O.O.O.O.&XO.O.O.O.O.O.O.O.O.O.O.Z O.O.O.&XO.O.&XO.O.O.O.O.O.O.O.O.&XO.O.O.O.O.O.O.O.O.&X&XO.J.O.H.+.&X*X>.3Xe.iXfXfXhXaX3X6X#.J.",
"v.7 2 s.j.y N.Z.C C C O.O.Z O.O.Z &XO.O.O.O.O.Z Z O.O.O.&XZ O.O.Z O.O.&XO.O.O.O.Z O.O.O.O.O.O.&XO.O.&XO.O.O.O.&XO.O.O.O.O.O.O.O.O.O.&XO.O.O.J.O.O.Z &XO.O.O.&XO.O.&XZ O.O.O.O.O.O.O.O.O.Z O.O.O.O.Z O.O.O.O.O.&XO.Z O.O.O.O.O.O.Z &XO.O.O.O.O.O.O.&XO.O.O.O.O.O.O.O.O.O.Z O.&XO.O.O.&XO.O.O.O.&XO.O.&XO.O.&XZ J.&X+.+.$.>.e.5.fX8.8.3.r.-.Z A.w 8 2 3 4 c.y z F.C C O.J.O.O.O.O.O.O.Z &XO.O.O.O.O.&XO.O.O.O.O.O.O.O.Z O.&XO.O.O.O.O.&XO.O.O.J.O.O.Z &XO.O.O.&XO.O.&XZ O.O.O.O.O.Z &XO.O.O.O.&XO.Z O.O.O.O.O.&XO.Z O.O.&XO.O.O.O.Z O.&XO.O.O.O.O.O.O.O.O.O.O.O.O.O.O.&XO.O.O.O.O.O.O.O.O.O.O.&XZ O.O.&XZ &XO.O.Z O.O.O.O.O.O.O.J.O.O.O.&XO.O.Z &XO.O.O.O.J.Z J.#.#.5X:.e.iXfXfX3.pX*.;XM t j.s.s.2 h.j.V.Z.D.&XH.O.O.O.O.J.O.O.O.O.O.O.O.&XZ O.O.O.O.&XO.O.O.O.O.O.O.Z O.O.O.Z &XO.O.O.O.&XO.O.O.Z O.O.O.O.O.O.O.O.O.O.O.&XO.O.O.O.O.O.O.O.O.&XO.O.Z &XO.O.O.O.O.O.O.O.O.Z O.O.O.O.&XZ O.O.O.O.O.O.O.O.O.O.O.O.O.O.O.Z &XO.O.O.O.O.O.O.O.&XO.O.O.O.O.Z O.O.Z &XO.Z &XO.O.O.Z O.O.O.O.O.&X&XZ O.O.Z O.O.O.Z +.O.%.;.3Xe.3.fXfX2.pX3X:.;XZ ",
"n.4 2 7 j.y V.D.C C Z O.O.Z &XO.O.O.O.Z O.O.O.O.O.O.O.&XO.O.O.O.&XO.O.Z O.&XO.O.Z &XO.O.&XO.O.O.O.O.O.Z &XO.O.O.O.O.O.O.&XO.O.O.&XO.O.O.Z &XO.O.&XZ O.O.O.O.O.O.O.O.O.O.Z O.O.O.O.O.O.&XO.O.O.O.O.O.Z O.O.O.O.Z O.O.O.&XO.O.O.O.O.O.O.Z O.O.O.O.O.&XO.O.O.O.Z &XO.O.O.O.O.O.O.O.O.O.O.O.O.O.O.Z O.Z &XO.O.O.O.Z &X+.+.$.>.t.aX8.8.0.6.r.-.H.V.w h.p.2 2 j.t z F.C N O.Z J.Z O.O.O.O.O.O.O.O.O.O.O.&XO.O.O.O.O.O.O.Z O.O.O.O.O.O.&XO.O.O.Z &XO.O.&XZ O.O.O.O.O.O.O.O.O.O.Z O.O.O.O.O.O.Z Z O.O.O.O.O.O.&XO.O.O.O.&XO.O.Z Z O.O.O.O.O.O.O.O.O.O.O.O.O.O.Z &XO.O.O.O.&XO.O.O.O.Z &XO.O.Z O.Z &XO.O.O.O.O.O.O.Z O.&XO.O.&XO.O.O.O.O.O.&XZ O.O.O.O.O.O.O.O.O.J.O.J.+.*X5X=.e.aXfXfX3.pX*.#.F.b.9 s.2 2 h.v.N.Z.D.O.H.&XO.O.O.O.O.O.O.O.O.O.Z O.O.&XO.Z O.O.O.O.O.O.O.O.O.O.O.O.O.O.O.O.O.Z &XO.O.O.Z &XO.O.O.O.O.O.O.O.O.O.Z O.O.O.O.O.&XZ O.J.O.O.O.O.&XO.O.O.O.O.O.O.O.O.O.&XO.O.O.O.O.O.O.O.O.O.O.O.Z O.O.O.O.O.O.&XO.O.O.Z O.O.O.O.O.O.O.O.O.Z O.O.O.O.O.O.O.Z O.O.O.O.O.O.&XZ O.O.O.O.Z &XO.O.&XJ.&XZ &XZ O.O.#.>.:.y.hXhX8.hXaX3X:.#.&X",
"r 7 2 4 8 n.l x C C C O.O.J.O.O.O.O.O.&XO.O.O.O.O.O.Z O.O.O.O.O.Z O.O.&XO.Z O.O.O.O.O.O.Z O.O.&XZ O.O.O.O.O.O.O.Z O.O.O.Z O.Z &XO.O.O.O.O.O.O.O.O.O.O.&XO.O.O.O.O.O.O.O.&XO.O.O.O.O.O.Z O.&XZ O.O.O.&XO.&XO.O.O.O.O.O.Z O.O.O.O.O.O.O.&XO.O.O.O.O.O.O.O.Z O.O.O.O.O.&XZ &XZ O.O.Z &XO.O.O.O.O.O.O.O.&XO.O.&XO.Z O.+.+.-.>.e.5.0.0.8.3.xX-.H.V.v.g.g.p.4 x.b.V.F.Z F.O.&XJ.Z O.&XO.O.&XZ &XZ O.O.O.O.O.O.O.O.O.O.O.&XO.O.O.O.O.O.O.O.O.O.O.O.O.O.O.O.O.&XO.O.O.O.O.O.O.O.&XO.O.O.O.O.O.&X&XO.O.O.O.O.O.O.O.O.O.O.Z O.O.&X&XO.O.O.O.Z &XZ O.O.O.&X&XO.O.O.O.O.O.O.Z O.O.Z O.O.O.O.O.O.&XO.O.O.O.Z O.O.O.O.O.&XO.O.O.O.O.O.O.O.O.O.O.O.O.O.Z O.O.O.O.O.O.O.J.O.J.+.;X;.:.e.3.8.fXiXvXr.#.D.t 9 s.2 p.h.x.z x D.O.J.Z O.Z &X&XZ O.O.O.O.O.&XO.O.Z O.&XO.O.O.O.O.Z &XO.O.O.O.O.O.O.O.O.O.O.O.O.O.O.&XO.O.O.O.O.O.O.O.O.&XO.O.O.O.&XO.O.O.O.O.O.O.O.O.O.Z O.&XO.O.O.O.O.Z &XO.O.O.O.O.O.&XO.O.O.Z &XO.O.&X&XZ O.O.O.O.O.O.Z &X&XO.O.O.&XO.Z &XO.O.&XO.O.O.O.O.&XZ &XO.O.O.O.&XO.O.O.O.O.O.O.O.O.Z O.O.&XO.Z &XC ;XZ #.>.6XvX3.2.8.0.pX3X:.#.J.",
"r g.4 4 8 r N.D.C H.J.Z Z J.O.O.O.O.O.O.O.J.Z &X&XO.O.O.O.O.Z O.O.O.O.O.&XZ O.O.&XO.O.Z O.O.O.Z &XO.O.O.O.O.O.&X&XO.O.O.O.O.O.O.O.Z O.O.O.O.O.O.O.O.O.Z O.&XO.O.&XZ O.O.O.O.O.O.O.O.O.O.O.O.&XO.O.&XZ O.Z O.&XO.O.&XO.O.O.O.Z &XO.O.O.O.O.J.Z &XO.O.Z O.&XO.O.O.O.O.O.O.O.O.O.O.&XZ O.O.O.O.O.O.&XZ J.Z O.&XJ.Z J.#.*X:X>.t.5.8.0.8.5.r.4XZ A.x.g.p.p.p.x.b.z G.J.N &XO.J.Z +.J.O.O.O.O.O.O.O.O.O.O.O.&XO.O.O.O.O.&X&XZ O.O.O.Z O.Z O.O.O.O.O.O.O.O.O.Z O.&XO.O.&XZ O.O.O.O.O.O.Z &XO.O.O.O.O.O.&XO.O.Z O.&XO.O.O.O.O.O.O.O.O.O.O.&XO.O.O.O.O.Z Z O.O.O.O.O.O.&XO.O.O.&XZ &XO.O.O.O.O.O.O.O.O.&XO.O.O.O.O.O.O.O.Z &XZ O.O.O.O.O.Z O.O.O.&XO.O.O.O.O.O.O.J.&XJ.#.*X>.6XzX3.hXhXiXvXr.:XD.b.9 s.2 2 h.v.N.x D.Z J.O.O.O.O.O.O.O.O.O.Z O.O.&XZ O.O.O.O.O.O.O.O.Z O.O.O.Z &XO.O.O.O.O.O.O.O.Z &XO.O.O.O.O.&XO.O.O.O.O.O.&XO.O.Z Z O.O.O.O.O.O.O.O.O.O.&XO.O.O.&XO.O.&XO.Z O.O.O.O.O.O.Z O.O.O.&XO.O.O.O.O.O.O.J.O.O.O.O.O.O.O.O.O.&XO.O.O.O.O.&XO.O.O.Z &XO.O.O.O.O.O.O.O.Z O.O.O.&XO.O.O.O.O.O.O.O.Z &XZ *XH.*XO.%.5X6Xy.3.8.0.0.4.3X:.#.&X",
"r 4 p.7 8 y B.M C H.H.O.&X&XO.O.O.O.O.O.O.O.O.O.Z O.O.&XO.O.&XO.O.O.O.O.O.O.O.O.O.O.O.&XO.O.O.O.O.O.O.O.O.O.O.Z O.O.&XO.Z &XO.O.&XO.O.Z &XO.&XZ O.&XO.O.O.Z O.O.O.O.O.O.O.O.J.O.O.&XZ O.O.O.O.O.O.O.O.O.O.O.O.O.O.Z O.O.O.O.O.O.O.O.O.O.O.O.O.O.O.O.&XO.O.O.O.O.O.O.O.O.O.O.O.O.O.O.O.O.O.&XZ O.O.J.&XO.O.&XJ.J.J.;X+.$.>.t.5.0.2.2.pXt.-.N V.w g.g.a.s.9 b.V.F.J.H.&X&XJ.Z O.J.O.O.O.O.O.O.O.O.O.O.O.Z Z &XO.O.O.O.O.O.O.O.O.&X&XO.O.Z &XO.&XZ O.&XO.O.O.Z O.O.O.O.O.O.O.O.J.O.O.O.O.O.O.O.O.&XZ O.O.&XO.Z O.O.O.O.O.O.O.&XZ O.O.O.O.O.&XZ O.O.O.O.&XO.O.O.O.Z O.&XO.O.O.O.O.O.&XO.O.Z &XO.O.O.Z &XO.O.O.O.&XZ O.O.&XO.O.Z &XO.&XO.O.O.O.O.&XZ O.O.&XO.J.Z Z *X;X5X:.e.iX8.fX0.pXr.#.F.b.9 4 4 p.g.x.z Z.D.Z H.O.&XO.O.O.O.O.&XO.&XO.O.O.O.O.O.O.&XZ O.O.O.&XO.O.O.O.O.O.O.O.O.J.O.O.O.O.O.O.O.O.O.O.Z J.O.O.O.O.O.O.O.O.&XO.O.O.O.O.O.O.O.O.&XO.O.O.Z O.Z O.O.O.O.&XO.O.O.&XZ O.O.&XO.O.Z &XZ O.O.O.O.O.O.O.O.O.O.O.Z &XO.O.Z O.Z &XO.O.Z O.O.O.O.O.O.O.O.O.O.&XZ O.O.&XO.O.Z &XZ O.O.O.O.O.Z Z &XJ.*XZ *X*X>X>.3XvXhX0.0.0.pX3X6X#.&X",
"w s.s.2 9 y l x Z H.Z &XJ.Z O.&XO.Z O.O.O.O.O.O.O.O.O.O.O.O.O.O.&XO.Z &XO.O.O.&XO.O.O.O.O.O.O.O.O.O.O.O.O.O.O.O.O.O.O.O.&XO.O.O.&XO.O.O.O.O.O.O.Z &XO.O.O.&XO.O.O.Z O.O.O.O.O.O.O.O.O.O.O.O.O.O.O.O.Z O.Z O.O.O.O.O.&XO.O.O.O.O.O.Z O.O.O.O.O.O.O.O.O.O.O.O.O.O.O.&XO.O.O.O.O.O.O.&XZ O.&XZ O.O.J.O.J.O.J.O.&XO.*X+.*X$.3Xe.5.8.8.0.4.t.4XC z x.g.p.2 s.j.N.l N H.H.O.&XO.O.O.O.&XZ O.&XO.Z O.O.O.&XO.O.O.Z O.O.Z O.O.O.O.O.O.O.&XO.O.O.O.O.O.O.Z &XO.O.O.&XO.O.O.Z O.O.O.Z O.O.O.O.O.O.O.O.O.Z O.Z O.O.O.O.O.O.&XO.Z &XO.O.O.O.O.O.O.O.O.O.O.O.O.O.O.O.O.O.O.O.O.O.O.O.O.O.O.O.Z O.O.O.&XO.O.O.O.O.O.O.O.O.O.O.O.O.O.O.O.Z &XO.&XZ O.O.&XO.O.O.O.O.&XZ O.O.J.+.*X>.>.vXhXhX8.iX4.r.:XM t 8 s.4 p.g.r l Z.D.J.J.O.O.O.&XZ O.O.O.O.O.O.O.O.O.O.O.O.O.&XO.O.&XO.O.&XZ O.Z O.O.O.O.&XO.O.Z &XO.O.O.O.&XO.O.O.Z O.O.O.Z O.O.O.O.O.O.O.&XO.O.O.O.O.Z Z &XO.O.O.O.O.O.O.&XO.O.O.Z &XO.O.O.O.O.O.O.O.O.O.Z &XO.O.O.O.O.O.O.Z &XO.O.O.O.O.O.O.Z &XO.O.O.O.O.O.O.O.O.O.O.O.O.O.O.O.O.O.O.O.Z &XO.Z O.O.&XJ.O.&X&XJ.*X*X;X5X6XvX3.2.8.3.4.*.>.;XO.",
"v.7 2 4 9 r l M H.H.C &XJ.J.&XO.O.&XO.&XO.O.O.O.O.O.O.O.J.O.O.O.O.O.O.O.O.O.O.Z O.O.O.O.O.&XO.O.O.O.O.O.O.&XZ O.O.O.O.O.Z O.Z &XZ O.O.O.O.O.O.O.O.O.O.Z O.Z O.O.O.&XO.O.O.&XO.O.&XZ &XO.O.Z &XZ O.O.&XO.&XO.O.O.&XO.O.O.O.O.&XZ O.&X&XO.O.O.O.O.O.O.O.O.J.O.O.O.O.Z Z &XO.&XO.O.O.O.O.O.O.O.O.&XO.O.J.O.O.O.J.Z O.*X*X:X=.e.5.8.8.0.aXr.4XC V.x.s.s.2 s.j.k A.H.C H.O.&X&XO.O.O.O.O.O.O.O.O.&XZ O.Z O.O.O.&XO.O.&XO.&XZ O.O.Z O.Z O.O.O.O.O.O.O.O.O.O.Z O.Z O.O.O.&XO.O.O.&XO.&XO.O.&XZ &XO.O.O.O.&XO.O.Z O.O.O.O.Z O.O.O.O.O.O.O.Z &XZ &XO.O.O.O.&XZ O.Z O.O.O.O.O.&XZ O.O.O.O.&XO.O.O.Z O.O.O.O.O.O.&XO.Z &XO.O.O.O.O.O.O.O.O.O.O.O.O.O.O.O.O.O.O.J.O.&XO.J.+.+.5X>.zX5.0.fX3.pX:.#.D.t 9 s.4 2 g.n.l x D.Z C O.O.O.O.O.O.O.Z Z &X&XZ O.O.Z O.O.O.Z O.O.O.O.O.O.O.O.O.&XO.O.O.O.O.O.O.O.O.O.O.O.O.Z &XO.&XO.O.O.&X&XZ O.O.J.O.O.Z O.O.O.O.O.O.O.O.O.O.O.J.O.O.O.Z O.O.O.O.O.O.O.O.&XZ O.O.O.O.O.O.O.O.&XO.O.O.Z O.O.O.O.O.O.O.O.&XO.O.O.O.O.&XO.Z &XO.O.O.O.&XO.O.O.O.&XZ O.O.O.O.O.O.&XO.O.O.J.O.O.*XC +.&X#.>.3Xy.0.hX8.2.4.:.6X#.O.",
"x.8 4 s.7 n.b.M C H.C O.O.Z O.O.O.O.&XO.O.&XO.O.&XZ O.O.O.O.O.O.O.O.O.O.O.O.Z O.O.O.O.Z O.Z O.O.O.O.Z &XO.O.&XO.O.&XO.O.O.Z O.O.O.O.O.O.Z O.O.O.O.O.O.&XO.O.O.O.&XZ &XO.O.Z Z &XZ &XZ O.O.&XO.&XO.O.O.O.O.O.O.O.Z O.O.Z O.O.O.O.O.O.&XO.O.&XO.O.&XZ O.O.O.O.O.O.O.Z O.O.O.O.O.Z O.O.&XZ O.O.Z O.O.O.J.O.&XO.&XZ Z *X*X:X>.zX6.fX8.0.4.e.4XH.V.x.h.p.s.a.j.N.z F.J.N O.Z O.O.O.O.O.O.O.O.O.O.O.O.O.O.O.&XO.O.&XO.O.O.O.O.O.O.&XO.O.O.O.O.Z O.O.O.O.O.O.&XO.O.O.O.&XZ &XO.O.O.&XO.O.O.O.O.O.O.O.O.O.&X&XZ &XO.O.O.O.O.O.O.O.O.O.Z O.&XO.&XO.Z &XO.O.O.O.O.&XO.&XO.O.O.O.O.O.O.O.O.O.O.O.O.O.O.O.O.O.O.O.Z &XO.Z O.O.Z &XO.O.O.O.O.Z O.O.O.Z O.O.O.O.O.&XZ O.O.J.;X;X;.6XzX3.fXfXhXpX*.:XD.b.7 g.2 2 g.n.l Z.D.Z H.&XO.O.O.O.O.O.O.O.&XO.O.O.O.&XO.&XZ O.O.O.&XO.O.O.Z O.&XO.O.O.O.O.O.O.O.O.O.O.&XO.O.O.O.O.O.O.O.O.O.O.O.O.O.O.O.O.O.O.O.Z O.O.O.O.O.O.O.O.O.O.O.&XZ O.O.O.O.&XO.O.O.O.O.&XO.O.O.&XO.O.O.Z O.Z &X&XO.O.O.O.O.O.J.O.O.O.O.O.O.O.Z O.&XO.O.O.O.O.Z O.O.O.O.O.O.O.O.O.O.O.&XO.O.&XZ O.O.&X&XJ.&XO.;X>.*.y.3.8.hX0.y.*.6X#.O.",
"r 7 s.3 9 r V.F.C H.J.Z Z Z O.O.O.O.Z O.O.Z O.O.O.O.O.O.O.O.&XZ O.O.O.O.&XO.O.&XO.O.O.&XO.O.O.O.&XZ O.O.O.O.O.O.O.Z O.O.O.&XO.O.O.&XO.Z &XO.O.O.&XO.O.O.O.O.O.O.O.O.O.O.O.O.&X&XO.O.O.O.O.O.O.Z &XO.O.O.O.O.O.&XO.O.&XO.O.O.O.O.O.O.Z O.O.Z O.O.O.O.O.O.O.O.&XZ O.&XO.O.O.O.O.&XO.O.O.O.O.&XO.O.O.O.J.O.O.O.&XJ.Z *X;X;.3Xt.aX8.8.0.6.=.%.B l j.g.p.p.g.v.b.z M H.H.O.O.O.O.O.O.Z &XO.O.&XO.O.O.O.O.O.O.Z &XZ O.O.O.O.O.O.O.O.O.O.&XO.Z &XO.O.O.&XO.O.O.O.O.O.O.O.O.O.O.O.O.Z O.O.O.O.O.Z &XO.O.O.O.O.O.O.O.O.&X&XO.O.O.O.O.O.&XO.O.O.Z O.O.O.O.O.O.O.O.O.O.O.Z O.O.O.O.&XZ O.O.O.&XZ O.O.O.O.O.Z O.O.O.O.O.&XO.O.O.O.O.O.Z &XO.&XO.O.O.O.&XO.O.O.O.&XO.O.O.H.#.;X-.3XzXaXfX3.hXy.bX;XD.B.j.g.s.p.g.r l x D.Z J.Z O.O.O.&XZ O.&XO.O.O.O.O.O.O.O.O.O.O.&XO.Z O.O.O.&XO.O.O.O.&XZ Z &XO.O.O.O.O.Z O.O.O.O.Z &X&XZ O.O.O.O.O.O.O.O.&XO.O.Z &XO.O.O.&XO.O.O.O.O.O.O.O.O.O.O.O.O.O.Z O.O.O.O.Z O.O.O.O.O.Z &XO.O.O.O.O.O.O.O.O.O.O.O.O.Z &XO.O.O.O.O.O.Z O.&XZ O.O.O.O.O.&XZ O.O.O.O.&XO.O.Z O.O.O.O.J.O.Z &XJ.+.&X;X5X3X4.3.8.0.hXaX3X>.%.Z ",
"v.8 4 2 8 w l F.N H.J.O.Z Z J.Z O.O.O.O.O.&XO.O.O.Z O.O.O.O.O.O.Z &XO.O.O.O.O.O.O.O.O.O.&XZ O.O.O.O.O.O.O.O.&XO.O.O.O.&XO.O.O.O.Z O.O.&XO.O.Z O.Z O.&XO.O.O.O.O.O.O.O.O.O.O.L.&XO.O.O.O.O.O.O.O.S &X&XJ.&XO.O.Z O.O.O.O.O.&XO.O.O.O.&XO.O.&XO.O.O.Z O.O.O.O.O.O.O.O.O.O.O.O.Z &XO.O.O.O.O.O.O.O.O.O.Z &XO.O.&XZ Z +.*X$.:.e.aX9.0.0.aXr.:XH.l x.g.p.p.g.v.b.V.F.J.H.O.O.O.O.O.O.Z &XO.O.O.O.O.&XO.Z &XO.O.O.O.O.Z O.O.O.O.Z O.O.Z O.O.&XO.O.Z O.Z O.&XO.O.O.O.O.O.O.O.O.O.O.Z O.O.O.O.O.O.O.&XZ O.&XO.O.O.O.O.Z O.Z O.O.O.O.&XS O.O.O.O.&XZ O.O.O.O.O.O.O.O.O.O.O.O.&XO.O.O.O.&XO.O.O.&XO.O.Z &X&XO.O.O.O.&XZ O.O.O.&XZ O.O.O.O.O.O.O.O.O.O.O.O.O.O.&XZ &XO.Z *X;X-.3XzXaXfX8.fXpXr.:XD.t 8 4 4 2 g.r l Z.D.Z J.Z &XO.O.&XO.Z &XZ O.O.O.O.Z &XO.O.O.O.Z O.&XO.O.O.O.&XO.O.O.O.O.O.O.O.Z O.O.O.O.O.Z &XO.O.O.O.O.&XZ O.O.O.O.O.O.Z O.O.&XO.O.Z O.Z O.O.&XO.O.O.O.O.O.O.O.O.&XO.O.O.&XZ O.O.O.O.O.O.O.O.Z O.O.O.O.O.O.&XO.O.O.O.O.O.O.O.O.O.O.O.O.O.&XO.O.O.O.O.O.O.O.O.&XO.Z O.O.Z O.O.O.O.O.O.O.O.O.&X&XC *X&X#.>.*.y.0.2.8.2.4.*.>.;XZ ",
"w 8 4 s.j.y t x C H.Z O.&XJ.&XJ.O.O.&XZ O.Z O.O.O.&XO.O.O.O.O.O.O.O.O.&XO.O.O.O.O.O.O.O.O.O.&XZ O.O.Z &XO.O.Z O.O.O.O.Z O.&XO.O.&XO.O.O.O.O.&XO.O.O.O.O.O.O.Z &XO.O.O.O.O.O.S -XO.&XO.O.O.O.O.O.,XJ.O.O.O.O.O.O.O.O.O.O.O.Z O.O.O.O.Z O.O.Z O.O.O.&XO.O.O.O.O.O.O.Z &XO.O.O.O.O.O.O.O.O.O.O.O.O.O.J.O.J.O.&X&XZ Z *X;X4X:.zX5.8.0.0.5.r.$.N z j.g.2 p.s.j.B.z F.H.H.+.&XO.O.O.O.O.O.O.O.O.O.O.O.O.O.O.O.O.O.O.O.&XO.O.O.O.&XO.O.&XO.O.O.O.O.&XO.O.O.O.O.O.O.Z &XO.O.O.O.O.O.&XO.&XZ J.O.O.O.O.O.O.Z O.O.O.O.O.O.O.O.&XO.O.O.J.,XO.O.O.O.O.O.O.O.&XZ &XO.O.Z &XO.&XZ Z O.&XO.O.O.&XO.O.O.O.Z O.O.O.O.O.O.O.O.O.O.O.O.O.O.&XZ O.&XO.O.O.O.O.O.O.O.O.O.&XO.O.O.H.+.#.4X3XvXaX8.hX3.vX3X;XB B.8 g.2 p.g.r l x D.Z J.O.O.O.O.O.O.O.O.O.&XO.O.O.O.O.O.O.O.O.O.O.Z O.O.O.O.Z O.O.O.&XZ O.O.O.&XO.O.O.O.O.O.O.O.O.O.O.O.O.O.O.&XO.O.O.O.&XO.O.O.O.O.&XO.O.O.O.O.O.O.Z &XO.O.O.O.O.Z &XO.O.Z &XO.O.&XO.O.O.O.O.&XO.&XO.O.Z O.O.O.O.O.O.O.O.Z &XZ O.O.O.O.O.O.O.Z &XZ O.O.&XO.O.O.O.O.&XZ O.O.O.O.O.O.O.O.J.O.Z *XH.*XO.:X>.xXvX0.8.8.2.y.*.>.%.Z ",
"r 8 2 3 4 y B.M N H.Z O.&XC &XO.O.O.O.O.O.O.O.O.&XZ &XO.O.O.O.O.O.O.O.Z &XO.O.Z &XO.O.Z O.O.O.O.O.Z O.O.&XZ O.&XO.O.O.O.O.O.O.Z O.O.Z O.O.O.O.O.O.O.O.O.O.O.O.Z O.O.Z O.Z O.O.O.O.O.O.O.O.O.O.O.O.Z O.O.O.O.O.O.O.O.O.O.O.J.O.O.O.O.O.O.O.O.O.O.&XZ &XO.O.O.O.O.&XZ O.O.O.O.O.O.O.O.O.&XO.O.O.O.O.O.O.O.O.&XO.O.Z *X;X-.:.e.5.0.8.0.4.cX:XH.l 9 g.p.3 k.v.b.V.F.J.H.O.O.&XZ O.O.O.O.O.O.O.O.O.Z O.O.O.O.&XO.O.O.O.O.O.&X&XO.&XZ O.O.Z O.O.O.O.O.O.O.O.O.O.O.O.Z O.O.Z O.Z O.O.O.O.O.O.O.O.O.O.O.&XZ O.O.O.O.O.O.O.&X&XZ O.O.&X&X&XO.O.O.O.O.&XO.Z &XZ O.O.&XZ &XO.O.O.O.Z O.O.O.Z O.O.O.&XO.O.O.O.O.O.O.O.O.&XZ O.O.O.O.O.O.O.O.O.O.O.O.O.O.O.O.O.O.O.O.O.O.H.+.#.4X>.zXiX8.hX3.aXr.#.M t 9 4 2 2 7 r k x x Z J.O.O.O.O.O.O.O.O.O.&X&XZ O.Z O.O.O.O.O.O.O.O.O.O.&XZ O.O.O.O.O.O.O.O.O.O.O.J.Z &XZ O.O.O.&XO.O.O.O.O.O.O.&XO.&XZ O.O.&XZ O.O.O.O.O.O.O.O.O.O.Z O.O.O.Z O.O.&XZ O.O.&XZ O.O.O.O.O.O.O.O.O.O.Z O.O.&XO.O.O.O.O.O.O.O.&XO.O.O.Z &XO.O.O.&XO.O.O.O.O.Z O.O.O.&XO.O.O.O.O.O.&XO.&XO.O.O.O.J.&XZ *X*X*X5X3Xy.0.8.hXhXvX3X6X;XO.",
"v.7 s.4 j.w B.D.N C J.O.&XZ O.J.&XZ O.O.O.O.O.O.O.O.O.O.&XZ O.O.O.O.O.O.Z O.O.&XZ O.O.&XO.&XO.O.O.&XO.O.O.O.O.Z O.O.O.O.O.O.O.&XO.O.&XO.O.O.O.O.O.&XZ O.O.&XO.O.O.O.&XO.&XO.O.O.O.O.Z &XZ &XO.O.O.&XO.O.Z &XO.Z &XO.O.O.O.O.O.O.&XZ O.O.O.O.O.O.O.O.O.O.&XZ O.O.O.O.&XZ O.O.O.O.O.O.O.O.O.O.O.&XO.Z O.J.O.&XO.&XJ.+.;X-.:.r.3.8.0.0.4.r.$.F.B.j.g.p.2 s.x.B.z D.Z C O.Z O.Z O.&XO.O.O.O.&XZ O.O.Z O.O.O.Z O.O.O.O.O.O.O.Z O.O.O.O.O.&XO.O.O.O.O.O.&XZ O.O.&XO.O.O.O.&XO.&XO.O.O.O.O.O.O.O.O.O.O.O.O.O.O.&XZ O.O.O.O.O.O.O.O.O.J.Z O.O.O.O.O.O.O.O.O.O.O.O.O.O.O.O.O.O.O.O.O.&XZ O.O.&XZ O.O.O.O.O.O.&XZ O.O.O.O.O.O.O.O.O.&XO.Z O.O.J.O.O.O.O.O.O.O.O.O.&XO.H.*X;X4X*.zXiXfX8.iXy.r.$.M t 8 g.2 2 7 n.B.Z.D.Z J.O.O.O.&XO.Z O.Z O.O.O.O.O.&XO.O.&XZ O.O.O.O.&XO.O.O.Z &XO.O.O.O.O.O.O.O.O.O.O.O.&XO.O.O.Z O.O.O.O.O.O.O.Z O.O.O.O.O.O.O.O.O.O.O.O.O.&XZ O.O.&XO.O.O.&XO.O.O.O.O.O.O.O.O.O.O.Z &XO.O.O.O.O.O.O.O.O.O.Z &XO.O.Z &XO.O.O.O.O.&XZ O.O.O.O.O.O.O.&XO.O.O.&XZ O.O.O.O.&XO.O.Z O.Z O.O.J.O.J.*XH.*XO.;X>.3XvX0.8.hX8.pX3X6X;XO.",
"x.g.s.s.h.v.N.M H.H.Z O.&XJ.O.O.O.O.O.O.O.&XZ O.O.&XZ O.O.&XO.O.O.O.O.O.O.O.&XZ O.O.O.O.O.O.O.O.O.O.O.Z O.O.O.Z O.O.O.O.O.O.Z &XO.O.O.O.O.Z O.O.O.&XZ O.Z O.O.O.J.O.O.O.O.O.O.O.O.O.&XZ Z O.O.&XO.O.O.O.Z O.O.O.Z &XO.O.O.O.&XZ O.O.O.&XO.O.O.O.O.&XZ O.&XZ O.O.O.O.O.O.O.O.O.O.Z &XO.O.O.O.O.O.&XO.O.J.O.&XO.Z J.*X#.4X*.e.3.8.0.2.vXr.4XN V.8 s.s.a.s.v.b.V.F.Z F.J.O.Z &XO.O.O.O.O.O.&XZ O.&X&XO.&XZ O.&XO.O.O.&XZ O.O.&XO.O.O.O.O.O.O.O.O.O.Z &XO.O.O.O.O.&XO.O.O.O.O.O.O.&XO.O.Z O.O.&XO.O.O.O.O.O.O.O.O.O.O.O.O.O.O.O.&XZ &XO.O.O.O.O.O.O.J.O.O.O.&XO.O.O.O.O.O.O.O.&XZ O.O.&XO.O.O.Z O.O.O.&XO.O.O.O.O.O.O.O.Z O.O.O.O.O.O.O.&XZ O.O.&XO.O.O.&XO.O.O.H.#.;X$.3XvXiXfX2.3.aX*.:XD.B.w 4 3 7 7 9 l D.x Z J.J.O.O.&XO.O.O.&XO.O.O.Z O.O.O.&XO.O.O.O.O.O.O.Z O.O.O.O.O.O.&XO.O.O.O.O.O.O.O.O.O.O.O.O.O.O.O.O.O.&XO.Z O.&XO.O.O.O.O.O.&XO.O.O.O.O.O.Z O.O.O.O.O.O.O.O.O.&XZ O.O.&XO.O.O.Z O.O.Z O.O.O.&XO.O.O.O.O.O.O.O.Z O.O.O.O.O.O.O.O.O.O.O.O.Z O.O.O.O.O.O.Z O.O.O.O.O.O.O.O.O.O.O.O.Z O.O.O.&XO.J.*X&X#.>.3Xy.iXfXfXiXpX6X3X;XJ.",
"v.g.2 s.h.n.N.F.N F.J.&XZ J.J.&XO.O.O.O.O.O.O.O.O.O.O.O.O.Z O.&XO.O.O.O.O.O.O.O.O.&XZ O.O.O.O.O.O.&X&XO.Z &XO.&X&XO.O.O.O.O.O.O.O.O.O.O.O.&X&XZ O.O.O.O.&XO.O.&XO.O.O.O.O.O.O.&XO.O.O.O.&XO.O.O.O.&XO.O.&XO.O.O.O.O.O.O.O.O.O.O.O.O.O.Z O.O.O.O.O.O.O.O.O.O.O.&XO.&XZ O.O.&XO.O.O.O.&XZ O.O.J.O.O.&XO.J.&XZ &XZ Z *X;X4X3Xe.5.8.2.3.5.r.4XN V.x.s.2 2 4 w l z F.J.H.&XO.Z &XO.O.O.O.O.O.O.O.O.O.O.O.O.O.O.O.O.Z O.O.O.O.O.Z O.&XO.O.O.O.Z &XO.O.O.O.O.O.&XO.O.O.Z O.O.O.O.O.O.Z O.O.&XO.Z O.O.Z O.O.O.O.O.&XO.O.O.J.O.O.O.O.O.O.Z O.O.O.O.O.O.O.O.O.O.O.Z O.O.O.O.O.O.O.O.O.O.O.O.Z O.O.O.&XO.O.O.Z O.&XZ &XO.O.O.O.&XO.O.O.O.O.O.O.O.O.O.O.O.O.O.O.&XO.O.O.H.+.>X4XxXzXiXfXiXfX4.xX#.D.t w g.2 2 h.r l D.M &XZ &XZ O.Z O.O.O.O.O.O.O.&X&XO.O.Z O.O.O.O.O.O.O.&XO.O.&XZ Z &XZ O.O.O.O.O.O.O.O.O.O.O.O.O.O.O.O.O.O.O.O.O.O.O.O.O.O.O.O.O.Z O.Z &XZ &XO.&X&XO.O.O.O.O.O.O.O.O.O.O.O.Z O.O.O.&XO.O.&XO.O.O.Z O.O.O.O.O.Z &XO.&XO.O.O.O.Z &XO.O.O.Z &XO.&XO.O.Z &XZ O.&XO.O.Z O.O.O.O.O.O.O.O.O.&XO.J.O.O.*XC *X&X;X5X:.4.iXfXfXiXpX3X3X;XJ.",
"v.g.s.s.8 r B.D.H.F.Z O.J.J.J.&XO.O.Z O.O.O.O.&XO.O.Z O.O.O.O.O.O.O.O.O.O.O.O.O.O.O.O.O.Z &XO.O.O.O.O.O.O.O.O.O.O.O.O.O.O.O.O.O.&XO.O.O.O.O.O.O.&XO.O.&XO.O.O.O.O.O.O.O.O.O.O.Z O.O.O.O.O.O.O.O.O.O.&XO.O.&XO.O.O.O.O.O.O.O.O.O.&XO.O.O.O.O.Z &XO.O.Z O.O.O.O.O.O.O.&XO.O.O.&XO.O.O.O.O.O.O.O.O.J.&XZ J.O.J.O.J.J.*X;X4X*.e.aX8.0.3.4.:.$.N t j.h.2 p.s.x.N.A.N C J.&X&X&XO.O.O.O.O.O.O.O.O.O.O.O.O.&XO.O.O.O.&XO.O.O.O.O.&XO.O.O.O.O.O.O.O.O.O.O.O.O.O.Z O.O.O.&XO.O.O.O.O.O.O.O.O.O.O.O.O.O.&XO.O.O.Z O.Z O.O.O.O.O.O.O.O.O.&XO.O.O.&XO.O.O.O.O.O.O.O.O.O.O.O.O.Z Z &XO.O.O.&XO.O.O.&XO.&X&XO.O.&XZ O.&XZ O.O.O.O.O.&XO.J.O.O.O.O.O.O.O.O.O.Z O.O.O.O.J.O.J.+.$.-.:.e.aX8.iX2.4.xX#.D.b.9 g.s.2 g.v.k x x *XC &XO.O.O.O.O.O.O.O.O.O.O.O.O.O.O.O.O.O.O.&XO.O.O.O.O.O.O.O.O.&XO.O.O.Z &XZ &XO.O.O.O.O.O.O.O.O.O.&XZ O.Z O.O.O.&XO.&XO.O.O.Z O.O.O.O.O.O.O.O.O.O.O.Z &XO.O.O.O.&XO.O.O.&XO.&XO.O.O.O.O.O.O.O.O.O.Z O.O.O.O.&X&XO.O.O.&XZ O.Z O.&XO.O.O.O.O.&XO.O.O.O.&XZ &XO.O.O.&XZ &XO.O.O.O.O.J.O.J.O.J.+.+.;X6X3XvXiXfXfXiXaX3X6X;XJ.",
"v.g.s.s.j.n.N.x J.H.J.O.J.J.Z Z O.O.&XO.&XO.O.Z O.O.&XO.O.&XZ O.O.O.O.J.O.O.O.O.O.O.O.O.O.O.&XZ O.O.O.O.O.O.O.O.O.O.Z &XO.O.O.O.Z O.O.O.O.O.O.O.O.O.O.Z O.Z &XO.O.O.O.&XZ O.O.O.O.O.O.O.O.O.O.Z Z O.O.O.O.Z O.O.O.O.O.O.Z &XO.O.Z O.O.&XO.O.O.O.O.O.&XO.O.&XZ O.O.O.O.O.Z O.O.O.O.O.O.O.O.O.O.O.Z &X&XJ.O.O.+.J.J.*X;X-.3Xe.5.8.0.8.4.:.#.N B.j.4 k.2 k.n.t Z.B N J.O.Z J.&XO.O.&XO.O.O.Z &XO.O.O.O.Z O.O.O.O.O.O.&XZ O.O.O.O.Z Z &XO.O.O.J.O.O.O.O.O.&XO.O.&XZ O.O.O.&XZ O.O.O.O.O.O.O.O.&XO.O.O.O.O.&XO.O.O.O.O.O.O.O.&XO.O.Z O.O.O.O.Z &XO.O.O.O.O.O.O.O.O.O.O.&XO.O.O.O.O.O.O.O.O.O.O.Z Z O.O.O.O.O.O.O.O.O.O.O.O.Z O.O.O.O.O.O.&XZ O.O.O.&XO.O.O.O.O.O.J.+.@.;.>.t.iXhXhXhXpXr.:XM t 9 4 2 3 s.r N.Z.M Z C &XZ &XO.O.O.O.O.O.O.O.O.O.Z &XO.O.O.Z &XZ O.O.O.O.O.O.O.O.O.O.O.O.O.O.O.O.O.O.O.O.O.J.O.O.O.Z &XO.O.O.&XO.O.O.Z O.Z O.O.O.&XO.O.O.O.O.&XO.Z &XO.O.&XZ O.O.O.O.O.O.O.O.O.O.Z O.O.O.O.J.O.O.O.O.O.&XO.O.O.O.O.Z O.O.O.O.O.O.&XO.O.Z O.O.O.O.O.O.O.O.&XO.O.O.O.O.&XO.O.Z O.O.O.O.O.O.O.O.&XH.*XO.;X5X:.y.fX8.8.iX4.3X6X#.J.",
"v.h.p.s.j.v.N.M H.H.J.O.&XZ O.O.O.O.Z O.Z O.&XO.O.O.O.O.O.O.&XO.O.O.O.O.Z &XO.O.&XO.O.&XO.&XO.O.Z &XO.O.O.O.O.O.O.&XO.O.Z O.O.O.Z O.O.O.O.O.O.O.O.O.O.Z &XO.O.O.O.O.O.O.O.&XO.O.O.O.O.O.&XZ O.&XO.Z O.O.O.O.O.O.&XO.O.&XO.O.O.O.O.O.O.O.O.Z &XO.O.O.O.O.O.O.&XO.O.O.Z &XO.O.O.O.&XZ O.O.O.O.O.O.Z &XO.J.O.J.O.J.H.+.:X-.3Xy.5.0.8.8.4.:.$.N l j.2 2 2 h.w t D.M N J.O.Z &XO.O.&XO.O.O.O.Z &XO.O.O.O.O.O.O.O.O.O.O.O.O.O.O.O.O.O.O.O.O.O.O.O.O.O.O.O.O.Z Z &XO.O.O.&XZ O.Z O.O.&XO.O.O.O.O.O.O.O.O.O.O.O.Z O.O.O.O.O.O.O.O.O.Z &XO.&XO.O.O.O.O.O.O.&XO.O.O.O.&XO.O.O.O.O.O.O.O.Z O.O.Z &XO.O.O.O.O.O.O.O.O.O.O.O.O.O.O.O.O.O.O.O.S -XO.O.O.O.Z &XO.O.J.O.O.O.Z +.#.5X>.zXhX0.fX8.vX3X#.F.l w 4 3 2 p.9 k D.x O.Z O.O.O.O.O.O.O.O.O.Z O.O.O.O.&XZ O.O.O.O.O.O.&XZ O.J.O.O.O.O.O.&XO.O.Z O.O.O.&XO.O.O.O.O.&XO.O.&XO.O.O.O.O.O.O.O.O.O.O.&XO.O.O.O.O.O.O.Z O.&XO.O.O.O.O.O.O.O.O.O.O.Z &XO.O.O.O.O.O.O.O.O.O.O.&XO.O.O.O.O.O.O.O.O.O.O.O.O.O.O.Z &X&XO.O.O.O.O.O.O.O.&XO.O.O.O.O.Z O.Z O.O.Z O.O.O.&XO.O.&XZ *XO.;X5Xr.vXiXfXhXhX4.3X3X#.O.",
"r 7 s.s.8 v.N.D.C H.J.Z O.&XO.O.O.O.&XO.O.O.O.O.O.O.O.O.Z O.O.O.&XZ &XO.O.O.O.O.Z O.O.Z O.O.O.O.O.O.&XZ O.O.O.O.O.O.Z O.&XO.O.O.&XO.O.&XO.O.O.&XZ O.O.O.O.O.O.O.O.O.O.O.O.Z O.O.Z &XO.O.O.O.O.O.O.&XO.O.O.O.J.O.O.O.O.Z O.&XZ O.O.O.O.O.O.O.O.O.O.O.O.O.Z O.O.O.&XZ O.O.O.O.Z &XO.O.O.&XO.O.O.O.&XO.O.J.O.J.+.J.J.+.;X-.:.y.5.8.8.fX4.:.$.F.B.7 g.2 a.8 w t D.F.F.O.Z J.&XO.O.O.O.O.O.O.O.O.&XZ O.J.O.O.Z &XO.O.O.&XO.O.O.O.&XO.O.&XO.Z O.O.O.O.O.O.O.O.O.O.O.Z O.O.O.O.&XO.O.O.Z &XO.O.O.O.&XZ Z &X&XO.&XO.O.&XZ O.O.O.O.O.O.O.O.O.O.Z O.&XZ O.O.Z &XO.&XZ Z O.O.O.O.O.Z &XO.&XO.O.O.O.O.O.O.O.O.Z &XO.O.O.O.O.O.&XO.O.O.Z &XO.L.O.O.O.O.O.O.O.&XZ O.O.O.O.H.>X#.5X5XzXhXhXhXfXvXxX:XF.t w 7 4 2 7 r N.Z.D.O.C &XO.O.O.O.O.J.O.O.&XO.J.O.O.O.O.O.&XZ O.O.O.O.O.O.O.O.O.O.O.O.Z O.O.&XO.Z &XO.O.O.&XZ O.Z O.O.O.O.&XO.O.O.O.O.O.O.O.O.Z &XO.O.O.O.O.O.O.O.Z O.O.O.O.O.O.Z &X&XZ O.O.O.O.O.O.O.O.O.O.Z &XZ &XZ O.O.O.O.O.O.O.Z O.O.O.O.O.&XO.O.O.O.O.O.&XO.O.O.O.O.Z O.O.O.O.O.O.O.&XO.O.O.&X&XO.Z Z &X*XH.*X&X#.5X*.y.iXfXfX3.5.3X>.#.Z ",
"r g.p.s.j.y k x J.F.Z O.&X&XO.O.O.O.O.O.O.O.O.O.Z &XO.O.&XO.Z O.O.&XZ O.O.O.O.&XZ O.O.O.Z O.O.Z O.O.O.O.O.J.O.O.O.O.O.&X&XO.&XZ O.O.O.O.O.&XO.Z &XO.O.O.O.O.O.&XO.O.O.O.O.O.O.O.O.O.O.O.O.O.O.O.O.O.O.O.O.O.O.O.O.O.O.O.O.O.O.O.O.O.O.O.O.O.O.O.Z &XO.O.&XO.O.O.O.O.O.O.O.&XZ O.O.O.O.O.&XO.&XZ &X&XO.J.O.&XO.Z J.*X#.-.*.y.5.0.hXiX4.:.#.F.B.j.g.2 a.7 w b.x N F.O.Z J.O.O.O.O.O.O.O.O.O.O.O.O.O.O.O.O.&XZ O.O.O.Z O.O.Z &XZ O.O.O.O.&XZ &XO.O.O.O.O.O.O.O.O.&XO.O.O.&XO.O.O.O.&XZ O.O.O.O.O.O.O.O.&XO.O.O.O.Z &XO.O.O.O.O.O.O.Z O.O.Z O.O.O.O.O.&XZ O.O.O.O.O.&XO.&XZ O.O.O.O.O.O.O.O.Z &XO.O.&XO.Z O.O.O.Z &XO.O.O.O.O.&XO.O.&X&XO.O.O.O.O.O.O.Z Z O.O.O.J.*X+.5X6Xt.0.8.iXhXpXxX:XF.B.0 s.s.p.g.x.k Z.D.&XC O.O.O.O.O.O.O.O.O.O.O.O.O.O.O.O.O.O.O.O.O.O.O.&XO.O.O.&XO.O.O.O.Z O.O.O.O.O.&XZ O.O.O.O.O.O.O.O.O.Z O.O.Z &X&XO.O.O.O.O.O.O.Z &XO.O.O.O.O.O.O.&XO.O.J.O.O.O.O.O.O.O.O.O.J.O.O.O.O.O.O.O.O.O.&XO.&XZ Z &XO.O.&XO.Z &XO.&XZ O.O.O.O.O.O.Z O.O.O.O.&XZ O.O.O.O.O.O.O.&X&XZ O.O.&XO.J.O.Z &XH.+.&X#.5X:.vXiXfXfXiXvX:.:.#.O.",
"r 7 2 p.j.v.N.D.Z C H.&XZ Z O.&XO.O.O.O.O.&XZ O.O.O.O.O.O.O.&XO.O.O.O.O.O.O.O.O.O.O.&XO.&XO.O.&XO.O.O.O.O.O.O.O.O.O.O.O.Z O.O.O.O.Z &XO.O.Z O.O.O.O.O.O.O.O.O.Z O.Z &XO.&XO.O.Z &XO.Z &XO.O.O.O.Z &XO.O.O.O.O.O.Z &XO.O.Z &XO.O.O.O.O.O.J.O.O.O.O.O.O.O.O.O.Z &XO.O.O.O.O.O.O.O.O.O.O.O.Z O.O.O.Z &XO.J.O.O.&XZ H.*X#.5X*.zX5.hX8.fX5.3X:XF.B.8 7 p.p.8 v.n.D.D.F.O.O.J.&XZ O.J.Z &XO.O.O.O.O.O.O.O.O.O.O.O.O.O.O.O.O.O.O.O.&XO.&XZ O.O.O.O.O.O.O.&XZ O.O.&XO.O.&XO.O.Z O.Z &XO.O.O.O.O.O.&XZ O.O.O.Z O.O.O.O.O.O.O.O.&XZ O.O.O.&XO.O.&XO.O.O.O.O.O.O.O.O.O.O.O.Z O.O.O.O.O.O.&XZ O.O.O.O.O.O.O.Z O.&XO.O.O.O.O.Z O.&XO.O.Z O.O.Z &X&XZ O.O.O.O.O.&X&XO.Z O.H.;X+.5X6XzXiXfXfXiXvXr.#.F.b.w 4 a.p.2 r N.Z.D.&XH.&XO.O.O.O.O.O.O.O.O.O.O.O.O.O.O.O.O.O.O.&XZ O.O.O.O.O.Z O.O.O.O.&XO.O.O.O.O.O.O.O.O.O.O.O.&XZ O.O.O.O.O.O.O.Z O.Z O.O.O.O.O.O.O.&XZ O.O.O.O.O.O.O.O.O.O.O.O.O.&XZ O.O.O.O.O.O.O.O.O.O.O.O.O.O.O.O.O.O.O.O.O.O.O.O.O.O.O.O.O.O.O.O.O.O.O.O.J.O.O.O.O.O.O.&XZ O.O.O.O.O.O.O.O.Z O.J.O.J.O.J.*X*X;X>.:.y.0.fX8.0.pX*.>.#.J.",
"w 7 4 4 8 y t x O.C J.Z O.O.O.O.O.&XO.O.Z O.O.&XZ O.O.&XO.&XZ O.O.O.Z &XO.O.O.O.O.O.O.O.O.O.O.O.Z O.O.O.O.&XO.Z O.O.Z &XO.O.O.O.O.O.Z O.O.O.O.O.O.O.O.O.O.O.O.O.O.&XO.O.O.O.O.O.O.O.O.O.O.O.O.O.O.O.&XO.O.O.O.O.O.&XO.O.O.O.Z O.-X&X&X&XZ &XO.O.O.O.O.&XO.&XZ O.O.O.O.&X&XO.O.O.O.O.O.O.Z O.O.O.O.&XO.J.O.J.O.J.J.+.#.4X3XzXaXfX0.hXvXr.#.N B.8 g.2 2 8 r t M D.F.J.O.&XO.O.&XO.O.O.O.O.O.O.O.O.O.O.O.O.&XZ O.&XZ O.O.&XO.&XZ O.O.O.O.O.O.O.O.O.O.Z &XO.O.O.Z O.O.O.&XO.O.O.O.O.O.O.O.O.O.O.O.O.O.O.O.O.O.O.Z O.O.O.O.&XO.O.O.&XO.&XO.O.Z &XO.O.O.&XO.Z O.O.&XZ O.O.O.O.Z O.O.O.O.O.O.Z O.O.O.O.O.O.O.O.&XO.O.O.O.O.Z &XO.O.O.&X&XZ &XO.O.Z &XO.O.O.J.O.J.O.J.+.;X;.5XzX3.hXfX0.4.xX:XN l w s.2 s.4 x.k Z.D.O.Z &XO.O.O.O.O.O.O.&XZ O.O.O.O.Z &XO.O.J.O.O.O.O.O.O.&XZ O.O.&XO.O.O.&XO.O.O.O.&XO.O.&XO.O.&XZ O.O.&XO.O.O.O.&XO.O.&XO.O.O.O.O.&XO.O.O.Z O.O.O.O.O.O.O.O.&XZ O.O.&XO.O.O.Z &XO.O.O.O.O.&XO.O.O.O.O.O.O.O.O.O.O.O.Z &XO.O.O.O.O.O.O.O.O.O.&X&XO.O.Z O.O.O.O.O.Z O.O.O.O.O.O.O.O.O.O.J.Z &XO.J.&X+.$.>.*.e.fX0.fXhXy.r.6X;X&X",
"r 7 2 4 9 r t x &XC Z &XO.O.Z O.O.Z O.O.&XO.O.O.O.O.Z O.O.O.O.O.&XZ O.O.O.O.O.O.O.O.O.J.O.O.O.O.&XO.O.O.O.O.O.&X&XZ O.O.O.O.O.O.O.&XO.&XO.O.O.O.O.O.O.O.O.O.O.O.O.Z &XZ O.O.Z O.O.O.Z &XO.O.O.O.O.O.O.O.&XO.O.O.O.Z O.O.O.O.&XO.S L.&XZ O.O.O.O.O.O.O.Z O.O.O.O.Z O.O.O.Z O.O.O.O.O.O.O.&XO.O.O.&XO.O.J.O.O.&XZ J.+.#.4X3XzXiXhXhXhXpX3X:XF.B.j.h.2 p.7 v.b.D.D.F.J.O.Z O.O.&XO.O.&XZ O.O.O.O.&XO.O.O.O.O.O.O.O.O.O.O.O.O.O.O.O.O.O.O.O.O.&XO.O.O.O.O.O.O.O.&XO.O.Z Z O.O.O.O.O.&XO.Z &XO.O.O.O.O.O.O.O.O.O.&XO.O.O.O.O.O.Z O.O.O.O.O.O.O.O.O.&XO.O.O.&XO.O.O.O.&XO.O.O.&XO.O.O.Z &X&XO.&XO.O.O.O.&XO.O.Z O.O.O.O.O.O.O.O.O.O.Z O.O.O.O.O.O.O.O.O.O.J.O.J.o.J.;X;X;.6XzX3.fXfX8.vXr.:XN b.w 4 2 2 7 v.z x D.O.H.O.O.O.O.O.Z &XO.O.O.O.O.&XO.O.O.Z O.O.O.O.O.O.O.O.O.O.O.O.Z O.&XO.Z O.O.O.O.O.O.O.Z O.O.O.O.O.O.Z O.Z &XO.O.O.O.O.O.Z &XO.O.Z O.O.&X&XO.Z &X&XZ O.O.O.O.O.O.O.O.O.O.O.O.O.O.O.&XO.O.Z O.O.O.O.J.Z &X&XO.O.O.O.&XZ O.O.O.O.O.O.O.O.O.O.Z Z O.O.&XO.O.O.O.O.&XO.O.&XZ O.O.Z O.Z &X&XZ O.O.H.*XO.;X5X*.e.iXhXhX2.aX*.:.#.O.",
"r 7 7 4 9 r l M N H.J.O.O.O.&XZ O.O.O.&XO.O.O.&XO.O.O.O.O.O.O.O.O.O.O.O.O.O.O.Z O.O.O.O.O.O.O.O.O.O.O.O.O.O.O.O.O.O.O.O.&XO.&XZ O.O.O.O.O.Z &XO.O.&XO.O.J.O.&XO.O.&XO.O.O.O.&XO.O.O.&XZ O.O.J.O.O.O.O.Z O.Z O.O.Z O.O.O.O.O.O.&XO.&XO.O.O.O.O.O.O.O.O.O.O.O.O.O.&XO.O.O.O.O.O.O.Z O.O.O.&XO.&XZ J.&XZ J.O.O.O.J.H.*X#.5X>.e.3.8.8.iXpXxX#.N B.8 g.2 2 7 w t M D.F.Z O.J.O.Z &XO.O.O.O.O.Z &XO.O.O.O.O.O.O.O.&XZ O.O.Z O.O.O.O.O.O.O.O.Z O.Z O.O.Z &XO.O.O.O.&XZ &XO.O.O.O.O.O.Z O.O.O.O.O.O.Z O.O.S &XO.O.O.O.O.&XO.O.O.&XZ O.O.Z O.O.O.O.O.O.Z Z O.O.O.O.O.O.O.Z O.O.O.O.O.O.O.O.O.&XO.O.O.O.&XO.O.O.O.O.O.&XO.O.O.O.O.O.O.Z O.J.O.O.O.O.O.O.&XO.O.O.O.J.O.H.-X*X-.6XzX5.hXiXhX5.r.$.F.t w 4 2 2 7 9 V.x Z.O.C &XO.Z &X&XO.Z O.O.O.O.O.O.O.O.O.&XO.O.O.O.O.O.O.O.O.Z O.O.O.O.O.O.O.O.O.O.Z Z O.O.O.O.O.O.O.O.&XO.O.O.O.&XZ O.Z O.Z O.O.&XZ O.O.O.O.O.O.O.O.O.O.O.O.O.O.O.O.O.O.O.&XO.&XO.O.O.Z &XZ O.O.O.O.O.O.O.O.&XO.O.O.O.O.O.O.O.O.J.O.O.O.O.O.O.O.O.O.O.O.O.O.O.O.&XO.&XZ O.O.O.O.&XO.O.O.O.O.O.O.J.*XO.;X5XxXzXiXfX8.3.5.r.>.#.J.",
"e 7 2 3 0 e l x B H.&XO.C &X&XO.&XO.O.Z O.O.O.Z O.O.O.&XO.O.O.O.O.O.O.O.O.O.O.&XO.&XZ O.O.O.O.O.O.O.O.O.&XZ O.O.O.O.O.O.Z O.O.O.O.Z &XO.O.O.O.O.O.Z O.O.O.O.Z O.O.O.O.O.O.O.O.O.O.O.O.O.O.O.O.O.O.O.O.&XO.&XO.O.&XO.O.O.O.O.O.Z O.Z O.O.O.O.O.&XO.Z &XO.&XZ O.O.O.O.Z &XO.O.O.O.&XO.O.O.Z O.O.O.Z &X&XJ.O.&X+.J.J.*X;X5X:.y.5.8.2.hX4.3X:XN B.7 7 2 2 7 w n.M M F.J.O.&XO.O.&X&XO.O.O.O.O.O.O.Z &XO.Z &XO.O.O.O.O.O.&XO.O.O.O.O.O.O.O.&XO.O.O.O.O.O.O.O.O.O.O.O.O.O.O.O.O.O.O.&XO.Z &XO.O.O.&XO.-X,XZ O.O.O.&XO.Z O.&XZ O.O.O.O.&XO.O.Z O.O.O.O.&XO.O.O.Z &XO.O.O.O.&XO.O.&XZ O.O.O.Z O.O.O.O.Z O.&XZ O.O.O.O.O.O.O.O.O.O.O.&XO.O.O.O.O.O.O.O.Z O.O.O.O.Z Z J.%.;X-.6XvX5.fX0.gXvXr.$.F.B.w 4 2 2 7 9 k x D.O.Z O.O.O.O.O.O.&XO.O.O.&XO.O.Z Z &XO.O.O.O.&XO.O.O.O.O.&XO.O.&XZ O.O.O.O.O.O.&X&XO.O.O.Z &XO.O.O.Z O.O.&XO.O.O.O.&XO.&XO.O.O.O.O.O.O.O.O.O.O.O.O.O.O.O.&XZ O.O.&XZ O.Z O.O.O.O.O.O.O.O.O.O.O.O.O.O.O.O.Z O.O.O.O.O.O.O.O.O.O.O.O.O.Z O.O.O.&XO.O.O.O.O.Z &XO.O.O.O.O.O.O.O.O.O.O.O.O.O.O.O.J.*XO.;X5X3XzX2.0.8.8.5.:.=.#.Z ",
"y 7 4 7 0 y l M M C &XO.Z O.J.O.Z O.O.O.O.O.O.O.O.O.Z &XO.O.O.O.O.O.O.O.O.O.O.O.O.O.O.O.O.&XO.Z O.O.O.Z O.O.O.Z O.O.O.O.O.O.&XZ O.O.O.O.&XZ O.O.O.&XZ O.O.O.O.O.Z O.O.O.O.Z &XO.O.O.O.O.O.Z O.O.O.O.O.O.Z &X&XZ O.O.&XZ O.O.O.O.O.O.O.O.&XO.O.Z &XO.&XO.O.O.O.O.O.O.O.O.O.O.O.O.O.O.O.O.O.O.&XO.Z &XO.J.O.J.O.J.H.+.;X5X3XzXaXhX8.iXpXxX#.C B.j.g.2 2 7 r b.M D.F.J.O.Z O.&X&XO.O.J.O.O.O.O.O.O.Z O.O.O.O.O.O.O.O.O.O.Z &XO.O.O.O.O.Z O.O.O.&XO.O.O.&XO.O.O.O.O.O.O.Z &XO.O.J.O.O.O.O.O.Z O.O.O.C O.O.O.O.&XZ O.O.O.O.O.O.O.O.O.O.O.O.&XO.O.O.O.O.O.O.O.&XO.O.O.O.&XO.Z O.O.O.O.O.O.O.O.O.O.O.O.O.O.O.O.O.&XZ O.Z &XZ O.O.O.O.O.O.O.O.&XZ O.O.O.O.O.O.O.&XO.Z O.;X-.6Xe.5.fX2.fXaXr.$.F.B.9 s.2 2 7 r z x D.Z J.&XO.O.O.O.O.O.O.O.O.O.Z O.O.O.O.O.O.O.O.Z O.O.&XO.O.O.O.O.O.&XO.O.O.Z &XO.&XZ O.&XZ O.O.O.O.O.O.O.O.Z &XO.O.O.O.O.&XO.O.O.O.&XO.Z &XO.O.O.O.O.O.Z &XO.O.O.O.O.Z O.O.&XO.O.O.O.O.O.O.O.O.&XO.O.O.O.O.O.&XZ O.O.O.O.O.O.O.&XO.O.Z &XO.O.O.O.O.O.O.O.O.O.O.Z &XO.O.O.O.Z O.O.O.O.O.O.&XJ.Z J.+.O.#.6Xr.y.3.fX8.3.pXr.6X;XJ.",
"e 7 4 2 0 r l M F.N +.O.J.&XO.Z O.O.O.O.O.O.O.O.&XZ O.O.O.O.O.O.O.O.O.O.&XZ &XO.&XZ O.O.O.O.O.&XO.O.O.&XO.&XO.&XO.O.O.O.O.O.O.O.O.O.&XZ O.O.O.O.O.O.O.O.O.O.O.O.O.O.&XO.O.O.O.O.&XO.O.O.O.&XO.O.O.O.O.O.O.O.O.O.O.O.O.O.O.O.O.O.O.O.O.O.O.O.O.O.O.Z Z O.O.O.O.O.O.O.&XZ J.O.O.O.O.O.O.O.O.O.Z O.&XO.O.J.O.J.+.Z Z &X#.4X6XvXaX8.hXhXpX*.:XF.B.j.g.2 s.g.x.b.M D.F.J.O.J.O.Z &XO.O.O.O.O.Z &XO.&XO.O.O.O.O.O.O.O.Z O.O.O.O.O.O.O.O.O.&XO.&XO.O.Z &XO.O.O.O.O.O.O.&XO.O.O.O.O.O.O.O.O.&XZ &XO.O.O.O.O.O.O.O.O.O.O.O.O.O.J.O.O.O.O.O.O.O.O.O.O.O.&XO.O.Z O.Z O.O.O.O.O.O.&XO.O.Z O.&XZ O.O.O.O.O.O.O.O.O.O.O.Z &XO.O.O.&XO.O.&XO.O.O.O.O.O.O.O.O.O.&XO.O.O.H.@.Z -X;X-.3Xe.4.8.2.fXvXr.:XF.B.w s.2 2 g.r V.x Z.O.C O.O.O.O.O.O.O.O.O.O.O.&XO.&XO.O.Z O.O.O.O.O.O.Z O.O.O.O.Z O.O.O.O.O.O.O.O.O.O.O.O.O.O.O.O.O.O.O.Z O.O.O.O.O.O.O.O.O.O.O.&XZ Z O.O.O.O.&XO.O.O.O.O.O.O.O.O.O.O.&XO.O.Z O.O.O.O.O.&XO.&XZ Z O.O.O.O.O.O.O.&XO.O.O.O.O.Z &XZ O.O.&XO.O.O.O.O.O.O.O.O.&XZ O.O.O.O.O.O.O.&XO.O.O.O.O.O.O.J.O.J.*XO.#.>.*.y.3.0.8.fXy.r.:.#.Z ",
"y 7 4 5 8 y t x M C O.O.H.J.Z O.O.O.O.O.Z O.O.O.O.O.O.O.O.O.O.O.Z &X&XO.O.&XZ O.O.O.O.O.Z O.O.O.&XO.O.O.O.Z O.O.Z &XO.O.O.O.O.&X&XO.O.O.O.O.O.O.Z O.&XO.&XO.O.O.&XO.Z O.O.O.O.O.Z O.O.O.O.O.O.O.Z O.O.O.O.O.&XO.O.O.&XO.&XO.O.O.O.O.O.Z Z O.O.O.O.O.O.O.O.O.Z O.O.O.O.O.O.O.O.O.O.O.Z &XO.O.O.&X&X&XO.J.O.&XO.J.J.*X;X5X6XzXaX2.2.fXpXxX#.N B.9 g.4 p.7 v.y D.D.F.Z O.J.O.O.&XO.O.O.O.O.O.O.O.O.O.O.O.&XO.O.O.O.&XO.O.O.O.O.O.O.O.O.O.O.Z O.&XO.Z O.O.O.O.O.O.O.Z O.O.O.O.O.O.O.&XO.O.O.O.O.O.O.O.O.O.&XZ O.O.O.O.O.O.O.O.O.O.Z O.O.O.O.O.O.O.Z O.O.&XO.O.O.O.O.O.O.O.O.&XO.&XO.O.O.O.O.Z &XO.&XO.&XO.O.O.&XZ O.O.&XZ O.O.Z &XO.O.O.O.O.O.O.O.O.Z O.O.O.J.Z L.+.#.4X>.vXaXfX0.fXpXr.#.F.t x.4 4 p.g.j.N.A.D.O.H.&XO.O.O.O.O.O.O.O.O.O.O.O.Z O.O.&XO.O.O.O.O.O.O.Z &XO.O.&XO.Z O.O.O.O.O.Z O.O.O.O.O.O.&XO.O.O.O.&XO.O.O.O.O.O.O.O.&XO.O.O.O.O.O.O.O.O.Z O.O.O.O.O.O.&XO.O.O.O.O.&XZ O.O.O.Z &XO.O.O.O.O.O.O.O.O.O.Z O.O.C -XO.O.O.O.Z O.O.O.O.O.O.O.O.O.O.O.J.O.O.O.O.O.O.O.O.O.O.&X&XO.&XZ O.O.O.O.O.O.Z *XO.+.>.*.y.3.0.fXfX5.*.:.#.Z ",
"r 7 4 2 7 w l x D.H.O.&XJ.J.J.O.&XO.Z &X&XO.O.O.O.O.O.O.O.O.J.O.O.O.O.Z O.O.O.O.O.O.O.O.&XO.O.O.Z O.O.O.O.O.O.O.O.O.&XZ O.O.O.O.Z O.O.O.O.O.O.O.&XO.O.O.Z O.O.O.O.O.&XO.O.Z &XO.O.O.&XO.Z &XO.&X&XO.O.O.O.O.Z O.O.O.Z O.Z O.&XO.&XZ O.&XO.&XO.O.O.&XO.O.O.O.&XO.O.O.O.O.O.O.O.O.&XZ O.O.O.O.O.O.Z &XO.J.&XZ O.J.Z +.;X$.6XzXaXgXfXfXpXxX:XN N.j.h.2 p.g.x.n.M D.F.J.O.&XZ O.&XO.O.O.O.O.O.Z &XO.&XO.O.Z Z &XO.O.O.O.O.O.O.O.O.J.Z &XO.O.O.O.O.O.O.O.&XZ Z &XO.O.O.O.O.O.O.O.O.O.Z O.O.O.O.O.O.&XZ O.O.O.&XO.O.O.O.O.O.O.O.O.O.&XO.O.O.O.O.J.O.O.O.O.O.O.O.O.O.O.&XZ O.O.Z O.O.O.O.O.O.O.O.O.Z O.O.Z O.O.O.O.O.O.O.O.O.O.O.O.O.O.O.O.O.O.&XZ O.&XO.O.&XO.&XZ Z +.;X4X>.zXaX8.hX0.pXr.:XF.B.w s.p.p.p.j.k x D.&XC &XO.O.O.O.O.O.J.O.O.O.O.O.O.O.O.O.O.&XZ O.O.&XO.O.O.O.O.O.O.&XO.O.Z &XO.&XO.O.O.&XO.Z O.Z &XO.O.O.O.O.O.O.O.Z &XO.Z O.O.O.O.O.O.O.O.O.O.O.J.O.O.&XO.Z O.O.O.O.O.O.O.O.O.O.&XZ O.O.O.O.O.O.O.O.O.O.&XO.O.O.,XS O.&XO.O.O.&XO.O.O.O.&XZ O.O.O.O.O.O.O.O.O.O.&XZ O.O.O.Z O.O.O.O.O.&XO.&XO.Z *X+.#.5X*.vX3.8.q.8.5.:.:.#.Z ",
"r 7 4 2 g.x.N.Z.M H.O.&XZ J.J.O.O.O.O.O.O.O.O.&XO.O.O.O.O.O.O.O.O.O.O.O.O.Z O.O.O.O.O.O.O.O.O.O.O.&XO.O.O.O.Z O.O.O.O.O.O.O.O.O.O.O.Z O.O.O.&XO.O.O.Z &XO.O.O.O.O.O.O.O.O.&XZ O.O.O.O.O.O.O.O.Z O.O.O.O.O.O.O.O.&XZ O.O.O.O.O.O.O.O.O.&XZ &XO.Z Z &XO.Z O.O.O.O.O.O.O.O.&XO.O.&XO.Z O.O.O.O.O.O.O.O.J.Z O.O.&XJ.J.+.#.$.3XzX3.fXhXhXaXr.#.F.l 9 g.s.a.7 r y D.D.N J.Z O.&XO.O.O.O.O.O.&XO.O.O.O.O.O.O.O.O.&XO.O.O.O.O.O.O.O.O.&XO.O.O.O.O.O.O.&XO.O.Z O.Z O.O.O.&XO.O.O.O.O.O.O.O.O.O.O.O.O.O.O.O.&XO.O.O.Z &XO.O.O.Z O.O.&XZ O.O.O.O.O.O.O.O.O.O.O.O.Z O.O.O.Z &XO.Z O.O.&XO.O.Z &XO.O.O.O.O.O.O.Z O.O.O.O.O.O.O.O.O.O.O.O.O.O.O.O.O.&X&XZ O.O.&XZ &XO.J.O.J.+.;X-.:.zXaXhX8.hXy.xX$.F.B.9 g.2 2 7 w V.x D.O.H.O.&XO.O.O.O.O.O.O.&XZ O.O.&XO.Z &XO.O.O.O.O.O.O.O.O.Z &XO.O.O.O.O.O.O.Z &XO.O.O.O.O.Z O.O.O.O.O.O.O.O.O.Z &XO.O.&XO.O.Z O.Z O.O.O.Z O.O.O.O.O.O.Z O.O.O.O.Z &XO.O.O.O.O.O.&XZ O.O.O.O.O.Z O.O.O.O.O.Z &XO.O.O.O.O.O.O.O.O.O.O.O.O.O.&XZ &XZ O.O.&XO.Z &XO.O.O.O.O.O.O.Z &XO.O.O.O.Z J.&XZ +.&X#.>.r.y.3.0.8.0.5.*.:.#.Z ",
"r h.4 4 g.x.B.D.N C O.&XJ.&XJ.O.Z &XO.O.O.O.O.Z O.O.O.O.J.O.O.O.O.O.O.O.O.&X&XO.O.O.O.O.Z &X&XO.O.Z O.O.O.O.&XO.O.O.O.O.O.J.O.O.O.O.&XO.&XO.O.O.O.O.O.O.O.O.Z &XO.O.O.O.O.O.O.O.&XZ O.O.Z O.O.O.O.O.O.O.O.&XZ O.O.O.O.O.O.O.O.O.O.O.O.O.O.O.O.&XO.O.O.&XO.O.O.O.&XZ O.O.Z O.O.O.O.&X&XO.O.O.O.O.O.O.J.&XO.O.O.Z J.+.#.4X3XzXiXfXfXhX5.xX#.F.b.h.g.4 2 8 w b.D.D.F.Z O.Z &XZ O.O.O.O.O.Z O.O.O.O.O.Z &XO.O.Z O.O.O.O.O.O.O.O.O.Z Z O.O.O.O.O.O.Z O.O.&XO.O.&XO.O.O.O.O.O.Z &XO.O.O.Z &XZ &XO.O.O.O.Z O.O.O.O.O.O.O.O.&XO.O.O.O.O.O.Z &XZ &XO.O.O.O.O.O.&XO.O.O.O.O.O.&XO.O.O.O.Z O.O.O.O.Z &X&XO.O.&XO.O.O.O.O.&XO.O.O.O.O.O.O.O.O.O.O.Z O.O.O.O.O.Z &XO.J.Z J.+.;X4X:.zXaX8.hX0.4.xX;XF.B.x.g.p.2 s.w l A.D.O.H.&XO.O.O.O.O.O.O.O.O.O.O.Z O.O.O.O.O.O.O.O.&XO.O.Z O.O.O.O.O.&XO.O.O.O.O.O.O.O.O.O.O.&XO.Z O.O.&XO.O.O.&XO.O.O.Z O.O.O.&XO.&XO.O.O.&XO.O.O.O.O.O.O.O.O.O.O.O.O.O.O.&XO.O.O.Z &XO.O.&XO.O.&XO.O.&XO.Z O.O.O.O.O.O.O.&XO.O.J.O.O.O.O.O.O.O.O.O.O.O.O.Z O.O.O.O.O.O.O.O.O.O.O.O.O.O.O.J.O.&XZ *X*X+.6X:.4.3.8.fX3.4.*.>.#.Z ",
"r g.2 2 j.x.t D.D.H.O.&XC J.J.O.O.&X&XZ &XZ O.O.&XZ O.O.O.O.O.O.O.Z &XO.Z &XZ O.O.O.O.O.O.&XZ O.Z O.O.O.O.O.O.O.O.Z &XO.O.O.O.O.O.O.&XZ Z O.O.O.O.O.O.O.O.O.Z O.O.O.O.O.&XO.O.&XO.O.O.O.&XO.O.O.O.O.J.O.O.O.O.O.O.O.O.O.O.O.Z &XO.O.Z O.O.O.O.O.O.O.O.O.O.Z Z &XO.O.O.Z O.O.O.Z O.O.&XO.O.Z &XO.O.O.J.O.O.O.O.O.J.+.#.:X:.zXaXhXhX2.5.3X:XF.B.j.4 4 2 s.n.b.x G.H.C +.Z &XO.O.&XO.O.Z O.O.O.O.O.&XO.Z O.O.O.O.O.O.O.O.O.O.O.O.O.&XO.O.O.O.O.O.O.O.O.O.O.O.&X&XZ O.&XO.O.&XZ O.O.O.&XO.O.O.O.&XO.&XZ O.O.O.O.O.&XO.Z &XO.Z O.O.&XO.&X&XO.O.O.O.&XO.O.O.O.O.O.O.O.O.O.&XO.O.O.O.&XO.O.O.O.O.&XZ O.O.O.O.O.O.O.O.Z O.O.O.O.O.O.O.O.O.O.O.O.O.O.O.O.O.O.&XZ O.O.J.&X+.5X>.e.aX8.hX8.aXxX:XF.B.9 s.2 4 4 w t Z.D.O.H.O.O.O.O.&XO.O.O.&XZ O.O.O.&XO.O.O.O.O.O.O.Z O.O.&XO.O.O.Z &XZ O.&XO.O.O.O.O.O.&XO.O.O.O.&XO.O.O.O.Z Z O.O.O.O.&XO.O.O.O.O.O.O.O.O.O.O.O.O.O.O.O.O.O.Z O.O.O.O.O.O.Z O.O.O.&XZ O.O.O.O.O.O.O.O.O.&XO.O.O.O.O.O.Z O.Z O.O.O.O.O.O.O.O.O.O.O.O.O.O.O.O.O.O.O.O.O.Z O.O.O.O.O.O.O.J.O.J.J.O.Z *X*X+.5X3XvXhX8.8.0.5.r.:.#.J.",
"r g.4 s.h.r l M D.C O.J.Z &XJ.O.O.O.O.O.O.O.O.O.O.O.O.O.O.O.O.O.O.O.O.O.O.O.O.O.O.O.O.J.O.O.O.O.&XO.O.O.O.O.&XZ O.O.O.O.O.O.O.O.O.O.O.O.O.O.&XZ Z O.O.O.O.&XO.O.O.O.Z &XO.O.O.Z O.O.&XO.O.O.O.O.O.O.O.O.O.O.O.O.O.O.O.O.&XZ O.O.&XZ O.O.&XO.O.O.&XO.O.O.O.&XO.O.O.O.O.&XO.O.&XO.O.O.Z O.O.O.O.O.O.O.J.O.O.O.O.H.J.+.+.-.6Xe.sXfXjXfXpX3X4XL.B.x.4 s.p.7 v.t x F.J.N &XZ Z O.O.&XO.&XO.O.O.O.Z &XZ O.&XO.O.O.O.O.O.O.O.O.J.O.O.O.O.O.O.&XZ O.O.O.O.O.O.O.O.O.O.O.O.Z O.O.O.O.O.O.O.O.O.&XO.Z O.O.O.O.O.O.O.O.O.Z O.O.O.O.&XO.O.O.O.O.Z O.O.O.O.Z O.O.O.O.O.&XZ O.O.O.Z O.O.O.O.O.O.O.O.O.O.O.O.O.Z &XO.&XZ O.O.O.O.O.O.O.O.O.O.O.Z O.O.O.O.O.&XO.O.O.O.O.O.O.J.+.+.5X6XzXaX8.hX2.vXxX:XH.l x.s.2 3 4 w l x M O.H.&XO.O.O.O.O.O.O.O.O.O.O.O.O.O.O.O.O.&XZ O.O.&XO.O.O.O.O.O.O.O.O.O.O.Z &XO.O.O.Z O.O.O.O.O.O.O.Z O.&XO.O.&XO.O.O.O.O.O.O.Z &XO.O.Z &X&XZ O.O.O.O.&XO.O.&XZ O.O.O.O.O.O.O.O.O.O.O.O.O.&XZ O.Z &XO.O.O.O.O.O.O.O.&XO.O.O.O.O.O.O.O.O.O.Z &XZ &XO.O.&XO.O.O.O.O.O.&X&XZ O.O.O.O.O.O.O.&XO.J.Z +.*X+.;.3XvXhX9.8.hXy.*.:.#.J.",
"x.g.p.p.h.r l M M H.O.&XC J.J.O.O.O.O.O.O.O.O.O.O.Z O.O.O.O.O.O.O.O.&XZ O.&XO.O.O.O.O.O.&XZ O.O.O.O.O.O.O.O.O.O.O.O.O.&XO.&XZ O.O.O.O.O.Z O.O.O.&XO.O.O.O.O.&XO.O.O.O.O.Z O.&XO.O.O.O.Z O.O.&XZ O.&XZ O.O.O.Z O.O.Z O.O.O.O.O.O.O.O.O.O.O.Z &XO.O.O.Z &XO.O.O.O.&XO.O.O.O.O.Z &XO.O.&XO.&XZ O.O.O.O.Z &XO.&X&XZ &X+.+.4X6Xe.aXfXhXhXaX3X:XF.B.9 7 2 p.g.e b.x N J.N &XZ &XZ Z J.O.O.O.O.O.O.O.O.O.O.O.O.O.O.Z O.O.O.O.O.O.O.O.O.O.Z O.O.O.O.O.O.O.O.O.O.O.O.&XO.O.O.&XO.O.O.O.&XO.O.O.Z O.&XO.O.O.O.Z O.O.O.O.O.O.O.&XZ O.O.O.O.O.O.O.O.O.O.O.O.O.Z Z O.O.O.O.O.O.O.O.O.O.O.O.O.O.O.O.&XO.O.O.O.O.&XO.O.O.O.O.O.O.O.O.O.O.O.O.O.&XO.O.O.O.O.&XO.O.Z O.O.Z O.J.*X+.5X6Xe.iX0.fXhXaXxX#.F.l x.s.2 2 4 w l x D.O.C &XO.O.O.O.O.O.O.O.O.Z O.O.O.O.Z O.O.O.O.O.O.Z O.O.O.O.O.O.&XO.Z O.&XZ O.O.O.O.O.O.&XO.O.Z O.O.&XO.O.O.O.O.O.O.O.O.O.O.O.O.O.O.&XO.O.&XO.O.O.O.O.O.O.Z &X&XO.O.O.O.O.Z O.O.O.O.O.O.O.O.O.O.J.O.O.O.O.O.O.O.&XZ O.O.O.Z O.O.O.O.Z &XO.O.O.Z &XO.O.O.O.&XO.O.O.O.J.O.O.&XO.O.O.O.O.Z J.O.O.Z O.*X#.5Xr.4.0.hXhX0.4.*.:.#.J.",
"x.g.p.2 g.w t x M H.O.&XJ.J.J.&XO.O.&XZ &XZ O.O.O.&XO.O.O.O.O.O.O.O.O.O.O.O.O.O.O.O.O.O.O.O.O.O.O.O.O.O.Z &X&XO.O.O.O.Z O.O.O.O.O.O.O.O.O.&XO.O.O.O.O.O.&XO.O.O.O.&XZ O.O.O.O.O.Z &XO.&XO.O.O.O.O.O.O.O.O.O.&XO.O.&X&XO.O.Z &XO.O.O.O.O.O.O.O.O.O.O.O.O.O.O.O.O.Z O.O.O.O.O.O.O.O.O.Z O.O.O.O.O.O.&XJ.O.&XO.O.J.O.#.+.:X6Xe.6.fXfXiXaXxX$.F.z 9 7 2 4 7 e V.z M O.F.+.J.O.&XO.&XZ &XO.&XO.O.O.O.O.&XO.O.O.O.&XO.&XZ &XO.&XZ O.O.O.&XO.O.Z &X&XO.Z &XO.O.O.O.Z O.O.O.O.Z O.O.O.Z O.O.O.O.O.Z O.O.O.O.&XO.&XO.O.O.O.O.O.O.O.O.O.O.O.&XO.O.O.O.O.O.O.&X&XO.&XO.O.O.O.J.O.O.Z &XO.O.O.O.O.Z O.O.O.O.O.O.O.Z &XZ O.O.Z O.O.O.O.O.O.O.O.O.Z &XO.O.Z O.O.&XO.O.&XO.J.*X+.-.6Xe.iXjXiXfXy.xX$.N l w s.2 4 g.r t x x O.H.O.&XZ O.O.O.O.O.O.O.&XO.O.O.&XO.O.O.O.O.O.O.&XO.O.O.O.O.O.O.O.O.O.O.O.O.O.O.O.O.O.Z O.O.&XO.O.O.O.O.O.O.O.O.O.O.Z &XO.O.O.O.O.Z O.O.Z O.O.O.O.O.&XO.O.O.O.O.O.O.O.O.&XO.O.O.O.O.O.O.O.O.O.O.O.O.O.O.O.&XO.O.O.O.O.O.&XO.O.O.O.O.O.O.O.O.O.O.O.&XO.O.Z O.O.O.O.O.O.Z O.O.&XO.O.O.J.&XO.&XZ *X*X#.;.*.4.0.0.8.3.4.3X6X;XJ.",
"v.g.g.p.h.v.B.Z.N H.O.O.Z J.J.O.O.O.O.O.O.O.O.O.&XZ &XO.O.O.O.O.O.O.O.O.O.O.O.O.&XO.O.O.O.O.O.O.O.O.O.O.O.&XZ O.O.O.O.O.O.O.O.&XZ &XO.O.O.O.O.O.O.O.O.&XZ O.O.O.O.O.O.O.O.O.O.O.O.O.&XZ O.O.O.O.O.O.O.&XO.O.O.O.O.&XZ O.O.&XO.O.O.O.O.Z O.O.O.&XO.O.O.O.O.O.O.O.O.O.O.O.O.O.O.O.O.O.O.O.O.O.O.O.O.J.&XO.O.O.&XH.O.#.*X:X6Xe.aXfXiXgXaXxX:XH.l 9 4 4 2 7 x.l z F.O.F.O.Z O.&XO.Z O.O.O.O.O.O.O.O.O.O.O.O.O.O.&XZ O.O.Z O.O.O.O.O.&XO.&XZ O.O.&XO.O.Z O.O.O.O.O.O.O.O.O.O.O.O.O.O.O.O.O.O.O.O.O.&XO.&XZ O.Z O.&XO.O.&XO.O.O.O.O.Z O.Z O.O.Z &XO.&XO.O.&XO.O.O.Z O.O.O.O.O.&XZ O.O.O.O.O.O.O.O.O.O.O.O.O.&XO.O.O.O.Z &XO.O.O.O.O.O.O.Z O.O.O.O.O.O.O.O.&XO.Z O.J.*X*X;.5Xe.iXhXfXfX4.xX:XF.l e 4 4 p.7 w l A.x O.C O.O.O.O.O.O.O.O.O.O.&XZ O.O.O.O.O.O.O.O.O.&XZ O.Z &X&XO.O.O.&XO.Z O.O.O.O.O.O.O.O.O.O.&XO.O.O.O.O.O.Z &XO.O.O.O.O.&XO.O.O.O.O.O.O.O.O.&XO.O.O.O.O.O.O.O.O.O.O.&XO.O.&XO.O.O.O.O.O.O.O.O.O.O.O.O.Z &XO.O.&XO.O.&XO.O.O.O.O.O.O.O.Z O.O.O.O.O.O.Z &XZ O.O.O.O.O.O.&XO.O.Z Z O.O.O.J.O.O.*XC *X*X:X;.*.4.2.8.2.3.y.*.:.#.J.",
"r h.s.p.g.x.B.Z.M C O.&XZ J.J.O.O.O.O.O.O.O.O.O.O.O.O.O.O.O.O.O.O.O.O.O.O.O.&XZ Z O.O.O.O.O.&XZ O.O.Z &XO.O.O.O.O.O.O.O.&XO.O.Z O.O.O.O.O.&XO.O.O.O.O.Z O.O.&XZ O.O.O.O.O.&XZ O.O.O.O.O.O.O.O.O.&XO.O.Z O.O.&XZ O.O.O.O.O.O.O.O.O.O.O.&XO.O.O.Z O.O.O.O.O.O.O.O.O.O.&XZ O.O.O.O.&XZ O.O.O.O.O.O.O.Z Z &XO.&XO.Z &X+.*X:X>.zXsXiXfXiXaXxX:XN B.x.7 4 3 7 w k V.N o.F.+.J.O.&XO.&XO.Z &XO.O.O.O.O.O.O.&XZ O.O.O.O.O.&XO.O.O.O.O.&XO.O.O.O.O.O.Z O.O.&XO.O.O.&XZ O.Z O.O.&XO.Z &XO.&XZ O.O.O.O.O.O.O.O.O.O.O.O.O.O.O.Z O.O.O.O.O.&XO.O.O.O.O.O.O.Z O.O.Z O.O.O.&XO.O.O.O.O.O.O.O.O.O.&XZ O.O.O.O.O.O.O.O.O.O.O.&XO.O.O.O.O.O.O.O.O.O.&XO.O.O.O.O.O.O.O.O.O.J.O.J.*X*X;.>.zXiXiXiXfXvXxX4XF.t w 4 4 p.4 w l A.M O.Z O.O.O.O.O.&XZ O.O.O.O.O.O.O.&XO.O.J.O.O.O.O.O.O.O.O.Z O.O.O.O.O.&XO.O.O.O.O.O.O.&XO.O.Z O.Z &XO.O.O.O.O.O.O.O.O.O.Z O.O.O.&XZ O.O.O.O.O.O.O.O.O.O.O.O.Z &XO.O.Z O.O.O.O.O.O.O.O.Z &XO.O.O.O.O.O.O.O.O.Z O.O.O.Z O.&XO.Z O.&XO.O.&XO.O.O.O.O.O.O.O.O.O.O.O.O.O.O.O.O.O.&XO.O.O.O.O.J.O.O.Z *X*X#.;.xX4.3.8.0.hX5.*.6X;XJ.",
"n.7 s.p.j.r N.D.M C O.&XZ &XZ &XO.O.O.O.O.&XO.O.O.O.&XO.O.O.O.O.O.O.O.O.J.J.J.&X&XO.&XJ.&X&XJ.&X&XO.O.O.&XO.J.&XJ.J.Z J.&XO.O.O.O.O.O.&XO.O.O.Z O.O.Z &XZ O.O.O.O.O.O.O.Z O.O.&XO.O.&XO.Z O.O.&XO.O.Z &XO.&XO.O.O.O.O.O.O.O.O.O.O.O.O.O.O.O.O.O.O.O.O.O.O.O.O.O.J.J.O.O.Z &XO.&XO.O.O.O.O.O.O.&X&XZ O.O.O.O.J.Z O.+.+.:X>.e.6.iXiXfXaXcX4XF.l w 7 2 2 7 w t A.B H.F.&XO.&XO.O.O.O.O.O.O.O.Z J.O.&XZ O.O.O.&XO.&XO.O.O.J.&XO.O.O.O.Z &XZ &XO.O.&XO.O.Z O.O.O.O.O.&XO.O.O.O.Z &XO.O.O.O.O.Z &XZ O.O.&XO.O.J.O.Z J.&XJ.O.O.O.&XJ.J.Z O.O.&XO.O.O.O.&XZ O.O.&XO.O.O.Z J.Z &XJ.O.O.&XO.O.&XO.O.O.O.O.O.Z O.O.O.O.O.O.O.O.O.O.O.O.O.O.Z &XO.O.O.&XZ J.O.O.Z Z &XJ.O.+.*X5X5XzXhXhXiX8.aXxX-.C B.x.s.2 2 7 r k x M O.C O.O.O.O.O.O.O.Z &XJ.&X&XO.O.O.O.&X&XO.O.Z O.Z &XZ &XJ.&X&X&XZ O.&XO.Z &XO.Z Z &XO.O.O.O.O.Z O.&X&XO.O.&XO.O.O.O.O.O.O.&XO.&XJ.Z &XZ J.Z &XZ &XO.O.&XO.O.Z O.O.O.O.O.O.O.O.&XO.O.O.&XO.O.O.&XO.O.O.&X&XZ J.Z J.&XO.O.O.O.O.O.O.&XJ.&XO.O.O.O.O.O.O.&XO.O.O.O.O.&XJ.Z &XO.Z O.O.&XZ &XO.O.J.+.+.;X5X:.y.2.3.fX3.5.*.>.#.O.",
"n.g.s.p.h.v.N.Z.M H.*XJ.J.Z &XO.J.&X&XZ &XZ Z &XZ &XZ O.&XZ O.Z Z &XO.O.Z +.O.O.O.O.O.O.&Xo.O.O.O.O.O.O.O.O.O.O.O.O.O.O.O.O.O.O.O.&XZ Z Z O.O.O.&XJ.&X&X&XO.J.&X&XJ.&XO.&XO.&XZ &XZ &XO.&X&X&XZ Z &X&XZ &XZ O.J.&XZ &XJ.&XO.O.&XJ.&XO.O.&X&X&XO.O.O.O.O.O.O.&X&XO.O.&XO.&XZ Z Z &XO.O.J.O.&X&XZ O.O.Z O.O.O.&XZ &X+.#.:X3XzXiXfX2.8.aX3X4XF.V.r s.2 s.s.w B.V.N H.H.O.O.O.O.O.O.O.O.O.O.O.O.&XO.Z &XO.Z O.O.O.Z O.Z O.O.O.O.O.Z O.Z &XJ.O.O.O.O.O.&X&XO.O.O.&XJ.O.O.O.O.O.&XO.O.O.O.&XZ J.Z &XZ O.O.O.O.O.O.&X&XO.O.O.O.O.O.O.O.&XZ O.O.O.O.&XJ.O.O.Z O.Z O.&X&X&XO.&XZ O.J.O.O.O.Z Z O.O.&XO.Z O.&XO.O.O.O.O.O.O.O.O.O.O.O.O.O.O.O.O.O.O.O.O.&XO.O.J.&XZ Z Z *X+.5X>.e.5.8.hXhXpXxX:XC b.x.4 s.p.4 w N.x M Z N &XJ.Z O.O.O.J.O.Z O.Z O.O.O.Z &XZ Z O.&X&X&XJ.Z &XO.O.O.o.O.&XO.O.O.O.&XO.O.&X&XO.O.O.&X&XO.Z O.Z &XZ Z Z &X&XJ.&X&X&XJ.Z Z Z &XO.O.&X&XZ J.Z J.Z &X&XO.O.O.O.O.O.J.&XZ O.J.O.J.&X&XZ Z &XZ &XZ Z O.O.O.&X&XO.O.O.O.O.O.O.O.O.O.Z Z &XO.O.&XO.O.J.&XJ.Z &X&XZ J.&XO.&XO.Z &XJ.O.&XO.Z Z J.O.+.>X>.r.5.0.0.fX0.y.3X5X;X&X",
"c.s.d.s.j.v.B.D.M H.O.&XJ.&XZ Z &XO.&XO.O.&X&X&X&X&XO.O.&XZ O.O.&XZ &XO.O.O.O.O.&X&XO.O.O.O.&XO.O.O.O.O.O.O.&XZ O.O.O.Z O.O.O.O.&XJ.J.Z J.J.J.J.Z O.O.Z Z Z Z O.J.O.Z J.O.&XO.H.&XZ Z J.&XZ Z &XJ.Z J.J.O.J.&XZ Z &XO.&XZ &XZ O.Z J.J.O.Z Z O.&XO.O.&XO.O.Z J.J.O.O.O.O.O.&X&X&X&XO.&XZ O.O.J.Z O.&XO.O.O.&XO.O.Z +.;X:X6Xe.aXiXjXjXsXcX%.B z 0 7 2 3 7 w t V.F.J.H.*XZ J.J.O.&XJ.J.J.O.O.O.O.O.&X&X&XO.&X&X&XJ.&X&X&XO.J.O.&X&X&X&X&XJ.&XO.O.&X&XJ.&X&X&XO.&X&XO.O.&XJ.&XJ.&X&XJ.&X&XJ.-XJ.J.-XO.&X&XJ.&X&X&X&XO.&X&XO.O.O.&X&X&X&XO.O.J.=XZ &XO.O.O.&XO.O.Z Z &XO.&X&X&X&XO.O.O.O.O.O.O.Z O.O.&XO.&XO.&X&X&X&XO.O.J.&XO.O.O.O.&XZ &X&XZ O.&X&XZ Z J.*XJ.J.&X*X;X-.6XzX5.fX2.8.aXxX4XH.B.x.s.s.a.s.c.b.A.Z.=XK.Z &XZ O.O.O.O.&XJ.&X&XO.&XZ &XJ.&XO.&XO.&XO.Z Z O.Z O.Z &XJ.H.J.O.O.o.O.Z O.Z Z Z Z Z O.O.O.O.O.O.O.O.&X&XO.O.O.Z J.Z &XZ Z Z &XJ.Z O.Z Z +.V O.S Z O.O.O.O.&X&XO.O.&XZ J.O.O.&XO.O.O.O.Z O.O.O.O.&XO.O.O.O.Z o.Z Z Z Z Z O.Z Z O.O.O.O.Z o.Z Z Z Z O.O.O.Z Z O.O.V O.Z Z O.O.Z O.&XO.&XJ.+.+.>X5XxX4.iX0.8.2.4.:.>.%.O.",
"y 0 2 4 j.e l M N A O.Z Z Z Z Z V O.o.Z O.o.O.o.o.o.O.O.Z Z Z Z Z O.O.Z O.O.O.O.Z &Xo.O.O.O.O.O.O.O.O.O.O.O.&X&XO.O.O.+.O.O.O.O.O.O.O.O.&XO.O.Z O.O.O.Z Z Z O.O.O.+.O.O.+.O.O.+.+.+.O.O.O.O.+.O.O.+.+.O.+.+.O.O.+.O.O.O.O.O.&XO.+.O.O.O.O.O.+.O.O.O.O.O.O.@.Z V o.O.o.Z o.O.O.O.O.O.O.O.O.O.O.O.O.O.O.O.O.O.O.O.C +.#.$.>.e.5.hX9.q.5.u.5XN z w 7 7 5 7 w y z N Z C O.Z Z Z +.O.O.O.O.O.O.O.o.O.o.Z Z Z Z O.o.Z O.o.O.O.O.O.O.o.o.Z O.o.O.O.o.O.O.o.Z Z Z O.Z o.o.O.O.O.O.o.Z O.O.O.o.O.o.O.A o.o.O.Z o.O.V o.O.O.o.O.O.O.o.O.O.Z o.O.O.O.o.o.O.C Z O.O.O.O.O.&XO.O.V Z o.o.O.O.Z Z O.&XO.O.O.O.O.O.O.O.O.Z O.O.O.O.O.O.O.O.O.O.Z Z Z V Z o.O.O.Z V C O.O.V Z o.#.%.>.e.6.9.2.8.y.:.4XC t w 4 4 5 7 0 k x M V O.O.o.O.O.O.O.o.O.o.O.O.O.Z Z Z V O.O.O.Z O.O.&XZ O.&XO.O.&XO.O.Z &X&X&XJ.&X&XO.O.J.J.&XJ.&X&X&X&X&X&X&X&X&X&X&XJ.&X&X&X&X&X-X&X&X&X&X&X&X&X=XJ.O.U.J.&X&X=XJ.J.J.&X&X&X&X&X&X&X&X&X&X&X&X=X&XO.=X&XJ.&X&X&X&X&X&XO.&XO.J.Z J.=XJ.J.=XK.J.J.J.J.J.J.O.=X&X&X&X&X=X&X&X&XO.J.J.J.Z J.J.&X&XJ.&X+.>X5XxXy.hXfXfX0.pX:.>.#.Z ",
"e 8 4 2 7 r N.M F.F.&XJ.J.Z =X&XJ.J.O.O.O.Z &X&XO.O.O.&X&XJ.J.Z &X&XJ.&X&XJ.&XJ.Z &XJ.&XJ.J.&XJ.O.&XJ.&X&X&X&XJ.&XJ.&XJ.&XO.O.J.O.Z O.O.O.Z O.*XO.J.&X&XO.&XO.&XO.&X&XO.&XZ &XO.J.J.&XJ.&X&X&X&XO.&XJ.&XJ.J.O.&XO.J.J.Z J.J.&XJ.O.&XJ.&X&XO.&XO.&X&X&X&X&X&X&X&XJ.&X&X&XJ.&X&XJ.O.O.O.&XZ &XO.&XZ &XJ.&X&X&X=XO.J.*X;X:X:.e.aX8.2.0.6.=.4XH.V.8 8 3 3 7 e l z M C N O.&X&XK.O.J.O.o.Z &XJ.Z H.&X&XJ.Z O.Z O.Z J.Z O.Z Z J.&X&X&X&XJ.J.Z Z Z Z &XJ.&XJ.&XZ &XJ.&XJ.-XZ J.Z J.O.Z O.&X&XO.&XZ &XJ.Z &X&XJ.&X&X&XJ.&XO.Z -XZ J.&X&X&X&XJ.O.&X&X&X&XO.O.&XO.&XZ &X&XO.O.Z Z J.&XO.J.&XZ O.O.O.O.O.Z O.O.O.O.O.O.O.O.J.J.&X&XZ Z J.&XJ.&XZ O.O.O.O.O.&XJ.Z &XZ J.K.o.;X4X=.zXaXfXiX8.5.r.-.A t e 0 4 3 5 w t Z.x O.C &X&X&XJ.O.O.O.O.Z J.J.J.J.&XJ.Z J.Z Z J.J.J.&XZ J.J.Z O.Z &X+.Z o.V Z o.o.Z V O.Z o.V o.o.V V Z o.o.V o.V o.o.V o.o.o.o.o.o.o.V  . .o.V V V Z O.O.@.Z V V V V V o.o.V o.o.V V V V o.V o.o.o.V o.V V V V V V V O.V Z V Z V Z V O.n o.V o.o.o.o.o.V o.o.V o.O.V o.V Z V Z V V o.o.V Z V V O.V o.%.;.u.7.9.9.0.q.y.>.>.;X=X",
"c.d.s.2 8 r t B M C O.O.C O.Z O.&XO.O.O.O.O.O.Z O.O.O.O.O.O.O.J.Z Z Z &XZ Z Z &XO.Z O.V Z O.Z V o.Z Z Z Z V Z V Z Z Z V Z Z o.Z Z Z Z Z Z Z Z C J.Z Z &X=X&X&XZ O.O.Z Z Z O.J.Z Z Z Z Z Z Z Z Z Z O.Z Z Z Z Z Z &XZ Z O.O.Z Z Z Z Z O.Z O.O.O.Z Z Z Z Z Z Z O.Z &XO.Z J.Z Z Z Z O.O.O.O.O.O.O.O.Z Z Z Z Z Z Z Z J.+.#.-.>.t.5.3.iXfXsXzX%.A x e 0 5 3 5 e t z B C A O.Z O.Z Z Z J.&XO.&X&X&X&X&X&X&X&X=X=XO.Z =X=X&X=XO.&X&X&X&X=XJ.J.K.J.=XJ.J.&X&X&X&X&X&X&X&XU.S -X,X&X&X&X=XJ.J.J.Z H.-X&XJ.J.&X=X&X&X&X&X&XJ.O.L.&X&XJ.J.J.J.J.J.=XJ.J.J.J.O.&XO.&XO.O.Z Z &X&X-X&X=XJ.J.=X&X&XO.O.O.O.O.O.O.O.O.O.O.O.O.O.J.J.J.J.&X=XJ.J.=X&X&X=X&X=X&X&XK.K.J.&X=XJ.J.=X;X4X*.y.pXfXjXiXy.r.$.C b.e 4 2 p.k.w B.V.G.&XH.J.J.J.J.J.J.J.J.&X&X&X&X&X&X&X&XO.O.O.O.o.O.O.O.Z Z Z O.O.O.O.&X&X&X&XJ.Z Z &X&XO.O.O.O.&XO.O.O.J.&XJ.O.Z O.&X&XZ O.O.Z Z Z Z Z Z O.Z Z J.A Z Z &X&X&Xo.O.O.O.Z Z &X&X&X&XZ Z &X&XO.J.&XZ J.&XJ.&X&XO.O.O.O.Z Z Z Z Z &XZ &XO.&X=XO.J.&XJ.J.&X=XJ.&X&XJ.Z Z J.J.J.&XO.&XO.Z O.O.Z J.O.J.+.+.+.-.;.t.y.6.q.q.q.u.=.;.%.o.",
"u 0 0 5 0 u k c v v  .n  . .V n n  .n  . .|  . .n n n n n n n n  .S O. .o.o.o.o.o.o.o.o.o.o.o.o.o.o.o.o.o.o.o.o.o.o.o.o.@.o.o.o.o.o.o.o.o.o.o. . .o.n V V  . . . .o. .o.o. .o. .o.o.o. .o. .o. . . . .o. .o. . .o. .S  . .o.o. .o. .o. . .o. .o.o. . .o. . . . . .n n n  .n  . . . . . . . . . .o. . . .n n  . .n ..X.,.u.u.7.w.q.w.7.u.-.A c r 0 5 6 5 e u c v n m o. . .n V V V n o.V V V V V V o.o.o.o.o.o.V V O.@.o.O.o.o.o.o.V V Z Z o.O.o.O.o.o.Z O.o.o.O.O.o.O.S Z V o.o.O.O.o.O.o.o.Z Z o.O.o.o.o.o.o.o.V V V O.&XS O.O.Z o.O.V O.O.Z V Z o.Z O.Z Z Z O.O.o.o.o.V V o.V A C O.O.O.o.Z Z Z Z o.Z Z V Z Z O.@.o.O.O.@.O.@.o.o.o.o.o.o.o.o.o.V Z o.o.o.o.@.X.%.,.u.7.q.2.w.4.3X:XH.V.w 4 4 3 0 e y c B V A o.o.o.o.o.o.O.o.o.o.o.o.o.o.o.o.n V  .o.o.o.o.o. . .o. .o.n A O.O.@.V o.o.o.o.o. .o. .o.o. . . .n n n n n V n o.V  . .o.V n n o.O.V o.o.V V  .n ..S V V  .o.o.@.n n V n n n  .V n n n n b  .n n  .o. .o.o. .n n V V V V o.V V  .n V V V V o.o.o.V o.o.o.V V V V o.o.V O.o.V o.O.V V o.V +.o.@.,.,.u.u.2.9.w.q.y.>.,.+.V ",
"e 0 5 6 q q c v B m  . .m o.n  .V o.o.o.V V o.V o.o. .o.o.o.V V S Z A O.V Z A o.o.Z O.O.o.O.O.O.&Xo.O.O.O.O.&Xo.O.Z Z Z Z O.O.A o.O.V Z V o.o.O.Z V o.V o.V o.o.o.o.V o.o.o.V o.S O.o.o.o.o.V o.Z o.o.o.V o.Z o.Z o.o.o.V V o.V o.o.o.V o.o.V o.o.V o.o.V o.V V o.o.o.@.o. .n  .n  .n  .n  .n  .n  . .n n V o.o.n @.X.&.,.u.7.9.w.7.e.u.-.A z e 7 5 3 6 u t u x B N O.O.o.Z Z V Z O.O.o.V V V O.V Z Z V Z Z o.C Z Z Z O.Z V O.V Z V V &XJ.&XZ &X&XJ.&X&XJ.&XZ &X&X&XO.&X&X&X=XZ O.&XJ.&X&XJ.&X&XO.&X&XV Z Z o.O.A Z Z &X=X&X&XO.&X&XO.&XO.O.J.Z +.O.O.V o.Z o.Z o.O.O.O.o.O.O.Z O.O.o.o.o.O.O.o.O.o.O.o.O.O.O.o.V O.O.Z Z Z V Z O.o.V Z Z V Z Z o.Z Z o.O.o.o.+.%.-.=.y.6.q.9.q.6.u.-.A k e 5 0 3 0 q k c x V C O.o.O.V V V o.o.Z V Z V V Z Z o.Z O.O.Z Z V o.O.O.V o.o. . ...S ] | | | ] ] ] h ] ] g g g g ] g ] g ] h ] ] ] h ] h h ] [ d S [ ] h h h h ] h h S a S b g h h h ] ] [ [ [ ] [ d [ [ [ [ h h ] h ] h [ h [ h h g h g g g b g | g g | | | b | | g | ] ] g ] ] h g ] g g b | b b b b b | b ..| ..&.} 7.i.w.w.7.q.t.>.5X;XJ.",
"u q q 6 1 i i p j f ` h d ` [ h [ [ h h h [ [ h [ h [ d [ [ d h h h h h g g g b ] b b ] | g | g ] | S | b g b g b g g | g g | | | | b b | | ..] g ] g ] [ [ g h [ h [ h [ [ ] [ h [ [ h [ [ h [ ) ] [ S [ h [ ] [ h h ] ] [ d [ [ d [ d d [ [ h [ [ h h h [ ] ] ` [ [ ` h [ h [ h g [ h [ h [ h [ [ g h d h [ [ [ { { } } 1.1.1.7.w.u.y.X. .c u e q 6 1 1 i p j g j g g b b ..m b | n b b b m n S n b n n n b n n b n o.V o.V V V V n o.V o. .o. .o.o. .o. .o.o. .o.n o. .o.o.o. .o. .o. .o.o.o. .o.o.o.O.o.o.o.V V V o. .o.n o. .V n o. .V V o.n o.o.o.V V o.o.V V o.o.O.o.o.o.o.o.o.V V V V V V o.o.V V o.V o.@.V n V n n o.o.o.n V n  .o. .V  .n  .n  . .| ..X.,.u.i.w.w.w.q.7.i.X.m c e q 6 6 6 q u c c [ A  . . .b  . .|  .b n b b n b |  .| n  .| ] | ..] ] [ [ ] [ h [ ] [ ] [ [ [ [ [ [ ` ` ` ` [ d ` ` d ` ` [ d ` ` ` ` ` ` s _ ` _ s s _ _ s s s ` ` s d s d d [ [ d ` ` [ ` ` ` _ ` d d d d s d s _ ` ` _ ` s d d d d h f f f h h [ h f ] [ [ d [ [ d [ h [ h h h h d [ [ h h [ h g g ] h g [ ] X.} } i.1.w.1.w.1.u.,.,.%.V ",
"u u 1 q 1 1 D , j , ! : : f : f ! _ ! s s : _ s : s s : a a a s a : s f a a f s ` s ` d d d ` d d a _ d d s ` ` d ` ` ` ` ` d d ` ` ` ` ` ` ` ` _ ` ) ' _ _ _ ) a s _ _ s s a _ ) s s ) a a _ _ a a a ) _ a a a s ) ) a a ) a a s s a s _ a : ) : ) s : s : ! : ) ) a a : ) a a _ ! a ) s s ! _ : a ! _ ) ) ) ! ) ^ ^ / } 1.1.1.1.1.i.} X.n c u q q 6 q 1 i D j j f d s f f _ d d s f d [ ] h h h ] h ] h h g g h ] j ] b b | | | | g g g g ] ] g ] g ] | | g ] ] ] ] | ] g ] | ] | g ] ] g ] g ] ] ] ] S S g | b b g g ] g g h ] g ] g g h ] g h ] ] ] ] b g g g g | | g g | b ] ] ] ] ] ] ] ] ] h g ] h ] ] h ] h ] g h ] h [ [ ] h ] ] [ ] [ ] [ h [ [ [ [ [ X.} i.i.i.w.w.1.y.=.%.A t e e 5 6 1 1 p p p d j g [ g h [ g ] [ [ ] ] [ [ [ [ [ ` ) ` ) ' _ ) ) ) ) ' ! ) ! ! ! ! ~ Q ! Q W Q W Q Q ; ! ; ; ; ; ; : ; ; ; W W W W ; R W W ; = ; W ; ; = ; ; ; ; ; > > : ; W W W Q ; W ; W W W ; W W W Q Q ; : W ; ; ; ; ; > > > ; : : ; : ! : ; : ; : Q Q W ! Q ! Q W Q Q Q ; > : : ; > : : : : : : > : ~ ! ^ / / <.1.( w.1.1.u.,.,.X.A ",
"p i 1 1   @ @ @ - - - R ; = = ; R % % = = = R = R R W R R = % ; - ; = - - > > W > : > : : Q ! Q ! ! ! : : ! ! ! ! ! ! ! ! ! ! ; : : ; : ; ! ! ~ Q Q W Q W ~ Q W R ; R W = ; = = ; = ; ; ; ; ; ; ; ; % = ; R ; ; = R W = = W W W R R R R = % = ; ; ; Q ; > W W W W W R = W R % I = = = = = = = R ; ; W W = % % = R Y E / T T ( 1.1.i.} ,.X.A c k i 6 1 1     < < * > ; - ; > ; > > Q > > : : > : > a : a s a a a _ _ d s : s a ` s ` ` ` ` _ _ _ _ a a ` _ _ s a s _ ) _ ) s s ) a ) ) ` a ` s _ ` a a ` d d d ` s d s s s ` ` ` [ s s ` ` d s ` d d d d d d d d ` d d d ` d d ` s d ` h d d d ` [ ` d ` ' [ ` ` ` ` ` ) _ _ _ a _ _ _ s a _ a a d ` _ s ` ` ) ) ^ / <.<.1.1.w.1.i.,.X.n c u q 1 1 1 1 D < , , : : s : s s ! ! a _ ! ! ! a ) Q ) ) : ! ) ! Q ! W ~ ~ ; W E W I % I E P P P P I P I I I $ P P $ $ P P $ $ I L L P L P L $ # P # # # $ $ P % $ $ # P # $ # $ # $ I I P I L P P $ $ # # # $ o $ # # $ $ $ P # $ $ $ % & # % = $ $ % = R = R $ R R P P P P P P P # $ % # % % = % % & % I = I I U Y Y / ( ( 1.1.1.i.,.,.%.@.O.",
"c i 1     @ * @ O + O H o O o H $ # # o $ o P P L L H o # o # # $ & & & & = & R $ % I I I I R R I % I I P R % P $ P $ $ # $ $ I P P R I I P P P U P % U P P P L L L H L L L L L # L L # L H # L H H # H # # L L P L L L # L L L P H H L L # # # P o o L P H H H L L U L L L L F o H o L o H H o o . o L L L # L L U H Y T T ( ( ( 1.<.} X.b c c i 1 1   @   * * * - % $ I % $ % % % = % = % % % % % = = = = > ; = ; - ; > > Q : : Q : Q Q ! ! ! ! ! W Q : W ! ! : Q : Q : Q Q ! Q : : Q Q Q Q ! W W : W Q W W Q Q Q : ; : Q Q Q Q Q : : : ! ! W ! W ! ; Q Q : : : : : ; ; ! Q : Q : ; : : ! : ; Q W : Q ! Q Q Q W W ~ W ; W ~ W R ; ; = R = R ; I ; W R I ~ E I ^ / ( ( ( 1.1.i.i.,.X.v c u u 1 1 1 D @ < , , - R R R R R R R R R R R = % I I I R I W U R I U U U U # U U U U L U L U H H U H H J F F F F H H . F . H F F F F F F F H H H F o F . . . o . . . F o o o o o o F . F F G F J F . . H . . H F H H F H . F o . o o X O o X # . o O o H o o J F H H H o o . H o o . . X O o X X o # o # L o L L L Y K K T T T <.1.i.} ,.X. .V ",
"p i D < @ @ + + o + o o o o o o . . . . . . . . H o H o H o . o o X O O O o X o X o o o . . o . . H o F H o o . o . H o H . . o . . o F F F H F o H H H F H H F H o . o . o o o H H H o H H H H H H L L H H F . . . . . . F F H o # # # o H H . . . . G X . F . G F F . H . # # H o H o o o o o o H H F H H o . J G F K K T T T T i.,.,...b v c i i D D @ @ + + + X o O . o o & . o O O # # & o & # # O # # O # $ $ & # & % % O $ $ # $ # $ # $ P $ % $ $ $ % P $ $ $ P $ $ P $ % I $ $ % L % P $ P % $ $ $ $ $ $ $ $ $ # $ $ $ # % P $ $ I P # $ P I $ $ $ $ I P $ $ % % $ $ I I P $ # # P P % P $ $ % $ L P P P # o % P P P U H P # L P # # # L P L # L L U U K Y T T T ( ( <.} { X.m c c i i 1   @ @ * + + o o # o o # # # H o o H H o H H H H H H J H J J F J J G F J G G G . F F F F F . F F F F H . H . . F . . . F F F . F F . F F F . . H . . . . F . . X X o . o . F F F F H H H H F . . o o . . . F o H . . o o X o o . O X X X . . X . X . F . X H H F . . F H H . . . o . o . o o o . o . J H G K U K T T T T <.} { &.X.o.o.",
"v p p < * @ + * o O O X . . o F H H F H H F F G F H F F F . X . X o X X X X X X . . . . F . . . F . F . . F F H . F H H H H F . F . . . . F H J F H F H H G o H H H . H . . . . F H o H . H H o . . . F H . . . . # . F H . . H F F F . . F F F o . . H . F o H . F F . H F . F F . . . . . F . . . F . . F F H J K H K K K T T / / { X.@.V B v c p < D @ @ * + + O F O . . . X . . . X . X X . O . o o . O # # X o o X o X . H . H o H H H H F H F F F H F . H H H . F H H . H F F F F H F F H H F F H F F F H F H . . . H H H H . X o H . o H F # # . . H . H . L L . . L H F F L L . H o H H . L H o L . F . H H H . . o F o . H o H o H H X H o H H H F H J K K K T T T ( <.} &.X.A B c p i     @ @ + + O o . o H H F F F H H F H H H H F H G F F F G G G J G G . G H G J J F H F F H H H H F L H H o H L . L . L F U F L . F H L . . L L o . o . H # L . o o o . . . . o H H . H H H H o . o o H o o o . o H o o o o . F o o X . . L X . . X G H o . F H o F H H . o H H H . . . # . X X X . . . H H F K J K K T / / / } X.%.#.V &X",
"m p j p < < * - o + O o o o . F o . # o o . o # F . L . o o . X o o X O X . X X X X X . . . F F . F . F F F F H F F H F H H . . . F F . . F . F H H H J H H F H H H F F o F o o F . H F H o H o H F . . F F F F H H L . . H F H H F . H H . . H o o H o . o H o H . . H H H F H o H H . . H H F o . . o . H L . F U U L U / T / { } { X. .V B v c p p < * < * + O O . . . . . . X . . X . X O X X o X X . X X X X H X . F . . X X F G X . . . . . . F . . H . F F . . H . . F . F . . F . . F . . . . F . . . F . . . . . . X . . F F F . F G H F . F F F . F F . . X . F F F F F H . . F F . G . F F G F F F G G G G G . F G F F F F F G F . . . . X F G G F G J K K T T / <.{ ,.X.X.A j v c p D < * * + + O O . . F . . . . o . H F . F F H G F H G G H G H F J H . H G H H . H H H L H H P # L # L L L L $ # $ $ $ P P P L % P $ $ P I $ $ $ P I $ $ # # P I & = % P I P # # L # # L P P $ $ P % $ # P $ $ P # # = P = o o H o $ L o H H H o F H H H o o H H H # o # o o # o o o # # # . o . o H o H H L J U K Y ^ / { } X.X.X.@.O.o.",
"v v j j , j , - ; > > = = R R = % % % = % % % E R ; R W R R = ; % % $ $ # o & o # o & o # L # # $ # o # P P # # # o H P H o # P $ P $ P # P U I L L # L P P # P P $ R % % % R = W W R ; R ; R R W ; W W ; R = = I % I = % % W ; W R R R R P $ U L # P o H o # # $ I $ % = = = ; = ; ; ; ; Q W ; W = W W = % R E I I R R ! / ^ { X.X.%.#.V o.A v v j j p , , - - & & # & $ $ # $ $ I & # $ # O # # # o o o o o X o o X H X . . . . . . . H F . o . . . L H . L . # F # H H L . L . L . L . L . . L . H . H H . # . . . H H F # . o o o . H . . H . # . . . . X # F F . . . . F F . . . F . . F H . . F . . F F . J H o H o H H H H . o H H o o o . L F H L H L J K K G T ^ / } { &...@.n B v v p p < < * * * O $ # # L L H L H L L L H L L L H L L L L U U L L L U U U H U L P $ U $ I R = W = Q ; > ! : ! ! a : : ) ! ) ! ! ) ) ) _ _ _ a s s s s s _ ` ` s s a ! : : ! : ! : ! ! ) ) a : _ : s ! : s s _ _ _ _ _ ! : ! ! ! : : ! Q W W = = % = % $ & = % = = ; W W ; Q Q > Q > > : > ; > ; : : > Q Q W W E E ~ ^ ^ ^ { { &.X.X.@.@.O.O.",
"L.H.N B v g j f f : s s : : : f d ` s d d s ` _ : ! ! _ _ ! a ! ! ! ! W R W ; = = - & - - - : W ; > = : ; Q ) : ! ! : ; : : : Q ! ! : : ! > ! ! ! ! ! ! ! _ ) _ ! _ a s s ' : : : : ! ! ! : : ! ! : : ! : : _ d _ _ s ` _ s ! ! ) ) ! : ! _ ) ^ ^ W = W W > = , > a , ` s > s : : s s ! : s ! _ _ _ ! a s s ` d [ ` [ { ' ' { ] X.%.+.&X,X<XI.U.G.G.C c g j f f a a > : : ! : : : ; ; > ; ; ; % % = I R - % R = $ P & P H H H o H o o # O # % # $ P $ = $ I P $ L P P # $ $ P $ P P P P % P % P $ $ % P $ I $ I I % # P % $ % # P P o # # P # P L $ $ $ $ $ $ $ P I $ $ # $ L $ L H P o P H # H H o H o L o # o # P P $ % $ P P R % R R % % R % % R P % E E R R E Y W / ' { &...%.O.*XK.L.J.B c v j j j , - - E ; = = = = = W R = W W R W ; W W W E W Q ~ ! ^ E E R E W E W Q : > : f d d h h f d h h h h g g ] ] g g ] ] g b | b | | | b b b | | ] ] | | ] ] ] h h [ h h h ] ] [ g ] ] ] g g | b b ] ] ] | ] ] ] ] ] g [ ] h [ [ ' ! ! ! ! _ Q : , s ! f > : : s d [ d f [ ` h d d d d ` d s s a ` _ _ ) ! ) ' { { [ &.@.#.1X-X,X<X0X0X",
"Q.U.U.P.K.J.Z m n n n b | ..b m b | g b b | | b n o. . . .....[ [ ` [ [ ` a s s : : f > > ` , d s d f f d ` a ` [ h [ [ [ ` [ s d _ _ ` s f ' [ h g h ] [ h g g g b b b b b | | b b b b b |  .b | b  .| m b b b ] | m g g n  .n  .......X.[ [ [ ' [ ` [ d d f h f j g g h n n m A m n  . . . . .m n  . .b ..] b g .. . . .*X*X1X1X1X0XqX0XqX<X<XU.L.K.H.v v m g g h h [ d d d s d d s s s s s d s _ a ) _ : ! ! Q : ! = = ! E - > - - ! = ; ; : ; R - ; ; = R ! ; ; W ; W W W ; Q ; ; W ; ; ; W ; ; ; Q W W W W ; W W ; W ; ; ; W : : ; ; : : Q ; W ; W W W ; W W W ; W W W W ; ! ~ ; = E W W W ; ; E W W = - - ; R : > ; : Q : : : ! Q : ! s > : ! ! s : ) _ : _ ' h { { ..%.*X;XJ.-X,XU.K.B B v b j j [ a j s : a s s _ _ _ a : s s _ _ s ) ' ` ` s ` ' _ { ) { ) ) _ ` ` a ` d j h j g m v J.C J.J.L.K.J.K.L.K.K.=X=X=XJ.L.=XK.K.=X,X,X=X,X=XP.P.P.=XK.=XP.,X,X,X,X,X=XJ.K.J.K.J.J.K.=XL.K.K.=X=XK.K.K.=X=X=XK.=X-X&X=X-X=X;X#.#.@.X.-.[ [ [ h h f f j V m B A C J.L.H.J.O.=X&XO.J.O.O.V V o.o. . . ... .@.o.@...o.+.&X-X<X1X0XqXqXqX",
"OX^.~.W.!.Q.I.I.<XI.I.P.P.<XP.U.P.I.U.I.I.I.<XQ.0X1X1XP.,X2X1X1X>X+.@.....X.[ ` [ h j g m j O.m V A C -XZ C *XZ o.o.Z Z Z &XZ J.=X&XJ.K.=X=XJ.J.=XK.K.=X=X,XK.P.P.I.U.<XI.,X,X<XI.Q.0X<X0X0X<X<X<X<X<X<XP.I.I.P.I.I.I.Q.0XqX1XU.2X1X0X2X;X*X:X%.....] { f g m j v Z B Z.0XY.U.!.Q.!.qX0XQ.I.<X0X<X1X<X<XI.<X<X0XqXI.Q.0X0XqXqXrXrXwXrX^.8XeXeXE.^.^.!.Q.!.0XP.U.,X=X=X=X=XJ.J.J.Z Z Z O.Z Z V V  .@.m | ..| X.[ h [ ' { ~ > ! _ > : > , f f f f h ] g h h | | h b b b | b | | | h g | | | | | ] g g g ] ] g g g S h g g ] ] h g h [ [ ] [ h ] [ g g g h h g h h h ] ] h ] [ [ h [ ' ' ' ' ' ) ! ^ > ! ! > f f f d f h g  .b g b  .b g | b |  . .b b | b g b b +...o.+.+.;X-X-XqX0XwXQ.wX/.!.wX!.Q.Y.L.L.V O.O.b n n n n n n o. .n V o.O.O.O.o.+.o.A ;X@...X.X.X.{ ] X...h h  .j m B z G.G.T.qXU.E.W./.~.8XHX^.^.R.~.R.eXeXR.R.HXOXR.OXOXOXOXHXOX8XHXHXHXOXeX8X8XeXeXeXeXeXrXeXwXeXeX^.eXeX^.^.R.8XOXeXR.R.eXeXeXR.HX8XwXwXtXqXqXtX2X>X4Xg #.n ..| v n v B v G.Y.Y.Q.Y.U.qX9X0X!.Q.0X!.Q.0X0X0XQ.<X<X<XP.<X1X<X<XP.qXrXrXwXrXrXeXeXeX8X8X",
"GXGXoXoXoX+XJXHXHXeXeXHXR.^.^.OXR.R.$X+XR.OXOXOX+XPXHXHXHXtXPXtXtX7X>X:X%.@.@.m n A v N B A.Y.Y.!././.~.^.E.wX^.eXeXeXeXeXeXeXeXeXeX^.^.^.^.E.R.~.^.^.^.HX^.OX^.OX^.OX^.OXeXOXR.R.R.R.R.OXHXOXeXHXHXHXHXR.R.eXOX+XOXOXOX^.8X8XOX8X8XPXrXyXtX2X4X;X;XO.@.N B H.Z.A.Y.Y.T.!./.OX$XOXOXHXHXOXHXHX8X+XOXHXR.OXOXOXHX^.HXOXOXJXJXGXKXLXKXGXGXLXGXGX+X+X+XGXPX^.^.8X8XwXeXeXwXeXwXwX^.rXwXrXrXqXqX0XqX0X0X!.1X1X,X>X;XO.X.X.X...] g h g m b v g v B v A Z C C L.K.K.K.J.K.=XJ.J.J.=X&X=X&X=XJ.J.J.&X=XK.J.J.&X=X=XJ.J.=X=X&X&X&X&X&X&XK.J.J.J.J.J.J.J.J.J.&X=XJ.J.&X&X&XJ.J.J.&X&X&XO.+.+.+.@...] X.{ [ g ] h f v v m v V N H.C J.,XL.K.P.,X,XP.P.,XK.P.P.P.U.U.I.0XY.qXW.qXwXeX8XrX8XHX8XHX8XR.OX8XR.W.!.!.!.Q.Q.Q.!.Q.qXQ.Q.!.qX0XqXqX!.!.Q.0XW.qXqXqXW.tXtXqX2X2X-X>X-X@.@.O.m N G.G.Y.T./././.$X$X$X#X#X$XoXoX@X'.@X[.'.oXKX@X'.KXoX@XKX'.@XKXKX'.@XKX@XKX'.LX@X@XKXKXGXKX@XKXoXoXGXoXoXoX@X@X'.@X'.@X@XMX@X'.@X'.oX@XLXLX@XLXPXIXIXtXtXyXtX4X+.@. .B C Z.S.Y./././.$X+XOXoXoX+XJXGXoX+XJXoXJXOXJXJXPXJXJXJXHXPXHXOXHXR.OXJXGXoX+XGXGXoXoX",
"].NX`.MX'.NX'.MXMX'.MXKXKX'.'.#X'.'.@X'.@X'.'.MX#XMXBXKXLXVXIXPXIXyXtX7X>X4X#.C o.B D.G.Y.T./.T.E.$X$XOXJX$XJXJX+X+XoXJXJXGXGXoX+XJXJX+X+X+XJXKXKXoX@XoXoX'.@X@X'.'.'.GX@XKX'.MX'.@X'.'.'.MXMX'.KX'.MX'.'.@X'.'.'.GXMXNXNXMXKX@XLXLXLXIXIXPXyXyX2X>X-X+.N F.D.S.S./.(.%X$X{.#X[.'.[.NXMXNXMXMXMX'.].NXKXKXMXMXMX'.MX'.'.NXBX`.mXSX`.NXmXmXDXNXNX].KX@XBX'.KXMX@XGXGXGXGXJXJXGXJXOXJXHXHXHXHX8X8XPXrX8X8XPXrXyXqXtX2X4X-.%...|  .m v B D.Z.Y./././.~.^.^.E.^.R.R.E.eXeXeXeXeXeXrXR.^.eXeXeXeX8XwXE.^.^.wXeXeXeXeXrXeXeXwX~.wXeXwXE.wXeXwXwXwXwXE.^.^.wXeXwXeXeXwXwXeX~.wX~.wXrXwXrXrXtXyX2X-X;X+.$.| g m m v B M A././.~.~.^.^.OXHXOXeXHXR.R.R.OXOXOXHXOXOXOXE.+XJX+XHX+XoXGXoXKXKXNXKXLX@X#XKXKX+X+X+X+XOXeXOXR.OXE.R.8X^.R.JXR.OXOX+XOX+XOXOXJXPXGXPX8XPXyXtXyX2X>X;X*XZ C N Z.Y.S.S.T.%X%X$X{.[.[.[.[.[.SX[.`. X X XSXSXSX}.ZX[.SX X X XSXSX`. XSX}.ZXZXSXSX XSXDXDXSXmXSXmXSXSX X`. X X X XSXmXmXSXmXSXSXmXmXNXmXDXDXmXVXVXVXCXCXIXyX7X7X2X&X=XD.D.S.S.T.T.%X%X#X[.{.].MX`.MX].BX`.'.'.mXNX`.MXBXmXMXNX'.NXMXNX].MXKX[.].].'.`.`.mXmX",
"SXDXSXSXZXBXmXAXmXmXZX X X`. X`. X}.`.[..X XSXSX XVXDXSXDXFXVXIXCXIXuXyXyX2X2XL.=XG.S.Y.S.T.T.%X%X[.{.[.].[.ZXNXmXmXmX`.`.[. X[.SXSX X].SXSX[.[.].`.[.mXmX[. X`.[.`. XSX XDX X XZX}. X`. XmXZXmXmXZXSXSX X X X X|.}. X|. XDXZX}.DXFXFXCXCXIXuXyXyX7X2X-XY.Z.Y.S.M.(.%X_.{._.XX`. X XSXmX X`.ZX XmXDXZXZXZX}. X|.ZX}.|.}. XmXmX}.ZXDXSXDXDXAXDX}. XSX XDX}.SXNXmXNXSXmXmXmX`.`.NXSXNX`.mXBXmXBXmXNXLXVXLXLXPXIXIXtXyX2X2X2X*X=X-XD.G.Y.A.S./././.$XOX$X+XoXGXGXGXKX@XGXoXoX@XoXMXoXoXoXGXoXMXGXGXKXGXGXGXGXGXGXGXGXGXoXoXGXoXGXGXJXGXGXoXGXGXGXGXoXoXGXoXGX+XoXGXGXGXJXoXJXGXGXPXIXPXtXtXtX7X>X;X#.*XZ N Y.Z.S.Y.T./.T.$X$X$X#X@XGXoXGXGXMXoXoX+XoXoXoX#X'.'.[.#X].@X@X X].`.NXmXmXSXmXmX`.SXNXSX X X.X`.mXmX].`.].mX`.].mX].[.`.mX[.[.mXmX`.mXDXmX[.VXVXVXCXIXyXyXyX2X2X=XL.G.S.m.T.(.%X%X_.XXXX{.XX.XXX X X XZX X X.X X}.}.}.}.}.ZXZX}.ZXZXZX}.ZXZX}.ZXZXZXZXAXSXSXZXSXZXmXZXSXZX X X X X|. X XSX}.}.ZX}.SXSX}.SXZXZXDXDXDXVXCXCXCXuXIXyXyX2X2XU.Y.S.S.(.T.(._._.XX{..X.XZXSX XZX XmXZXDXmXmXAXDXmXSXmXSXBXmXmXmX XSX XmX`. X|.|.}.}.}.",
"ZXZXAXAXAXZXSXmX}.ZXZXZX}.|.|.}.}.ZX}.ZX|.}.ZXZX|.ZXZXAXFXFXCXFXCXCXIXuXyX7X2X=XK.S.S.T.M.z._.%X_.XXXX}.|.}.ZXZX}.}.}.ZXZXZXZXZXZXZX}.}. XSX}.}.|.}.}.}.}.|.|.}.|.|.|.|.}.ZX|.}. X}.ZX XZXZXZXZXZXZXZX}.}.}.}.}..X|.ZX|.}.ZX}.ZXFXFXFXCXCXCXUXuXyXyX2X=XY.Y.S.M.(.)._._._.XX{.XX|.|.ZXZX}.SXZX}.AX}.}.}.ZX}.|.|. X}.ZX|.|.}.}.AX}.}.AXZXAXZXAXZX}.AXSXZXZXZXAXZXZXZXZXZXZXZXSXZXZXZX}.ZX}.ZXZXZXAXSXVXFXDXFXFXCXCXIXyXyX7X-XK.=XF.G.S.S.T.%X%X_.{.{.XX[.[.`.`. XmXmXZXmX}.mXZXmXZXmXmXSXmX}. X`.ZXmXZXmXmXSXSXmX X XSX XSXSXSXSX`.SX XmX}.mXmX`.}.ZX`.SXZX X X`.`.SXmXZX XmXSXBXCXVXIXIXyXyXyX2X7X,XL.G.Y.S.T.T.(.%X_.[.{.XX{.`.}. XSX`.`. XSX X}.}. X.X}.[..X X.X}..X}.}.}.}.AXZXZXZXZX}.ZX}.SX}.ZXDXZX`.mXZXSXZXmX XZX`.}.}. X X}.`.ZXSX}. XZXSXSXFXFXFXCXCXuXuX7X2X2XP.G.S.S.M.(.).)._.XXXXXX.X}.|.|.}.ZX|.ZX}.|.}.ZXSX}.}.SX}.}.}.|.}.ZX}.}.}.ZXZXDXSXSXZXSXZXZXSXZX}.}.}.}.SXZXZXZX}.}. X}.}. XZXZXZXZXZX}.ZXZXAXDXAXFXFXFXCXCXUXuXuXnX7X<XU.Y.S.M.M.).).)._.XX|.|.|.}.ZX}.}.ZX}.}.|.}.ZXZXZXAXZXZXZXZXZX}.AX|.ZX XZX}.}.|.|.}.}.ZX",
"ZXSXZXZXmXAXAXZXZX XmXZX}.}. X`. X X.X.X X`. X XZXDXSXSXFXFXFXCXCXUXCXlXnX7X7X1XK.S.m.T.z.(.)._.XX{.XX}.|. XZX}.ZXZXZX}.ZXSX X XSX}.}.}.SX X}. X}.}. X}.}.}. XmX}.SX X X XmXSXSXZX X XZX`. XZX X X XmX`.SXSXSX`.SX XmX`.mXSX XDXFXFXFXCXCXUXUXlXnX7X7X1XU.S.m.M.z.z.)._._.{.XX X`.`.ZXmX`.ZXmXZXmXmXZXmXZX}.mXBX`..XmX X}.mXmX}.SXSX XSXZXZXZXZXZXZXDXSXmXZXZXDXSXDXSXZXZXSXZXDX}.ZXZXDXSXDXAXDXVX}.SXFXDXFXCXCXCXUXuXuX7X2X-X&XS.S.S.M.M._._._.XX.X|.|.|.`.ZX XZX}.`.}.SXSXSX}. X`.SXmXmXZXmXZXmXZX`. XSXZX`.}.mXSXZX`.`. XSX`.SX XSX XSX}.}.`.SX`.mXSXmXmX XmX}.}.DXSXZX}.DXDXFXFXFXCXCXCXuX7X7X-XL.G.S.S.M.(.%X%X_.{.{.XX`.SX}.}.}.ZX|.}.}.}.}.}.}..X|.}.}.|.|.ZX|.}.}.|.}.}.ZXZXZXZXZXAXZXDX XSXSXSXZX`.ZXSX}.}. X`.}.`. X}.}. X X X X XZXDXSXDXFXCXCXCXuXUXlXyX7X7XL.Y.Y.m.M.z.z.)._._._.{.XX.X.X{.`. X].].].`.`.NXNXMX[.].MXNX`.].].NX'.].NXNXmXMXNXNXNXmXNXNXNX`.SX`.NXmX`.`. X[.`.`.`.].NX`.NX].].mXmXNXmXZXDXBXVXVXFXCXUXCXUXCXlXnXyX1XU.Y.S.M.z.z.)._._.XXXX[. X}.VX}.SX XSXmXSXZXDXZXSXZXZXDXSXZXZXmX}. XmX|.}.|.ZX}. X}.}.ZX",
"mXmXmXmXmXmXBXSXZXmXmX`.mX`.`.`.`.`.`.].`.`.[.[.DXBXmXmXVXVXCXFXUXUXUXlXlXnX7XI.U.S.m.M.z.z.).)._.XXXX{..X}.SX XmXDXSXSX`.SX X XZX X}.`. X XmX`. X`.[..X XNX`. X`.`.`.[.`.`.`.`.`.`.`.`.mX`.`.`.NXNXNXNX`.`.mXmX`.`.].].`.MXNXmXVXVXCXCXUXUXUXlXlXnX7X0XU.S.l.M.z.z.)._._.XX{.[.[..XNXNXNXmXNX`.NXmXmXNXmXNX`.NX`.mX].[.].].NXmXNX].NXmX`.mXmXmXmXmXSXSX`.mXmXmXZXmXmXmXSXAXZXmXDXZXZXSXSXAXZXZXAXZXAXFXFXCXCXCXUXUXlXlXyX7X1XI.S.S.M.M.z.).)._._.|..X|.|..XZX}.}.ZX}.SXZXZXZXZXZXZXSXZXZX XZXZXmXSXmX XZXZXmX X}.ZX}.ZX`.mXmXSX}.`.`.mX}. XSX`.}.ZX}.}.ZXZX}.ZX}.ZXZXAXZXDXDXDXVXFXCXCXUXlXlXyX7X1XU.G.S.M.z.).)._._.XXXX.X.XSX`. XSX XZX XmX X}. X.X.X X.X X|.}.}. X}. X`.`. X}.ZX}.SX}.ZXZXAXZXZX}.}.}.ZXZXZX X}.}.ZXZX X X X}.}.}.}.}.ZXZXZXZXDXFXFXCXCXUXUXlXnXyX7XU.Y.S.M.l.z.z.).)._._.XX{.[.'.[.{.@XKX@X'.@X@XKXGXGXKXKXoX@X@X'.oX'.'.KX@XGXMXMXGXMXMXMXKXMXMXKXMX'.'.MX'.'.'.'.@XKXKXGX@X@X@X@X'.GXGXMX'.LXMXBXBXLXVXCXCXUXUXlXlXnXnX2XP.S.m.l.M.z.z.)._._..X.X'.mX].KXNXNXNX].].`.NXNXVXmXmXmXZXmXmXmX`.mX`.`.[.SX[.`.[.`.].NX",
"oXJXGXJXGXoXKXGX@XMXoXMXKX@X@X@X@X'.@XoX@X@XoXKXGXKXLXLXPXCXIXCXlXlXlXlXnXnX7X1XY.S.m.l.f.z.z.)._.XX#X#X[.@XKX@X'.'.'.'.KX'.MXKXGXMXGX'.@X@X'.KX'.@X'.@XKX@X@XoX@X@XoX'.@XGX@X@XJXoXGXoXGXoX@XKXKXLXMXoXKX@XoX@X@XoXoXGXGXGXGXKXPXVXIXIXlXlXlXkXlXyX7X1XY.S.M.l.f.z.z.z._.%X$XoX@X$XGXGXJXoXGXJXGXoXoXKX@XGXGXKXGXGXoXoXoXoXoXoXoXJXJXJXJXJXJXJXGXGXGXGXKXKXKXKXMXMXMXKXMXGXMXMXNX'.'.MXmXMXMXBXBXmXBXFXVXFXCXCXUXUXUXlXnXyX2XL.S.T.M.z.z.).)._._.XX{. X.X XSXZXmX X X XSX XSX X X XZX`.ZX}. XZXZX}.ZX}.ZX XZXZX`.ZXZXmXZXZXZXZXZXZXZX}.ZXZXZXZX`.}.mXmXmX`.ZXmX`.`.`.ZXmXZXAXAXFXCXCXCXUXUXlXuXyX2XY.S.T.M.z.z.z._.).XXXXXX}. X X X`. XmX`. X`. X`.`.`.[.`.[.[.].].'.'.].'.MX'.'.MXMXMXMXMXNXLX'.mXMXNXNXNXNX].NX].mX'.].].].].].'.'.].'.NXMXBXMXBXVXCXCXUXUXlXlXlXyX7XI.Y.S.l.l.z.z.z.)._.%X%X$X+XR.E.OXOXHXOXOXR.R.OXHXOXOXR.HX8X8X8XR.R.R.8X8XOXR.eX8X8XHX8X8XHX8XJXJX8XeX8XR.R.R.HXOXR.OXOXOXHXOX8XHXHXHX8XOXR.HXeXPX8XIXuXlXlXlXkXkXlX7X2XL.S.m.l.l.z.z.z.).%X%X#XJX+XoXOXJX+X+XJXJXOXHXHX8XGXJXGXGXGXMXMXGXMXGXKXGXGXGXGXoX+XoXoX",
"wXeXwXeXeXeXeXE.HX8XOXHXHX8XHX8XeX^.^.^.^.~.E.wX~.~.8XrXrXtXyXlXlXlXkXlXkXnX7X-XZ.S.l.l.z.z.z.z.).%X$X$X$XHXHXOXOXOXJXHXJXHXR.HXOX+XOXOXOXOXOXOX8XR.OXOXeX^.R.eXE.E.E.R.eXeX^.wXwXwXwXW.W.~.wXwXE.wXE.eXR.~.^.~.wXwXwXwXwX~.W.wXtXPXyXuXlXlXlXkXdXbX7X1XZ.S.c.f.f.z.z.z.(.T.$X/.~.eXwXW.wXwXW.8X~.~.~.~.~.~.~.~.8XwX8XE.E.eXwXwX^.^.eXwXeXR.^.eXHX8X8XOXOXOXHXHX8XJXHXJX8XHXR.OXHXHXOXHXPXJXJXJXJXGXGXLXLXIXCXUXlXlXdXlXnX7X2XI.S.w M.l.z.z.)._.XX#X{.#X'.@XoXKXGXGXoXMXGXGXGXGXKXoXoXGXGXoXGXGX@X'.'.@X@X'.@X@XMXMXMX'.@XMX'.MXMXKX@XMXMXKXMXKXMXMXMXMXMXMXMXMXNXMXMXMXMXMXLXLXCXCXCXlXlXlXkXnX7XyXU.S.c.M.l.z.).z.)._.{.#X$X#X@X@X'.GXGX@XGX'.oX@XoXoXoXoXoX+X+X+X+X+X+XOXoXGX+XJXJXJXOXoXoXJXGXJXoXoXoXGXoX+XoXGXoXJXoXoXoX+XJXJX+XOXOXOXHXHXJXPXPXIXlXlXlXlXkXnXsX7X,XZ.C.c.f.f.f.z.z.(./.$X/.R.E.W.9X!.U.qXqXqX!.0X0X0X!.Q.0X0X<X0X<X0X<XQ.I.I.I.Q.0X0X0X0XQ.0X0XqX9XW.9X9X9X9X!.!.!.Q.!.!.Q.qX0X0X0XqX!.Q.qX0XqXqXrXtXyXuXnXlXkXlXlXdXnX7XU.S.m.l.f.f.z.z.(././.!.!.W.E.wX~.~.wX~.wXW.wXwXR.E.8X8XwXwX9XwXR.~.8XR.R.HX8X8XeXeX^.8X",
"0X0X0XqXqX!.qXqX!.Q.!.qX!.0X!.Q.!.!.!.!.Q.qXqXqX!.Q.qXqXrXtXyXnXlXlXkXkXdXnX7X>XU.C.k.l.f.f.f.M.(.T./.^.E.9XwXwXW.wX~.~.~.W.~.W.9X9XwXW.W.~.W.qXW.~.!.!.9XW.!.W.W.W.W.W.Q.qX!.!.W.!.W.!.qX0XI.<X<X<X<X<XU.Q.0XqXqXQ.!.0XqX!.0XqXtX2XyXnXlXkXkXkXkXbX3X1XY.m.c.f.f.f.l.l.S.T./.Q.!.Q.Q.!.0X0XW.W.Q.qXQ.qXqX!.qXqX0X!.Q.!.Q.Q.Q.qX0X0X!.qXqXqXqXqXqX0X0XqX0XqXqX0XqXqX!.9XwXwXwXwX8XwXE.wXwXwXwX8XwXwXrXtXPXIXuXlXlXlXlXnXbX7X2XL.S.M.l.z.z.z.z.(.%X$X$X/.^.E.8XHX8X8XR.OX8XOX8XOXOX8XHXJXHXHXHXHX8X8X8XHX8X8XHX8XR.+XR.HXJXOXHXOXOXJXOXJXOXJX+XOXJX+X8X+XOXHXOXOXHXHXHX8XHXHXPXPXIXIXlXlXkXlXdXnX7X>XF.S.m.l.l.f.z.).(.%XT.^.OX^.R.R.R.eX8X8XR.E.R.R.R.8XeXwXE.^.eX~.~.^.wX^.wXwXwXwXwXwXwXwXwXwXE.wX9X8XwXwX~.^.eX~.wX~.~.~.^.^.E.wX~.~.~.~.~.wXrXtXtXyXnXlXlXkXkXdXbX7XP.Y.S.l.l.f.f.l.m.T.Y.Y.Y.K.U.U.,X,XI.,XP.P.=X,XP.P.,XP.P.I.I.,XP.P.I.P.<X,X<X,X,XP.P.P.,XP.P.P.P.U.I.<XI.I.<X<X<X<X,X,X,XP.P.,X,X,XI.U.1X,X1XP.1X<X7X7XnXnXkXkXdXsXxX-.J.C.c.d.f.f.f.l.M.S.S.U.U.0X0X0X0X<X0XQ.Q.qXqX0X9X<XqX9X<X9X9X0X0X!.qXQ.Q.Q.Q.Q.Q.Q.0XQ.",
",X,X,X,XP.P.<X<X,X,X,X=X=X,X=X,XP.P.P.K.P.P.,X=XK.U.-X=X1X2X7XnXdXdXkXkXdXvX6X-XA.S.k.l.f.f.l.M.S.S.Y.I.G.<X,XI.,X<X<X<X<X<X<XI.,X,X<XP.<X,X<X,X<X<X<XU.<X1X,XP.,XI.P.,X,X,X,X<X,X,XP.P.P.U.<X<XI.0X<X<X1X1XK.=XK.K.K.K.K.=X,XK.1X2X7X7XdXkXkXdXjXbXbX-XA.B.c.k.f.a.f.m.S.S.Y.I.L.=X=XP.=X=XP.K.K.K.K.K.K.K.K.K.P.K.P.K.K.P.K.=XK.=X=X,X=X=X=X,XP.,XP.P.,X,X,X,X<XI.P.I.<XI.I.<X,X<X<X<X<X<X<X<XQ.!.qXtXtXyXyXnXkXlXkXkXdX7X-XL.N.c.l.f.f.l.z.M.T././.W.W.!.W.!.9XE.W.W.wXE.9XE.W.9X~.qXW.W.9X~.wX~.9XwXwXwXW.wXrX9X9XqX0X!.0X0X0X0XQ.0X0X0XQ.0XqXQ.qXQ.Q.qXqXqXQ.Q.!.qXqXW.tXtXtXyXnXlXlXkXkXbX6X2XU.S.m.l.f.f.z.z.M.T./.$XW.E.qXqXqX0XqX0XQ.qXW.W.!.!.!.qX!.Q.I.I.Q.I.I.U.I.I.I.I.I.<XI.0X<X0X!.<XI.0XQ.I.Q.!.I.<XI.I.I.I.Q.I.<X,X<X<X<X0X<X0XqX1XtXyX7XnXkXkXkXnXsX7X=XA.n.k.f.f.f.l.M.S.S.Q.Y.1XI.L.-X=XL.,XP.K.=XP.P.K.=XP.=X=XK.=X=X=X=X=X&X=X=X=X=X=X=X,XP.,XP.,X,X=X=XJ.K.&X=XJ.K.K.K.K.=XK.=X=XK.P.K.P.P.P.P.U.-X,X2X7XbXdXdXgXjXdXbX7XL.C.c.k.a.k.l.k.m.S.Y.0XP.-XK.J.=X=XK.J.K.P.P.K.U.P.-XU.U.1X<XU.,X<X,XP.,XP.P.P.L.P.K.K.",
"Z &X&X=X&X=X&XJ.J.K.K.K.K.=X=XK.=X=X=XJ.J.&X&X&X=XJ.+.-X-X4X5Xr.sXsXjXdXdXpX6X*XZ.b.h.s.d.s.h.c.N.C.L.J.J.&XZ =X&X&XJ.J.J.J.J.=X,XK.=XJ.K.=XK.K.J.&X=XJ.J.=X=XK.=XJ.J.J.&X&X&X=X=X=X&X=X&X&XZ Z O.O.Z Z J.J.J.K.&X=X=XJ.J.=XJ.J.;X*X5XxXvXjXjXgXgXbX6X;XZ.b.j.s.a.k.k.j.N.A.F.J.J.&X&XN &X&X&X&X&X&X&XO.=X&X&X=X&X&XK.J.J.&X&X&X=XJ.J.J.=XJ.&X=XJ.J.K.J.=X=XJ.=X=X=X-XJ.J.J.&XO.&XJ.J.J.&X=XK.K.=XK.=X-X>X7XbXvXjXdXgXiXvX3X;XF.B.c.k.d.d.f.l.m.Y.Y.Y.,XU.U.P.U.=X=XK.K.=X=XK.,X=X,X=X,X,X,X=X,X=X=X=X,X=X=X=XK.L.P.1X<X<X<X<X<XI.I.<X<XI.<X<XI.I.,XI.I.I.P.I.I.I.I.I.1XQ.I.qX2X7XbXbXdXkXgXkXkXbX>XL.C.k.l.f.a.f.c.m.Y.Y.L.P.K.P.P.=X,XP.P.P.P.K.=XK.K.=XK.J.K.=XJ.J.J.=X=XJ.&X=X&XJ.K.K.J.=X=X&X=X=X&X&X&X=X=XJ.=X=X=X=X=XJ.K.=X=X=X&XJ.J.J.=X-X-X>X3XbXsXsXkXgXjXpX5X+.Z.b.v.s.a.a.h.x.b.Z.G.G.V C Z -X&XC O.Z Z Z O.O.O.O.o.O.O.O.o.O.O.O.o.O.O.O.o.o.O.O.O.Z Z O.&XO.+.o.O.O.o.O.Z Z o.O.O.O.O.O.O.Z Z Z &XZ Z *XJ.+.-X5X6XcXsXfXgXjXaXvX4XH.V.x.k.a.a.g.c.b.A.Z.&XH.J.K.&XJ.L.J.J.J.J.J.J.J.J.Z Z O.&X&X&X&XZ &X&X=XJ.&X&X&XO.&XZ ",
"J.=X&XJ.J.J.=X=X&XK.K.J.J.=XJ.K.=XJ.K.J.J.J.J.J.J.K.&X=X=X:X7XbXsXsXjXgXjXvX6X-XG.N.k.s.a.s.d.m.S.S.U.=XL.-X&XK.=XK.K.=XK.J.J.=XK.J.K.=XK.J.J.J.=XK.K.K.J.J.=XK.=X=X=X=XL.=XJ.J.Z &XJ.O.&X&X=X=XO.Z =XJ.J.J.K.K.J.=X=X=X=X=X&X=X-X-X5XbXbXjXfXfXjXbX6X-XG.B.x.s.s.s.h.x.C.A.G.J.L.O.=XK.=X&X=X=X=X=X=X=X=X=X=X=X&XK.K.&XK.J.=XK.&XO.&X&XJ.J.&X&X=XK.=XK.K.J.=XK.J.K.=X=X=X=X=X=XK.K.K.=X=X=X=XK.=XK.-X-X>X2XbXbXjXjXkXsXsXbX;XL.C.c.a.f.f.f.l.S.S.G.Y.,XP.P.,X,X,X<XP.P.=X,X,X,X,X=X,X=XK.K.P.K.=XK.=XK.K.=X=X=X=X=XK.J.J.J.=X=XK.=XK.K.&X=XK.K.=X=X=X=X=XK.K.K.=XK.K.O.J.L.-X>X2XbXsXdXdXgXkXsXbX>XF.C.j.a.f.p.l.m.m.S.Y.U.P.U.P.K.,XP.K.P.P.P.=X,X=XK.=X=X=X=XK.P.,X=XK.J.=X=X=XK.=X=X,XK.=X=X=X=X=XK.K.P.K.=X,X=X=X=X=X=XK.K.J.K.=X=XK.K.K.K.;X-X2X6XcXdXgXgXjXpXvX7X&XA.n.k.s.s.d.h.n.t A.L.H.-X&XH.O.O.V &X&XO.&X&XO.&XO.O.Z Z Z Z Z Z Z Z Z Z Z Z Z Z Z J.&X&X&XZ J.J.=X=XK.K.=X=X=X=XJ.J.J.J.K.J.J.J.J.J.Z &XO.J.O.=X>X6XbXsXjXkXjXsXcX4XJ.N.j.h.a.a.g.h.B.A.D.&XG.=XK.=X=X=X=X=X=XJ.&X=X&X-X&XJ.-XL.L.-X=X=X=XK.J.K.=XJ.=XK.=X=X",
"Z Z O.Z Z Z Z V O.O.O.O.O.O.O.O.V Z Z O.Z O.O.Z O.O.O.Z +.$.;.t.zX3.dXgXjXvX6X-XZ.C.k.d.p.a.k.w b.V.F.J.H.O.&XJ.J.J.&XJ.&X&XO.Z O.o.O.O.O.O.O.O.O.Z Z Z +.Z Z O.Z V O.o.O.o.Z &XZ O.O.Z &X&XZ J.Z =XJ.Z =X&Xo.O.Z Z o.O.O.Z O.O.%.#.;.*.vXjXsXgXfXzXbX-XZ.m.k.a.p.s.k.c.V.A.C A C O.@.C O.O.O.o.O.O.O.Z o.Z o.O.Z Z O.Z Z O.o.O.O.O.Z Z Z O.O.Z O.O.V Z O.o.O.Z O.o.Z Z &XJ.J.J.&XJ.J.O.O.O.&X&XZ J.&X*X;X4XbXsXjXjXhXdXsX6X>XG.N.c.d.d.a.g.n.N.A.D.F.=X&XJ.&Xo.O.O.Z Z Z O.O.O.Z O.O.O.O.O.O.O.&X&XZ &X&XO.&XJ.O.O.O.O.O.O.O.O.O.O.@.O.O.O.O.O.O.O.O.o.o.Z o.o.o.J.Z O.J.H.+.:X;XbXbXaXjX0.0.y.r.>XF.C.j.d.a.f.c.x.m.A.Z.K.J.H.&X&XO.&X&XO.O.&XJ.Z J.Z J.J.&XO.&X&XZ Z Z O.O.O.V Z V O.Z Z Z O.O.J.J.J.J.Z O.&XZ J.&XJ.O.O.&XJ.O.&XO.O.O.J.Z Z +.O.+.>.cXvX0.fXhXjXvX5X=XG.m.h.d.a.s.g.n.C.Z.G.P.J.J.J.O.&XL.O.Z &XJ.Z O.O.&X&X&X&X=XJ.&X=X&X&X&XO.=X&X=XJ.Z Z J.&XZ &XJ.&XZ Z O.O.V Z Z Z O.=XO.=XJ.J.J.J.O.O.&XZ Z &X+.o.$.>.cXvX3.fXfXsXvX4XH.V.w s.a.p.h.j.b.A.Z.=XC o.O.o.o.Z Z Z V Z O.Z J.V Z O.O.o.o.O.Z Z Z V Z O.O.O.O.Z O.Z ",
"Z O.O.Z Z Z Z Z &XO.O.O.Z &XO.O.Z Z Z Z Z Z Z Z Z O.+.C O.-.-.xXvXsXgXfXiXpX3X+.x k c.s.p.2 h.9 V.x M O.Z &XJ.O.O.O.O.O.O.O.O.Z O.O.V O.Z O.O.O.Z O.Z O.Z Z O.Z O.V O.O.O.Z O.V O.O.Z Z Z O.O.Z O.O.O.O.O.O.O.O.Z O.Z Z Z Z Z O.+.#.;.3Xy.hXhXfXfXzX*.#.M k e 4 2 2 7 v.V.x N Z C O.J.J.O.O.O.Z O.O.O.o.O.Z O.O.O.O.O.O.O.Z o.o.o.O.Z O.&Xo.Z O.Z o.O.O.o.Z O.V O.O.Z O.O.O.O.O.O.O.&XO.O.O.O.O.O.Z O.+.@.-.:.vXiXfXhXiXy.xX$.N t x.k.p.2 g.x.b.A.G.G.O.+.Z H.O.V Z Z S =XJ.A J.Z Z Z &XJ.&XJ.J.J.&XJ.&X&XJ.&XJ.J.J.=X=X=X=X=X&X=X&X&X=X=X&X=X=XK.=XJ.K.=XK.=XK.=X=XJ.=XK.K.-X-X5X6XzXsXgXhXiXaXbX#.N V.h.g.2 3 g.n.b.Z.G.A O.F.Z O.O.O.&XZ O.&XZ Z Z Z O.Z O.O.O.O.O.Z Z Z Z Z Z C Z Z &XO.&XO.Z Z Z Z Z Z O.O.&XO.O.Z O.Z O.&XZ Z O.Z Z Z C O.#.O.;X=.bXzXiXfXfXaXvX;.+.M t 8 p.p.s.g.y V.Z.H.Z Z V Z J.&X&XZ O.O.O.O.O.O.&XO.O.O.O.O.O.O.O.O.Z O.O.O.O.O.Z Z O.o.O.Z Z Z O.O.O.O.O.O.O.Z O.O.O.O.O.Z &XO.O.O.&XO.&XZ +.Z $.>.cXaXhXfXfXaXzX5XH.C.c.7 p.p.g.9 N.x x +.C O.Z O.Z Z O.Z O.O.o.Z O.V O.&XZ O.O.O.O.O.O.O.Z O.O.O.O.O.O.O.",
"O.&X&XO.J.*X&X&XO.O.O.O.O.O.O.O.&X&X&X*X&X&X&X*X&XZ O.=X;X$.5X3XvXiXjXfXiXpX6X*XM t 8 4 2 s.h.v.B.z N O.H.O.Z &XO.O.O.O.Z &X&XO.=XJ.&XO.&XJ.=XJ.*XO.O.&X&X&X&X&X&X&X&X&X&X&X&X&X&X&X&X&X&X&XO.&XZ O.O.O.O.&XO.&X&X&X&X=X=X&X&X&X;X;X5X3XzXiXhXfXiXzX*.#.x t w 4 2 p.7 v.V.Z.H.J.J.&XJ.J.&X&X&X&XO.&X&X&X&X&XO.&XO.&X&XO.&X&X=X&X=X&X&X&X&X&X&X&X&X&XO.=X&X=X&X&X&X&X&X&XO.O.O.Z O.O.Z O.O.&XZ O.O.Z +.O.;X5Xr.zXiXjX8.iXaX*.#.B b.x.4 p.s.s.v.C.Z.G.F.*XO.&XJ.*XL.-X&XK.-XK.-X&X&X&X&X&X&X&X&X&X&X&X&X&X&X&X&X&XJ.&XZ Z Z Z O.&XO.O.O.Z O.O.O.O.Z O.O.O.O.O.Z O.O.O.V O.Z V +.%.:X3XzXaX8.gXjXvXxX4XN l g.k.2 a.7 x.N.Z.F.J.&XJ.O.O.O.O.O.O.O.O.&X&X&XO.O.O.O.O.O.O.O.&XO.J.+.&X&XO.&X&X&XO.O.O.J.&XJ.J.O.&XO.O.O.O.O.O.O.O.O.O.=XO.&XO.=XJ.O.&X*X-X*X5X3XsXsXfXfXaXpX>.O.x y 7 2 p.4 s.n.k Z.C C Z O.Z Z Z O.Z Z O.O.O.&XO.Z O.O.O.Z O.O.O.O.O.O.Z o.O.O.O.O.O.O.O.Z O.Z Z O.O.O.O.O.O.O.O.O.O.O.O.O.O.O.O.O.O.O.O.O.Z *XZ :X6Xt.vXhXfXhXaXzX4XH.V.x.4 2 p.s.x.r x M O.H.&X&X&X&X&X&X&X&X&X&X&X&X&X&X&X&X&X&X&XO.&XO.&XO.&X&X&XJ.J.J.J.",
"Z O.O.O.O.Z Z Z O.O.O.O.O.O.O.O.J.Z Z Z Z Z O.Z O.Z O.&X*X%.-.*.4.3.fXfXiXzX3X*XD.B.7 4 2 2 7 n.l x M O.C J.O.O.O.&X&XZ O.O.&XO.O.O.O.O.O.O.O.O.Z Z &XO.O.O.O.O.O.O.O.O.&XO.O.O.O.O.O.O.O.O.O.O.O.O.O.O.O.O.O.&XO.O.O.O.Z O.Z O.-X+.4X3XzXiXhXgXgXzX3X#.x b.w s.p.g.h.r k A.C C H.O.Z Z O.Z O.O.O.Z O.O.O.O.O.O.O.J.O.o.O.O.O.Z O.O.O.Z &XZ O.O.O.Z O.Z O.O.O.O.O.Z O.O.O.O.O.O.&XO.Z O.O.O.O.O.&XZ +.O.>X5X3Xe.iXhX8.2.4.:.>XH.b.x.4 p.a.s.v.B.z F.F.O.O.&XJ.Z O.@.O.O.Z o.O.O.&XO.O.&X&XJ.J.O.Z &XJ.J.J.&X&XJ.O.&XO.Z Z O.Z &XO.O.O.O.O.O.O.O.O.O.O.O.O.O.O.O.Z O.J.=XZ Z *X;X:X>.zX5.fX6.2.4.=.-.C B.8 k.s.d.k.w B.A.N &XZ J.O.O.O.O.O.O.O.O.O.O.O.O.O.O.O.Z O.O.Z &XO.&X&X&X&X&X&XO.O.O.O.&X&X&X&XJ.O.O.O.&XO.O.&XO.O.&XO.O.O.O.O.O.O.O.O.+.o.>X#.;.cX6.3.9.fX3.vX>.&Xx b.h.p.a.4 j.n.l x J.C O.&X&X&XO.O.&X&XO.O.O.O.O.O.O.O.O.O.O.O.O.O.O.O.O.O.O.O.&XO.&XO.O.&X&X=XO.&X&XO.O.O.O.O.O.O.O.O.&XO.&XO.O.O.&XO.O.&XZ +.O.$.;.r.4.iXfXfXaXzX5XC B.w 7 2 s.g.x.k Z.x +.C &X&XO.O.O.O.Z O.Z &X&XZ O.O.O.O.Z O.Z O.O.O.Z O.O.O.Z O.O.&XO.",
"O.O.O.O.&XO.&X&XO.O.O.O.O.O.O.&XO.&XO.&XO.&XO.O.&XJ.Z O.*X#.4XxXvXiXhX8.iX4.:.+.D.B.9 s.2 p.7 v.l A.N O.C &XZ O.O.O.O.O.O.O.Z O.O.O.O.O.O.O.O.O.Z Z O.O.O.O.O.O.J.&XO.&X&X&X&XJ.O.O.O.O.O.O.&X&X&XO.O.O.Z O.Z Z O.O.Z O.&XZ O.&X*X+.4X3XpXhX8.8.hXzXxX;Xx n.9 4 2 4 7 r z A.C J.H.+.J.Z O.O.O.O.&X&X&X&XJ.&X&X&X&X&X&X&XJ.&X&X&X&XO.&XJ.&X&XJ.&X&X&X&X&XO.&X&X&XZ O.Z O.O.O.O.O.O.Z &XO.O.O.O.O.&XO.+.O.;X4X=.4.3.hXhXiX5.:.#.F.b.x.s.p.p.s.v.N.x H.F.O.&XZ J.O.O.O.O.O.Z Z &XO.Z O.Z Z O.&XO.O.&XO.O.O.O.O.Z O.Z O.O.&X&X&XO.O.&XJ.J.J.J.J.&XJ.O.&X&X&XJ.J.&XJ.Z O.J.&XZ H.*X;X4X6XzX4.8.hXfX5.r.#.N N.7 s.4 3 7 9 N.A.N &XC &X&XO.Z &XZ &XO.O.O.O.O.O.O.&XO.&XZ &XJ.&XJ.Z J.J.&XO.Z Z O.O.O.O.J.&XZ Z Z &XO.Z O.O.O.O.O.Z O.O.O.O.O.O.J.O.O.&XZ ;X#.$.cX4.hXgXfX5.pX5X*XM y 8 2 s.2 h.y V.A.H.C Z O.J.J.&XO.J.O.O.&XZ O.O.Z &XO.O.O.O.&XZ O.O.O.O.O.O.O.O.O.O.O.O.Z O.O.O.O.O.O.O.O.O.O.O.O.O.O.O.Z O.O.O.O.Z O.O.&X&X*XO.$.=.r.aXiX8.0.aXe.5XJ.V.w j.3 4 4 w k Z.A.&XN &XO.O.&X&X&X&X&X&XJ.&X&X&XO.&X&X&X&X&XO.O.O.O.O.O.O.O.O.&X&X&X",
"O.O.O.O.O.O.O.O.O.O.O.&XO.O.O.Z Z O.Z O.O.O.Z O.Z J.&XO.+.;X4XxXvX3.hXfX0.vX:.*Xx k 9 4 s.2 8 v.V.z M O.H.&XJ.O.O.Z O.O.O.O.O.O.O.O.Z J.J.J.J.J.O.&XO.O.O.O.O.O.O.O.Z &XO.&XZ O.O.O.O.O.Z Z O.Z O.O.O.O.Z &XO.O.O.O.&XZ &XJ.O.&X+.#.5X3Xe.0.fX8.fXzXxX;XD.t 9 4 2 s.7 v.l x C C C O.Z Z &XZ O.O.J.Z O.&XZ J.O.Z J.J.O.O.J.O.O.&XZ &XZ &XO.Z &XO.O.&XZ &XZ &XZ &X&XO.&XO.&XO.O.O.O.O.O.O.O.Z &XO.J.O.O.O.:X;.>.vX3.8.0.3.5.xX#.D.b.x.s.p.p.g.x.N.z F.C O.O.Z Z O.J.J.J.J.J.J.J.J.&X&XO.&XO.O.O.&XZ &XO.O.O.O.&XZ O.O.O.Z Z O.Z O.&XO.O.O.O.O.O.O.O.O.O.O.O.O.O.O.O.O.O.O.Z J.O.#.$.*.e.3.8.fX8.pX3X#.B B.8 4 p.4 7 r B.A.N O.H.O.O.O.O.O.O.Z &XO.O.O.&XO.&XO.O.O.O.O.O.O.O.O.Z O.O.O.O.O.O.O.O.O.O.&XO.O.&XZ &XZ O.O.O.O.O.O.O.&XO.O.O.O.Z Z O.&XJ.;X:X$.cX4.3.fXfX3.zX>.*Xx y h.2 p.4 4 n.l Z.H.C J.&XO.O.O.O.O.O.O.O.O.O.O.O.O.O.O.Z O.O.O.O.O.O.O.O.O.O.O.&XZ O.O.O.O.O.O.O.O.O.O.&XZ O.O.O.O.O.O.&XO.O.O.O.O.J.Z &XJ.*X&X$.5Xr.pXiXfX0.iXe.5XC k w 8 4 2 s.x.k x D.O.N &X&XO.J.O.&XZ J.O.O.Z O.O.J.O.O.O.J.O.Z O.O.Z O.Z O.Z O.O.O.O.",
"O.O.O.O.O.O.O.&XO.O.O.O.Z O.O.O.&XO.&XO.O.O.O.O.O.O.&XO.#.:X-.r.vXiX0.fXhXvXxX;XM k 8 2 p.2 h.v.B.Z.N O.H.&X&XO.&XO.&XZ O.O.O.O.O.O.O.O.&X&XO.&XO.O.O.O.O.O.O.O.O.O.O.O.O.O.O.O.O.O.O.O.O.O.O.O.O.O.O.O.O.O.O.&XO.O.O.O.O.O.O.&X+.#.;.3XvXiXiXfXhXzXxX:XD.t 9 7 3 7 7 e l A.C J.H.*XJ.J.&X&X&XO.O.O.O.O.O.O.O.O.O.O.O.O.O.O.O.O.O.O.O.O.O.O.O.O.O.O.O.O.O.O.O.O.O.Z Z O.O.O.O.O.O.&XO.O.O.O.O.O.O.O.+.O.$.-.*.y.0.hX8.3.y.>.;XF.b.9 s.p.p.g.r V.z H.H.O.&X&XZ &XO.O.&XO.O.O.O.O.O.O.O.O.O.Z Z Z O.O.O.O.O.O.O.O.&XO.O.O.O.O.O.&XO.O.O.O.O.O.O.&XO.O.O.O.O.O.O.&XJ.O.&X&XZ J.+.;X4X>.e.5.fX8.2.aX*.:XF.B.h.4 4 p.h.v.B.A.N O.H.O.O.O.O.O.O.&XZ O.O.O.O.O.O.O.Z O.&XO.O.O.O.O.&XO.O.O.O.O.O.O.O.Z O.O.O.O.O.O.O.O.Z &XO.O.O.O.O.Z O.O.O.O.O.O.O.O.J.+.4X4Xt.4.hX8.fX5.pX5XO.Z.n.h.p.s.s.h.v.z A.J.H.H.O.J.&X&XO.J.O.O.Z O.O.O.O.O.O.O.O.O.O.O.O.O.O.O.O.O.O.&XO.O.O.O.O.O.O.O.O.O.O.O.O.O.O.O.O.O.O.O.Z O.O.&XO.O.O.O.Z J.+.&X4X6XcXpXiX8.fX5.t.5XC z w 7 s.3 4 w k A.Z.J.C O.O.O.O.O.O.O.O.O.O.O.O.O.O.O.O.O.O.O.O.O.&XO.O.&XO.&XO.O.&XZ ",
"O.O.O.O.Z Z &XO.&XO.O.Z O.O.O.O.Z O.O.Z Z O.O.O.J.J.J.Z +.;X-.3XpXiXhXfX0.y.3X+.M t w 2 2 2 8 r V.A.N O.C &X&XO.O.O.O.O.O.O.Z O.O.O.O.O.O.Z Z O.O.O.&XO.O.&XO.O.O.&XJ.&XZ &XO.&XZ O.O.O.O.O.Z O.O.O.O.O.O.O.Z Z Z Z J.O.O.O.Z &X*X#.5X6XzX0.iXfXhXzX*.#.M t 9 7 2 g.8 x.l x N J.C *XJ.J.&XZ O.Z &XO.&XO.O.&XO.&XO.O.&XO.O.&XZ O.&XO.O.J.&XO.O.&XO.J.&XZ Z &XZ &X&XO.O.&XO.O.O.Z O.O.O.Z O.O.O.&X&XO.+.&X$.4X*.y.6.hX8.3.5.:.#.M t c.s.p.p.g.v.V.A.N C &XZ &XO.&XZ O.O.O.O.O.O.O.O.O.O.O.O.O.O.O.O.O.Z O.Z O.O.O.O.O.O.O.O.O.O.O.&XZ J.&X&XJ.Z Z &XO.J.O.&X&XZ Z O.&XZ &XZ J.+.;X-.>.zX5.0.hXfX4.:.:XN t h.k.s.p.h.x.k x F.&XH.O.O.&XO.O.O.O.O.O.O.O.O.O.O.&X&XO.&XO.&XO.O.O.O.&XZ &XO.O.O.O.O.&XZ Z O.O.O.O.O.O.O.&XO.O.O.O.O.O.Z O.O.J.J.J.&XJ.Z *X:X4XxXpXpXfXfX5.4.5X+.Z.y 8 p.p.2 j.r B.x Z H.Z Z Z &XO.O.&XO.O.&XO.O.O.O.O.O.O.O.O.O.O.O.O.O.O.Z O.O.&XO.Z O.&XO.O.&XZ O.O.O.O.O.O.O.O.O.O.O.O.O.O.O.O.O.O.O.O.&XH.+.&X:X5XxXpXfXfX0.iXzX5XC B.w 7 2 2 g.w y x Z.O.H.&X&X&XO.O.&XO.Z &X&XO.&XO.&XO.O.J.&XO.O.O.O.O.O.O.O.J.O.O.O.&X",
"O.O.O.O.&X&X&XZ Z O.O.&X&XO.O.O.O.O.O.O.O.O.O.O.O.&X&XO.;X;X-.*.e.aXhXfX0.vX3X*XM l 4 s.2 4 7 n.l x D.&XH.&XO.O.O.O.O.O.O.O.&XO.O.O.O.O.O.O.O.O.O.O.O.Z O.O.O.O.O.O.O.O.O.O.O.O.O.O.O.O.O.O.&XO.Z &XO.O.O.O.&XO.O.O.O.O.O.O.O.O.*X#.-.3Xe.0.3.fXfXzXxX#.M b.j.s.p.s.g.x.B.A.N J.H.O.J.J.O.&XO.O.O.O.O.O.O.O.O.O.O.O.O.O.O.O.&XO.O.O.O.O.O.O.O.O.O.O.O.O.&XO.O.O.O.O.O.Z O.O.O.&XO.Z &X&XO.O.O.Z J.Z +.&X:X;.6XpX3.8.8.3.y.xX#.M b.x.s.p.p.g.v.l A.N C &XJ.Z O.O.&XO.O.Z &XO.O.O.O.O.O.O.O.&XZ Z O.O.&XO.&XO.O.O.&XO.O.O.O.O.O.O.O.O.O.O.O.O.&XO.O.O.O.O.O.O.&XO.&XO.&X&XZ J.*X;X4X:.zX5.fX0.0.5.xX#.N N.7 2 p.p.h.w V.A.F.O.C *XO.Z O.O.O.O.O.O.O.O.O.O.O.O.O.O.O.O.O.O.O.&XZ Z O.&X&XO.Z O.O.Z &XO.O.O.O.O.O.O.O.Z O.O.O.&XZ O.O.O.O.O.&XJ.O.+.Z *X#.-.zXpXiX8.fXaX4.6X*Xx n.h.p.2 4 7 n.V.Z.C C J.&XZ &XO.O.J.O.O.O.O.O.O.O.O.O.O.O.O.O.O.O.O.&XO.O.&XO.O.O.O.Z O.O.O.Z &XJ.J.O.O.O.O.O.O.&XZ O.O.O.O.O.O.O.O.O.O.O.J.*XO.:X6XxXpX2.fXhX3.e.>.Z V.w 7 2 2 4 w N.x A.Z H.O.&XZ O.O.O.O.&XO.O.O.O.O.O.O.O.O.O.O.O.O.O.O.O.O.O.O.O.O.O.O.",
"O.O.O.&X&XO.O.Z O.O.O.O.O.Z O.O.O.O.O.O.Z &XO.O.J.O.O.O.+.$.:Xr.vX3.8.hX3.vX*.+.M N.j.p.4 2 7 y k A.M O.C O.&XO.O.O.O.&XZ &XO.Z O.O.O.O.O.O.O.O.O.O.O.O.Z &XO.O.O.O.&XZ O.O.&XZ O.O.O.O.O.&XO.O.&XZ O.O.O.O.O.O.O.O.J.O.O.&XZ J.+.*X-.xXe.3.jXfX3.pX3X;XD.k g.s.p.s.g.r l A.H.C H.O.&XZ &XJ.Z &XZ O.O.O.&XO.O.Z O.O.Z O.Z O.O.O.O.O.O.O.O.O.O.O.O.O.O.O.O.O.&XO.O.O.O.O.O.O.Z &XO.O.O.O.O.O.J.&XO.J.+.&X#.5X3Xy.3.fX0.3.4.:.;XD.b.9 4 p.s.4 v.V.A.N C O.&XO.&XZ O.O.O.&XZ O.O.Z &XO.O.O.O.O.O.O.O.O.O.O.O.O.O.&XO.O.O.O.O.O.O.O.O.O.&XZ Z O.O.O.O.O.O.O.O.O.Z O.O.O.&X&XJ.Z &X;X4X*.zX5.fX0.0.5.:.:XF.t 8 s.3 a.7 w l x F.O.C O.J.O.O.O.O.O.O.O.&XZ O.O.O.&XO.O.O.O.O.O.O.&XO.O.O.&XO.O.Z &XO.O.O.O.O.&XZ O.O.&XO.O.O.O.O.O.O.O.O.O.O.O.&XO.O.&XJ.*X:X:XcXpXhXfX2.aX4.5X*Xx v.j.2 p.2 g.r V.Z.H.H.H.O.&XO.O.O.O.O.O.O.O.O.O.O.O.O.O.&XO.&XO.O.O.&XO.O.O.O.O.O.O.O.O.O.O.Z O.O.O.Z &XO.O.O.O.O.O.O.&X&XO.O.O.O.O.O.O.O.J.+.J.:X5XxXpXhX8.hXaXe.5XZ z w 8 2 2 7 x.k V.D.O.C O.J.&XO.O.O.O.O.O.O.O.O.O.&XO.O.Z O.O.O.O.O.O.O.O.O.O.O.O.O.O.",
"O.O.O.Z Z O.O.&XO.O.O.&XO.&XO.Z O.O.O.O.O.O.O.O.Z O.O.Z +.$.4X3XvX3.fX8.0.4.3X;XD.k 8 p.a.p.7 w z A.F.&XH.O.J.O.O.O.O.O.O.O.O.&XO.O.O.O.O.O.&XZ &XO.O.O.O.O.O.&XO.O.O.O.O.O.O.O.O.O.O.O.O.Z &XO.O.O.O.O.O.O.O.&XO.O.J.O.Z &XZ Z ;X+.;.*.e.aX8.8.hXvXxX#.M t c.7 2 s.g.n.l x C H.H.&X&XJ.J.J.&XZ &XO.O.O.O.O.O.&XO.O.&XO.O.&XO.O.O.O.O.O.O.O.Z &XO.O.&XZ &XO.Z O.O.O.O.O.O.O.O.O.O.O.J.O.O.O.Z &XO.Z +.Z :X-.*.zXhXfXhXiX4.:.;Xx b.x.s.p.s.s.x.B.A.H.M &XZ &XO.O.&XZ O.O.O.O.O.O.O.O.O.O.&XZ O.O.Z O.O.O.O.O.O.Z O.&XZ O.Z O.O.O.O.O.O.O.&XO.O.O.O.O.O.O.O.O.&XO.Z O.&X&XJ.J.*X;X4X:.zX5.8.8.0.4.r.#.M C.0 s.2 s.g.v.B.A.F.J.H.O.J.O.O.&XO.&XZ O.O.O.O.O.O.O.O.Z O.O.O.O.O.O.O.Z O.O.O.O.O.O.O.&XO.O.O.O.O.O.O.Z O.Z &XZ O.&XO.O.J.O.O.O.O.&XO.&XO.;X#.-.t.4.0.fXfXaXvX>.O.D.r h.2 p.s.h.N.V.Z.Z H.Z O.O.&XO.O.&XO.O.O.O.O.O.O.J.&XZ O.O.Z O.O.O.Z O.O.&XO.&XZ O.O.O.O.O.&XO.O.O.O.O.O.O.O.O.O.Z O.Z Z O.O.O.O.O.O.O.O.J.+.J.$.6Xr.pX0.hXfXaXe.>.J.z w 7 2 s.4 0 k A.x O.C +.Z O.O.O.O.O.Z &XO.O.O.O.O.O.O.&X&XZ O.O.O.O.O.O.O.O.Z O.O.O.",
"O.O.O.O.O.O.O.O.Z &XO.O.O.O.O.&XO.O.O.O.O.O.O.O.O.&XO.Z +.:X4XxXe.3.fXfX0.y.3X*XD.l 8 p.p.4 7 w N.A.F.O.C O.J.O.O.Z Z O.O.O.O.O.O.O.O.O.O.O.O.O.O.O.O.O.O.O.O.Z O.Z &XO.Z O.O.&XO.O.O.O.O.&XZ O.O.O.O.O.O.Z Z O.O.O.J.&XJ.O.Z Z #.+.5X*.e.3.8.fX0.vXxX+.F.n.j.4 3 s.g.n.B.x F.J.Z &XZ J.&XJ.O.O.O.O.O.O.O.O.O.O.O.O.O.O.O.O.&XZ O.O.O.O.O.O.O.O.Z &XO.O.Z O.O.O.O.O.Z O.Z &XO.O.O.O.&XZ O.O.J.J.O.Z *XZ $.;.*.e.3.hX0.3.pX:.;XM t x.s.a.s.g.w l A.J.M *XZ J.&X&XO.O.O.O.O.O.O.&XO.O.O.O.O.O.O.O.&XO.O.O.O.O.O.O.O.O.O.O.&XO.O.&XO.&XO.O.O.O.O.O.J.O.&XO.O.O.O.O.O.O.O.O.Z J.*X;X$.:.e.3.8.0.2.4.:.#.M C.j.s.2 s.j.x.V.x N Z H.O.O.O.O.Z O.O.O.O.O.O.O.O.O.O.O.&XO.O.O.O.O.O.O.&XZ O.O.O.O.O.O.Z O.Z &XO.Z O.O.O.O.&XO.&XO.Z &XO.O.O.O.O.&XO.O.&XJ.#.:X4XcX4.iXfX8.aXy.5XO.x v.8 p.p.g.7 v.k Z.Z H.J.Z &XO.O.O.O.&XO.O.O.O.O.O.O.O.O.O.O.O.O.&XO.O.O.O.Z O.O.O.O.O.O.O.O.O.&XO.O.O.O.O.O.O.O.O.&XO.O.O.O.O.O.Z &XO.O.&XH.*XO.:X5Xt.pX0.8.8.aXzX;.H.V.w 7 2 2 4 9 k x D.O.N O.Z O.O.O.O.O.O.O.O.O.&XZ Z &XO.O.O.O.O.O.Z &XZ &XO.O.&XO.O.O.",
"O.O.O.O.&XO.O.O.O.O.O.Z O.&XO.O.O.O.O.O.O.O.O.O.&XO.O.J.*X#.4Xr.vXaXfX2.hXy.*.#.Z.N.9 2 4 4 8 r k A.F.&XC +.J.O.O.&XO.O.&XO.O.O.O.O.O.O.O.O.O.O.Z &XO.O.O.O.O.O.O.O.O.O.&XO.O.O.O.O.O.J.O.O.O.O.O.O.O.O.O.&XO.O.O.O.Z O.J.*XZ J.*X;X;.*.zXiXfX8.aXe.xX*XF.y 9 s.p.4 g.v.B.x C C H.O.J.J.J.J.O.O.O.O.O.O.&XZ O.O.O.O.O.O.O.&XO.O.O.O.O.O.O.Z &XO.O.O.O.O.O.O.&XO.O.O.&XO.O.O.O.O.O.O.O.O.O.O.&XZ Z Z *XO.:X;.*.pX0.8.8.hXpX:.;XD.y j.s.p.s.h.v.l A.Z F.O.J.Z +.Z O.O.O.O.&XZ O.O.O.O.&XZ O.O.O.&XO.O.O.&XZ O.O.O.O.O.O.O.O.O.O.Z O.Z O.O.O.O.O.O.O.O.Z O.O.O.O.O.O.O.O.&XZ J.*X#.-.*.e.5.8.hXhX4.r.#.D.N.j.4 p.a.g.x.B.x F.Z J.O.J.O.O.O.O.O.O.O.O.O.O.O.&XZ O.O.O.O.O.O.O.O.O.O.&XO.O.Z O.O.O.O.O.O.O.O.O.O.&XO.O.O.O.Z O.O.O.O.O.O.O.O.O.J.O.&XJ.*X#.-.cXpXhXfX8.aXy.6X*XM r j.2 p.2 7 r z Z.H.C J.&XZ J.O.O.&XZ O.O.O.O.&XZ O.O.O.Z &XO.O.Z O.O.O.O.O.O.O.O.O.O.O.O.&XO.Z O.O.O.O.O.&X&XZ O.O.O.&XO.O.O.O.O.O.O.O.&XZ +.Z $.=.xXpX8.8.8.aXzX;.Z z v.h.p.2 7 x.t A.x &XN +.J.O.Z &XO.O.O.Z &XO.O.O.O.O.O.O.O.O.O.O.O.O.O.O.O.O.O.O.O.&X",
"Z O.O.O.O.O.O.O.O.O.O.O.&XO.O.O.O.O.&XO.O.O.Z &XO.O.&XJ.*X#.$.r.vX3.8.fXhXy.r.+.D.l j.2 2 2 7 v.k A.N &XZ O.&XO.O.O.O.O.O.Z &XO.O.O.&XO.O.&XO.O.O.O.O.Z O.O.O.O.O.O.&XZ O.O.O.O.O.O.O.O.&XZ O.O.O.&XZ O.Z O.O.&XO.O.J.O.J.O.O.&X;X*X4XxXzXiXgX8.iXzXr.*XN n.9 4 p.2 g.v.V.A.N C H.&XZ J.J.J.&XO.O.O.O.Z O.O.O.Z O.O.O.O.O.O.O.O.Z O.O.O.O.Z O.O.Z &XO.O.O.O.O.O.O.O.Z O.O.&XZ O.O.O.O.O.O.O.Z &XZ J.+.&X$.>.:.e.0.8.8.3.4.*.#.M b.9 a.3 s.k.v.V.x C H.O.&XJ.O.O.O.O.Z O.&XO.Z &XO.O.O.&XZ O.O.O.O.&XZ O.Z O.O.O.O.O.O.O.O.O.O.O.O.&XZ O.O.O.O.&XO.O.O.O.Z O.&XO.O.O.O.&XO.Z *X;X-.*.e.aXfX0.3.4.xX@.M B.j.s.s.p.x.x.l x F.Z C &XO.O.O.O.O.O.Z &XO.O.O.Z O.O.O.Z O.Z O.O.O.&XO.O.O.O.O.&XO.O.O.O.O.O.&XZ &XO.O.O.O.O.O.O.&XZ O.O.O.O.O.O.&XZ O.&XO.+.:X-.cX4.3.fX8.aX4.5X+.D.v.9 2 p.2 h.y V.x J.H.J.Z J.&XO.O.J.O.O.O.&XO.O.O.O.O.Z &XO.O.O.O.O.&XO.O.O.O.O.Z O.&XO.Z &XO.O.O.O.O.O.O.Z O.O.Z &XO.O.&XO.O.O.Z &XO.Z &XZ *XZ $.;.xXaX0.hXfXaXe.5XC z 9 7 4 2 s.w t A.x &XC O.J.O.O.O.O.O.O.O.O.O.Z &XO.O.O.O.O.O.O.&XO.Z O.O.O.O.O.O.O.&X",
"&XO.O.O.O.O.O.O.O.O.Z O.Z O.O.O.Z &XO.O.Z O.O.O.O.O.&XZ *X;X4XxXpXaXfXfXhXvX3X#.D.B.9 3 2 4 4 x.z A.M &XH.O.J.O.O.O.O.O.O.O.O.O.O.O.Z O.O.Z O.O.Z &XO.&XO.O.O.O.O.O.O.O.O.O.O.O.O.O.O.O.O.O.O.O.O.O.O.O.&XO.O.O.O.O.J.O.J.+.Z &X*X+.5X3XzXaX8.fX3.vXr.*XM b.j.g.p.p.g.n.l x H.J.Z O.J.J.J.J.Z O.O.O.O.&XO.O.O.&XZ &XO.O.O.O.&XZ &XO.O.O.&XO.&XO.O.O.O.O.O.&XO.Z O.O.&XO.O.O.O.O.O.O.O.O.O.O.J.J.&XJ.+.&X:X5X:.zX5.8.0.3.4.:.*Xx b.j.2 p.4 7 v.z x Z N O.Z J.O.O.O.O.&XO.O.O.O.O.O.O.O.O.O.O.Z O.O.O.O.O.&XO.O.&XO.J.O.O.O.Z &XO.O.O.O.O.O.&XO.Z O.O.O.O.O.O.O.O.O.O.&XO.Z J.*X#.5X:.e.0.8.8.3.aX*.#.M V.7 s.p.2 x.w B.x F.Z J.O.J.O.O.O.&XO.O.O.O.O.O.&XO.&XO.&XO.&XO.O.O.Z O.O.O.O.O.O.O.O.O.&XO.O.O.O.O.O.O.O.O.O.O.O.O.O.O.O.O.O.O.O.J.O.O.&XJ.;X;X4XcX4.3.fX0.iXy.5X*Xx r 8 4 2 s.8 b.V.Z.C C J.O.&X&XO.O.Z O.O.O.Z O.O.O.O.O.O.O.O.O.O.O.O.Z O.O.&XO.O.&XO.O.O.O.O.O.O.Z O.O.O.O.O.&XO.O.O.Z O.O.O.O.O.O.O.&XZ &XJ.#.H.;.5Xr.4.0.hX8.aXe.>.J.l w 8 2 2 4 9 y A.M &XC &XJ.O.O.O.O.&X&XZ O.&XO.O.O.O.O.O.O.&XO.Z O.&XO.&XO.O.O.O.O.Z ",
"O.O.O.O.O.O.O.O.O.O.&XO.O.O.O.O.O.O.&XO.&XO.O.O.O.*X&XJ.&X;X4XxXvXaXhXfX0.vX3X+.M l 8 4 4 s.4 w z A.F.*XH.O.J.O.O.O.O.Z O.O.O.O.&XZ O.O.&XZ O.O.O.O.O.O.O.Z Z &XO.O.O.O.O.O.O.Z &XO.O.O.O.O.O.O.O.O.O.&XO.O.O.O.O.O.J.O.J.&XZ &X;X+.5X3XzXhXhXfXiXzXr.;XD.y j.s.p.p.h.n.l x C H.H.+.J.J.J.J.Z O.&XO.O.O.O.O.O.O.O.J.O.O.O.O.O.O.O.O.O.O.O.O.O.O.O.O.O.O.O.O.O.&XO.O.O.O.&XO.O.&XZ &XO.O.O.O.&XZ Z J.*XO.:X5X:.vX3.8.0.hX4.:.*XD.b.9 p.p.s.g.r l x C N &XZ O.Z O.O.O.&XZ O.O.O.O.O.&XO.O.O.O.O.&XO.O.O.&XO.O.O.O.O.O.O.O.O.&X&XO.&XO.&XO.O.O.O.O.Z &XO.O.O.&XZ &XO.O.O.O.J.H.*X;X4X:.zX3.8.0.hXaX*.#.M B.8 s.3 p.h.r V.x F.Z H.O.J.O.O.O.O.O.O.O.&XO.O.O.O.Z O.O.O.&XO.O.&XZ O.O.O.O.O.O.O.O.O.Z O.O.O.O.O.O.O.Z &XO.O.O.O.O.&XO.Z &XO.O.O.J.O.&X&X*X:X-.cX4.hXfX8.aXe.>.*Xx v.8 s.2 p.7 t l x Z C J.O.J.O.O.O.&X&XO.O.O.O.Z &XO.O.O.O.O.&XO.O.O.O.O.O.O.O.O.O.Z O.O.O.O.O.O.&XO.&XO.O.O.Z O.O.O.&XO.Z O.O.O.O.O.O.Z O.&X*XJ.$.=.r.4.2.8.8.iXzX>.J.V.r 8 4 2 7 9 b.A.M O.H.O.&XO.O.O.O.Z O.O.Z O.O.O.O.O.O.O.O.Z O.Z O.O.O.O.O.&XO.O.O.O.",
"O.&XZ O.O.O.J.O.O.O.O.O.O.O.O.O.O.O.Z O.O.O.O.O.J.Z O.&X+.$.$.*.vXhXfX8.0.y.xX*XM l 8 4 s.p.g.w k V.F.Z C O.J.O.O.O.O.&XO.O.O.&XO.O.O.O.O.O.O.O.O.O.O.O.O.&XO.O.Z &XO.O.O.O.O.&XZ O.O.O.O.O.&XO.&XO.O.Z O.Z &XO.O.O.J.O.Z &XZ J.+.*X;.3XzXaXhX8.3.vXcX+.D.n.j.7 a.s.g.v.B.Z.F.J.H.&X&XZ J.J.&XO.Z O.O.O.O.O.O.O.O.O.O.O.O.&XZ O.O.O.O.&XZ O.O.O.O.O.O.&XZ O.O.O.O.O.O.O.O.O.Z O.O.O.O.O.O.&XJ.O.J.Z +.Z :X>.:.4.3.0.0.iX4.:.*XZ.t j.s.p.s.h.v.l x F.N &XJ.O.&XO.O.O.O.O.O.O.O.Z O.Z O.O.&XZ O.O.&XO.O.Z O.Z &XO.O.O.O.O.O.O.Z O.O.Z O.O.O.Z &XO.O.O.O.O.O.O.O.O.&XO.J.&XZ J.*X#.5X>.e.3.fXhX3.4.xX#.D.b.w 4 a.p.7 v.B.x F.Z H.&X&XO.O.O.O.Z &XO.Z O.O.O.O.O.O.O.O.Z O.O.O.O.O.O.O.O.O.O.O.J.O.O.O.O.O.O.O.O.O.&XZ O.O.O.O.O.O.O.O.O.O.O.&XO.O.&XO.;X#.:XzX4.iXfXhX3.4.5X&XZ.r j.2 2 2 h.n.l x J.H.J.O.Z &XO.&XZ Z O.O.&XO.O.O.O.Z O.O.O.Z O.O.O.O.O.&XZ &XO.O.&XO.Z O.Z &XO.O.O.O.Z O.&XO.O.O.O.O.O.&XO.O.Z &XO.O.Z &XH.#.&X-.5Xr.vX8.3.8.aXzX;.H.z x.7 2 2 4 9 k V.M Z F.O.J.O.Z O.O.O.O.&XO.O.O.O.O.O.&XZ O.O.O.&XO.O.O.O.O.Z O.O.Z &X",
"O.O.O.O.&XO.O.&XO.O.O.O.O.O.Z &XO.O.O.O.O.O.O.O.O.&X&XJ.+.#.4Xr.y.hX0.hX8.e.r.;Xx l g.p.2 p.s.r N.Z.N Z H.O.&XZ Z O.O.&XO.O.O.Z O.O.Z O.O.O.O.Z O.&XO.O.O.O.O.O.O.O.&XZ O.O.O.O.&XO.O.&XO.&XO.O.Z O.O.O.O.O.O.O.O.O.O.O.O.O.O.O.+.O.5X:.e.iXfXfXhXvXr.*XD.n.j.4 2 2 g.y V.A.F.C Z O.&XZ &XO.O.O.O.O.O.&XO.O.O.O.O.O.Z O.O.O.O.O.O.O.O.O.O.O.O.&XO.O.O.O.O.O.O.O.O.&XO.O.Z &XO.O.O.O.O.O.O.O.J.J.Z J.+.O.$.;.3X4.iXfX8.3.y.:.*XD.b.j.2 2 g.g.v.N.A.Z N O.O.O.O.O.O.O.O.&XO.O.O.&X&XZ O.O.Z &XO.O.O.O.&XO.O.O.O.O.O.O.O.O.O.O.O.O.O.O.O.O.O.Z &XO.O.O.O.O.O.O.O.O.J.O.J.&XJ.J.#.#.4X*.e.5.8.0.0.y.xX#.M B.4 s.p.2 h.v.k x F.Z C &XZ &XO.O.&XZ O.O.O.O.O.O.Z &XO.O.O.&XZ O.O.O.O.&XO.O.O.O.O.O.O.O.J.O.O.O.&XO.O.O.O.O.O.O.O.O.O.O.O.O.&XO.Z J.O.&XJ.;X;X-.xX4.3.fXfXiXaX5X&XD.n.h.2 p.2 7 n.l x C H.Z O.O.J.O.O.&XO.O.Z O.O.O.O.O.&XO.O.O.&XO.O.O.&XO.O.O.O.O.O.O.&XO.O.O.O.O.O.O.O.Z &XO.O.O.Z O.O.O.O.O.O.O.O.O.J.Z O.&X*XO.-.5XxXaXiX8.8.iXe.5XJ.B.w h.2 2 s.x.y A.Z.J.C &XO.J.&XO.O.O.O.O.O.O.O.&XZ O.O.&XO.O.O.O.O.O.O.O.&XO.&XO.&XO.",
"O.O.O.O.O.Z O.O.Z &XO.&XO.Z O.O.O.Z &XO.O.O.O.O.O.O.&XZ *X;X4Xr.e.3.hX0.hXpXxX;XG.B.h.4 4 p.x.w k x N Z C O.&X&X&XO.O.O.O.O.O.O.O.&X&XO.Z &XO.&XO.O.O.O.&XO.O.O.O.O.O.O.O.O.O.O.Z O.O.Z O.O.O.Z O.O.O.&XO.O.Z O.O.O.&XZ &XO.O.O.#.+.;.*.e.iXfXfXiXe.r.*XD.b.j.s.p.p.h.v.V.Z.H.J.H.O.&XH.&XO.&XO.O.O.O.Z O.O.O.O.O.&XO.&XO.O.O.O.O.O.O.J.O.O.O.Z O.O.&XO.O.Z &XZ O.Z O.O.O.O.O.O.O.O.&XZ O.O.J.O.Z J.+.O.$.5X3XvXhXhX0.hX4.:.*XD.t j.p.s.s.g.v.V.A.C F.&XO.&XO.&XO.O.O.Z O.O.O.O.O.O.O.&XO.O.O.O.O.Z Z O.O.O.O.O.O.O.Z &XO.O.O.O.O.O.O.O.O.O.O.O.&XZ O.O.Z O.O.Z Z &XZ O.J.J.*X#.$.3XvX3.fXhX8.4.xX#.D.l h.4 2 2 7 v.V.A.F.Z J.Z Z O.O.O.O.O.O.O.&XO.O.O.O.O.O.&XO.O.O.O.&XO.O.Z O.O.O.O.O.&XO.O.O.O.O.O.Z O.O.O.&XZ &XO.O.Z &XZ Z &XZ O.J.&XO.&XZ ;X#.5XzXpXhXfXfX3.zX>.+.Z.y 7 2 p.4 j.y V.Z.Z F.Z O.&X&XO.O.O.O.O.&XO.Z O.O.O.O.O.O.O.Z O.Z &XZ O.O.O.O.O.O.O.O.O.O.O.&XZ O.O.O.O.O.O.O.O.&XO.O.O.&XZ O.O.O.O.&XZ O.Z *XO.-.=.r.pXhXfX8.aXzX5XJ.V.x.8 s.2 4 w t A.x J.C O.Z &XO.O.O.O.&XZ &XO.O.O.O.O.O.Z O.&XO.&XZ O.Z O.O.O.O.Z Z O.",
"&XO.O.Z Z O.O.O.O.O.&XO.&XO.O.O.&XO.Z O.O.O.O.O.O.O.&XJ.*X;X:Xr.vX3.hXfXfXzXxX#.M l h.2 s.a.h.w k x N C C O.Z J.O.O.O.O.Z O.O.O.O.O.O.O.O.O.O.O.O.O.Z &XZ O.O.O.O.O.O.&XO.O.O.O.O.O.O.O.Z O.O.Z O.O.O.Z O.O.&XO.Z &XO.O.Z O.&X&X*X+.5X:.e.5.fXfX2.4.r.+.D.y w 4 2 2 7 r B.A.H.J.H.+.O.Z &XJ.J.O.&XO.O.O.O.O.Z &XO.O.&XO.O.O.Z O.O.O.O.O.O.O.O.O.Z &XZ O.O.&XO.O.O.J.O.O.O.O.O.O.O.O.O.O.O.O.J.O.&XZ *XZ $.5X3XvX3.8.hXhXy.:.*XZ.b.j.p.p.2 g.v.A.z Z F.+.O.O.O.O.O.O.O.O.O.O.O.O.O.O.O.O.O.O.Z &X&XO.O.O.O.O.O.Z O.O.Z O.O.O.O.O.O.O.Z O.Z &XO.O.O.O.O.O.&XO.O.&X&XO.J.O.&XJ.*X#.-.*.e.5.fXhX8.y.:.#.M t j.s.4 s.7 v.V.x F.&XH.O.Z J.Z O.O.O.O.O.O.O.O.O.O.O.O.Z O.O.O.&XO.O.O.O.O.O.O.Z O.Z O.O.O.O.O.O.O.O.O.O.O.O.Z O.O.&XZ &XO.O.&XO.O.&XO.&X&X+.:X-.xX4.aXfX8.iXpX5X&XZ.y h.p.p.4 h.y V.Z.J.H.J.O.J.O.O.O.&XO.O.O.O.&XO.O.O.O.O.O.&XO.O.O.O.O.O.O.O.&XO.O.Z O.O.O.O.O.O.O.O.Z O.O.O.O.O.&XZ O.O.O.O.O.O.O.O.&XZ O.J.*X&X:X=.*.pXiXhXfXiXy.5XZ z r 7 2 3 g.9 t x x Z H.&XO.&XO.O.O.&XO.O.Z O.O.O.O.&XO.Z O.O.O.O.O.O.&XO.O.O.O.O.O.O.",
"Z O.O.&X&XO.O.O.O.O.Z O.O.O.O.O.O.Z &XO.O.O.O.O.O.&XO.J.+.#.4Xr.vX5.0.8.2.vX*.;XM l 8 4 2 3 4 v.l A.N J.H.O.O.J.O.Z &XO.&XO.O.O.O.O.O.O.O.O.O.O.O.O.O.O.O.O.&XO.&XZ O.O.O.O.O.O.O.O.&XO.&XO.O.&X&XO.O.O.O.O.O.O.O.O.O.O.O.O.O.O.+.+.5X6Xy.iX8.8.iXvXxX+.D.y w 4 p.2 7 y l x N J.H.O.J.Z &XO.Z &XZ O.O.&XO.O.O.O.O.O.Z O.O.O.&XO.O.O.O.O.O.&XZ O.O.O.O.O.O.O.O.O.O.O.O.O.O.O.O.&X&XO.O.O.O.O.O.J.&XZ *XZ $.5X*.5.3.8.8.3.4.>.+.x b.h.p.2 4 g.v.V.A.H.F.O.Z O.O.&XO.&XZ O.O.O.&XZ O.O.O.Z &XO.O.O.O.O.O.O.O.O.O.&XO.O.&XO.O.O.Z &XO.O.&XO.O.O.O.O.O.O.O.O.O.O.O.O.O.O.Z &XZ J.#.:X-.>.y.5.8.8.0.4.:.;XD.l 8 s.4 s.h.9 z A.F.Z Z &XC &XO.O.O.O.O.O.Z O.&XO.O.O.O.O.O.O.O.O.O.Z &XO.O.O.O.&XO.O.O.O.O.O.O.O.O.O.O.O.O.&XO.O.O.O.O.O.O.O.O.O.O.O.O.&X&X*X#.:XzX4.iXfX8.aXzX>.*XD.b.8 p.2 4 h.v.V.x C C J.O.O.J.O.O.O.O.O.O.O.O.O.&XO.O.O.O.Z O.&XO.O.O.O.O.O.Z O.O.&XO.O.&XZ O.O.O.&X&XO.O.O.O.O.O.O.O.O.O.O.&XZ O.O.Z &X&XZ +.&X:X5XxXaXiXfXfX4.e.5XZ x w 0 7 3 4 9 B.z x Z J.O.&XZ O.O.O.Z O.&XO.O.O.O.O.Z O.&XO.O.O.O.O.O.O.O.Z &XO.&XO.O.",
"&XO.O.Z O.O.O.O.O.O.O.O.O.O.&XZ O.O.O.O.O.O.O.O.O.O.J.J.*X;X4Xr.pXpXfXhXhXvXr.;XD.l j.4 2 2 4 v.l V.N J.C O.&XJ.O.O.O.O.O.O.Z O.Z &XO.O.O.O.O.O.O.O.O.Z &XO.&XZ O.O.O.O.O.O.J.O.Z &XO.O.O.O.O.O.&XZ O.&XO.&XO.O.O.Z &XO.O.O.O.O.*X+.5X*.e.aX8.fXhXy.r.+.D.t x.4 p.p.g.n.l A.H.Z J.O.O.Z &X&XZ O.&XO.O.Z O.Z &XO.O.O.O.O.O.O.O.O.O.O.Z O.O.O.O.O.O.O.O.O.O.Z O.O.O.O.O.&XZ O.O.Z Z O.O.O.&XO.J.O.O.H.#.O.#.5X=.5.0.hX8.3.vX3X+.x y 9 p.p.4 7 v.V.A.H.H.O.Z O.O.O.&XO.O.O.Z &XO.O.O.O.O.Z O.O.O.O.O.O.O.O.O.&XZ O.O.O.O.O.O.O.O.O.O.O.Z O.O.&XZ O.O.O.Z O.O.O.O.O.Z O.Z O.Z J.+.#.$.3XvX5.fXhX8.pX:.#.M B.7 7 s.2 h.v.V.x F.O.Z &XH.J.O.O.&XZ O.O.O.O.O.O.O.O.O.O.Z &XO.O.O.O.&XZ O.O.&XZ O.O.O.&XO.&XO.O.O.O.&XO.Z O.O.O.O.O.O.O.Z O.O.O.&XJ.O.&XZ *X:X4XzX4.hXfXfXiXzX5XO.Z.n.7 p.p.2 h.n.l Z.H.H.J.Z J.&XO.O.J.&XO.O.O.O.O.&XZ O.&XO.O.O.O.O.O.O.O.O.&X&XO.O.Z O.O.O.&XZ O.O.O.O.O.O.O.&XO.O.O.O.O.O.O.O.&XO.O.O.Z O.Z *X&X-.5XxX4.iXfXgXsXy.5X+.z y 8 3 2 2 9 t z D.Z J.J.&XJ.O.&XO.O.O.O.O.O.O.O.O.O.O.Z &XO.O.&XO.O.O.&XZ O.&XZ O.O.",
"Z O.O.&XO.O.O.O.O.O.O.O.O.O.O.O.O.&XO.O.O.O.&XO.O.&X&XZ *X#.:Xr.zX6.8.8.3.vXxX;XM V.7 4 2 2 4 v.l A.N Z J.O.&XO.O.O.Z &XO.O.&XO.O.O.O.&XO.O.O.O.O.O.O.O.O.O.O.O.O.O.O.O.Z O.O.O.O.O.O.&XO.O.O.O.O.O.O.O.O.Z O.O.O.O.O.O.O.O.&XO.#.+.4X3Xy.aX8.8.3.y.r.+.M y j.g.2 s.g.y z x N J.J.O.&XZ &XZ J.O.Z O.O.&XO.O.O.O.O.O.&XZ J.O.O.O.O.O.&XO.O.&XO.O.&XO.O.O.O.&X&XZ O.O.O.O.O.O.O.O.O.O.Z O.O.O.O.J.O.Z *XO.$.5X*.4.0.hX0.3.y.>.+.Z.n.j.p.s.s.7 v.A.A.C H.O.J.&XO.O.O.O.O.O.O.O.O.O.O.O.O.&XO.&XO.O.Z O.O.&XO.O.O.O.O.Z &XO.O.O.O.O.O.O.&XO.O.O.O.O.O.O.&XO.O.O.O.O.&X&XZ O.Z J.*X#.-.3XvX5.fX0.8.vX*.#.x V.g.p.s.p.h.v.V.A.F.O.C &XJ.J.O.O.O.O.O.O.Z &X&XZ O.O.O.O.O.O.O.&XO.O.O.O.O.O.O.O.&XO.O.Z O.Z O.&X&XZ Z O.O.&XO.&XO.O.O.O.&XO.O.O.Z &XO.&XJ.;X:X-.cX4.iXfX2.iXpX>.*XZ.y h.p.p.4 8 y V.Z.Z Z H.O.J.O.O.O.O.Z O.Z &XO.O.O.O.O.Z O.O.Z &XO.O.O.O.O.Z Z O.O.&XO.O.O.O.O.O.O.Z O.O.O.Z O.O.O.O.&XZ O.Z O.Z O.&XZ &XO.J.+.&X;.5X*.zXfXjXfXaXvX5XO.A.e 8 4 3 4 e y z x Z C O.O.Z O.Z O.O.Z &XO.O.O.O.O.O.O.O.O.O.O.Z O.O.O.O.O.O.O.O.O.O.",
"O.O.O.O.O.O.O.Z O.O.O.J.O.O.O.O.O.O.O.O.O.O.O.O.O.&XO.J.+.;X-.r.vXaX8.fXfX4.3X;XM l h.4 4 2 4 w B.A.N J.H.O.Z &XO.O.&XZ O.O.O.O.O.O.O.Z O.J.O.O.Z O.O.O.O.O.&XO.O.Z &XO.&XO.O.O.O.O.O.Z O.Z &XO.O.O.O.O.O.O.O.&XO.O.O.O.O.O.&X&X+.+.5X3Xy.aX8.8.3.vXr.*XM n.9 s.p.p.g.y N.x F.&XH.+.&XH.&X&XZ O.O.O.O.O.&XO.O.O.O.O.O.O.O.O.O.O.O.&XZ O.O.O.Z O.O.O.&XO.O.O.O.O.O.O.O.O.O.O.O.O.O.O.O.O.O.O.J.J.O.J.+.&X$.5X3X4.3.8.8.3.vX:.+.Z.b.g.2 p.p.7 r V.x C H.O.Z &XO.&XO.Z O.O.O.O.O.O.O.O.O.O.O.Z O.O.&XO.O.O.O.O.O.&XO.&XZ &XO.O.O.O.O.O.O.O.&XO.O.&XO.&XZ &XO.O.O.O.&XO.&XO.&XJ.*X#.4X>.e.3.8.8.0.vXxX#.D.N.h.2 p.p.h.v.k x F.O.H.&XZ J.O.O.&XZ O.O.O.O.O.O.O.Z Z &XO.O.O.Z O.Z &XO.O.O.O.O.Z O.O.O.O.&XZ O.O.O.O.O.O.O.O.Z O.Z &XO.O.O.O.O.O.&XO.&XJ.+.:X-.cX4.5.fX8.iXpX>.*XZ.b.8 p.2 2 h.n.V.Z.J.H.J.O.O.&XO.O.J.O.Z O.O.&XZ O.Z O.O.O.O.&XZ O.O.O.O.Z O.O.O.O.O.O.O.O.O.O.O.O.&XO.O.O.&XO.&XO.O.O.O.O.&XO.&XO.O.&XJ.O.J.*X&X;.5X3XpXiXgXfXiXvX6X-Xz r 8 3 4 4 w t z x C C &XO.J.O.O.O.O.&XZ O.O.&XO.O.O.&XO.O.O.O.O.O.O.O.O.O.O.O.O.O.O.",
"O.O.O.O.O.O.O.&XO.O.O.O.O.O.O.O.O.O.&XZ O.O.O.O.O.O.J.J.*X;X4Xr.4.aXhXiXhXy.3X;XM V.h.7 4 2 7 x.k A.F.Z H.O.&XZ O.O.O.O.O.O.O.O.O.O.O.O.O.O.O.O.&XO.O.O.O.O.Z O.O.O.O.O.O.O.O.O.O.O.O.O.O.O.O.O.O.O.O.Z &XO.O.Z O.O.O.O.O.O.O.&X#.O.5X*.y.aXfXfX3.e.r.+.D.b.h.s.p.s.g.n.z A.N J.H.O.&XZ &XO.&XO.&XO.O.O.Z O.O.O.O.O.O.O.O.O.O.&XO.O.O.O.O.O.&XO.O.Z O.O.O.O.O.O.O.O.O.O.&XZ O.&X&XZ O.&XO.O.Z &XO.J.+.&X$.5XxX4.5.8.8.3.vX:.*Xx t 9 p.2 2 7 r z A.H.F.O.Z O.O.O.&XO.O.Z &XO.&XZ O.O.O.O.O.O.O.O.O.O.O.Z &XO.O.Z O.O.O.O.O.O.O.J.O.O.O.O.O.O.O.Z O.O.O.O.O.O.O.O.O.&XO.O.Z J.*X:X$.xXy.3.8.hX8.y.:.;Xx N.h.g.p.p.7 v.V.Z.F.J.Z J.Z J.Z O.O.Z &XO.O.O.O.O.O.&XO.O.O.O.O.O.O.O.O.O.Z &XO.O.O.O.&XO.O.O.O.O.O.O.O.O.O.O.O.O.O.O.O.O.O.O.O.O.&XO.O.&XJ.;X#.$.cX4.iXfXfXiXvX5X+.Z.b.8 p.p.2 h.y l Z.H.C J.O.J.O.O.O.&XO.&XO.O.O.O.O.&XO.O.O.O.O.O.O.O.&XO.O.&XO.O.O.O.Z &XO.O.&XZ O.O.&XZ O.O.O.Z O.O.O.O.O.O.O.O.Z O.&XZ O.J.+.J.$.5X3XpXiXfXgXsXzX6X&XA.r 8 4 3 4 0 t z x Z H.&XO.J.O.O.O.O.O.O.O.O.Z O.O.O.O.O.Z &XO.Z &XO.&XZ O.O.O.O.O.O.",
"&XO.O.&XZ &XO.O.O.O.O.O.O.O.O.O.Z &XO.O.O.O.O.&XO.&XO.Z +.;X4XxXe.aX8.hX3.4.3X:XF.t 9 g.2 a.7 x.l x N Z F.&XZ &X&X&XZ O.Z O.O.&XO.O.O.O.O.O.Z O.O.&XO.O.O.O.O.O.O.O.O.O.J.O.O.O.Z &XO.O.O.O.&XZ O.O.O.O.Z O.O.O.O.O.O.&XO.O.&X&X+.#.;.3Xy.5.fX8.0.vXr.*XD.t 7 s.a.s.h.v.C.Z.C Z C O.&XJ.O.J.O.O.O.O.O.&XZ O.&XO.O.O.&XO.O.O.O.Z O.O.O.O.O.O.Z O.O.&XO.O.O.O.O.O.&XO.Z &XZ &XO.O.Z &XO.O.O.O.J.J.O.J.*XZ :X5XxX4.iXfX8.3.4.>.+.x v.j.g.2 2 h.y V.A.C H.O.J.J.&XO.&XO.O.Z O.O.O.Z &XO.O.O.O.O.O.&XO.&XO.O.Z &XO.O.O.O.O.O.O.O.O.O.O.O.O.O.Z &XO.O.O.O.O.&XO.O.&XO.O.O.J.Z &XJ.#.;X-.*.4.3.fX0.8.4.:.*XZ.B.g.4 p.2 j.v.B.Z.C O.C O.J.J.Z O.O.O.Z O.O.&XO.O.O.O.O.O.O.Z O.O.O.O.O.O.O.O.O.O.O.&XO.O.O.O.&XO.O.O.O.O.&XO.O.&XZ &XO.O.O.O.O.&XZ &XO.&XJ.;X#.4XcX6.iXfX8.5.pX6XO.Z.b.h.p.p.4 8 t B.x J.H.J.Z J.O.O.O.&XO.O.O.O.O.O.&XO.Z O.O.O.O.O.O.O.O.O.O.O.Z &XO.O.O.O.O.O.O.O.O.O.O.O.O.O.O.O.O.O.Z O.O.O.O.O.O.O.O.J.J.Z +.&X$.5X3XvXiXfXfXiXvX6X-Xx n.8 7 2 4 9 b.z Z.J.C &X&X&XZ O.O.O.O.Z &XO.O.O.O.O.O.O.O.O.Z &XO.O.O.O.O.O.O.O.O.Z ",
"Z O.O.O.O.O.O.O.O.O.O.O.Z &XO.O.O.O.O.O.&XO.O.O.O.J.&XJ.;X;X4X*.zXhXfX0.hXpXr.#.F.B.9 g.2 3 j.w t A.F.&XH.O.Z O.O.O.O.O.&XO.O.O.O.Z &XO.O.O.&XO.O.Z O.O.O.O.O.O.&XO.O.O.O.O.O.O.O.O.O.O.O.O.O.O.O.O.O.O.&XO.O.O.&XO.Z O.O.O.J.J.+.*X;.3Xy.3.2.8.2.e.r.O.D.t j.s.3 s.h.v.N.D.C Z C *XJ.Z &XO.O.O.O.O.O.O.O.O.O.O.O.Z O.O.O.O.O.O.O.O.O.O.O.O.&XO.O.Z O.O.O.&XO.O.O.O.O.O.O.O.O.O.O.O.O.O.O.O.O.&XO.Z &XJ.4X;.r.pXiX8.8.3.y.=.+.x t j.p.2 p.g.r k x C N +.J.J.O.Z O.O.O.&XO.O.O.O.O.O.O.O.O.O.O.Z O.O.O.O.O.O.O.&XO.O.Z O.O.O.O.O.Z &XO.O.O.O.O.O.&XO.O.O.O.Z O.O.O.O.J.Z O.H.+.%.:X3XzXiXfXhXhXpX3X#.Z.l h.2 2 3 8 x.B.Z.N Z N *XJ.Z &XO.O.O.&XO.O.O.O.O.&XO.O.O.O.&XO.Z O.O.O.O.O.Z &XO.O.Z O.O.O.O.O.O.&XO.O.O.O.Z O.O.O.O.O.O.O.O.O.O.J.J.O.&XJ.;X$.4XxXpX3.fXfXiXzX>.+.Z.y h.2 2 2 7 y k x C H.Z O.J.&XO.O.O.O.O.O.O.O.Z O.O.O.&X&XZ O.O.Z O.O.O.O.O.O.O.O.&XO.O.J.O.O.O.O.O.O.O.O.O.O.&XZ O.&XO.O.O.O.O.O.&X&XZ J.J.+.Z $.;.3X4.3.fXhXaXvX=.Z x y h.2 2 2 9 r V.Z.Z M +.Z Z &XZ O.&XO.O.O.O.O.O.&XZ O.O.O.O.O.O.O.O.O.O.O.O.O.O.O.O.",
"O.&XO.O.&XO.O.Z O.O.O.O.O.O.O.O.O.O.O.O.Z O.O.O.Z Z &XJ.#.;X4X:.vX3.8.hXhXpXr.#.M l x.7 a.3 h.w k x F.&XC O.Z O.O.O.O.&XO.O.O.O.O.&XZ O.O.O.O.O.O.O.O.O.O.Z Z &XZ O.O.O.O.O.O.O.O.O.&XO.O.O.O.O.O.O.O.O.O.O.O.&XO.O.O.O.O.O.J.&X+.;X-.3Xy.3.fX9.3.y.r.+.Z.y 8 s.p.s.h.y V.D.H.C Z O.J.J.O.J.&XO.O.O.O.O.O.O.O.O.&XO.Z &XZ O.O.O.O.J.&XO.O.O.O.O.O.O.O.O.Z &X&XZ O.O.O.O.O.O.O.O.O.O.&XO.O.O.J.Z J.J.+.O.:X;.*.aX3.fX8.5.y.>.+.x v.j.g.s.p.h.y V.A.J.N +.J.Z &XZ O.O.O.O.&XO.O.O.O.O.O.&XO.O.O.O.Z O.O.Z O.O.O.Z O.O.&XO.&XO.O.O.O.&XO.O.O.O.O.O.Z O.O.O.&XZ O.O.O.O.J.J.O.H.;X>X$.3XzX3.fX0.8.vXxX;XZ.B.h.4 p.p.j.r l Z.C O.N +.J.&XO.O.O.O.O.O.O.O.O.Z O.Z O.O.O.O.O.&XO.O.O.O.&XO.Z O.O.O.O.O.Z &XZ O.Z O.O.O.O.O.O.O.O.O.O.O.O.O.O.O.&XO.O.&XJ.*X$.4XcX4.iXfX2.iXzX6X&XD.v.h.2 2 s.8 y l Z.H.H.J.O.O.Z O.O.J.O.O.Z &XO.&XZ &XO.O.O.O.O.O.&XO.O.O.O.O.O.O.O.Z O.O.O.O.Z &XO.O.O.O.Z &XO.O.&XO.O.O.O.O.O.O.O.Z O.O.&XJ.+.O.$.5X3XvXiXhXfXiXpX6XO.x y h.s.2 2 w t z A.J.C O.&XO.&XZ O.O.O.&XZ &XO.O.O.O.O.O.O.O.O.O.O.J.Z &XO.O.&XO.O.O.",
"O.Z O.O.O.O.O.&XZ &XO.O.O.O.Z &XO.O.O.&XO.O.&XZ &XJ.J.J.+.;X4X3Xe.3.hX0.iX5.6X:XM t j.4 2 s.7 v.z z M J.H.+.&X&X&XZ O.O.O.Z &XO.O.Z &XO.O.O.O.O.O.O.O.O.O.&XO.O.O.O.O.O.O.O.O.&X&XO.Z O.O.O.O.O.Z &XO.O.&XO.O.Z O.Z &XO.O.O.Z &X+.+.-.3XvX3.gXfX3.vXxX&XD.n.j.s.p.s.g.n.V.Z.H.O.C O.J.Z O.&XO.O.O.O.O.O.O.O.&XZ O.O.O.O.&XO.O.O.O.O.Z O.O.O.O.O.O.O.O.O.O.O.O.O.O.O.O.Z &XO.O.&X&XO.Z O.O.O.&XZ Z J.+.O.-.-.*.e.3.8.8.3.y.6X*Xx y 8 p.p.2 7 v.V.x J.N O.Z O.&XO.O.O.O.O.O.O.Z &XO.O.O.Z O.O.Z &X&XO.O.&XO.O.O.O.O.O.O.O.Z O.O.O.O.Z O.O.O.O.O.&XO.O.&XZ O.O.O.O.O.O.O.Z +.J.#.;X-.3XzX3.fXfX0.4.:.+.x B.h.7 2 2 8 v.l x H.O.F.O.Z J.O.O.O.O.O.O.O.O.O.&XO.O.&XO.O.&XO.O.O.O.J.O.Z O.&XO.O.O.O.O.O.O.&XO.O.O.O.O.O.O.O.Z &XO.&XZ Z &XO.O.O.O.O.&XJ.;X#.-.cX4.iXfXfXiXpX;.+.D.b.h.s.p.2 h.b.l A.J.C J.O.&X&XO.O.&XO.O.O.O.O.O.O.O.O.O.O.O.O.O.O.O.&XZ O.&XO.O.O.O.O.O.O.O.O.O.&XZ &XZ O.O.O.O.O.O.O.O.O.&XZ O.O.O.O.Z &XH.#.O.$.5X*.4.iXfXhXhXvX6X&XA.v.8 4 2 s.8 r V.x J.C &XJ.O.O.O.O.O.O.O.O.O.O.O.O.O.&XZ O.O.O.O.O.O.O.O.O.O.O.Z O.&X",
"O.O.O.O.O.O.O.O.O.O.O.O.&XO.O.O.O.O.O.Z Z &XO.O.&XJ.O.J.+.#.-.:.e.hX0.hX3.aX3X:XM t j.7 2 a.7 v.B.z N &XH.+.&XZ O.O.O.O.O.O.&XZ O.O.O.O.O.Z &XO.O.O.O.O.O.O.&XO.O.O.O.O.O.O.O.Z Z O.O.&XZ &XO.O.O.O.O.O.Z O.O.&XO.O.O.Z Z O.Z J.*X;X;.3X4.iX8.8.5.y.xXO.D.y x.s.2 p.j.v.A.x H.Z C &X&XZ Z J.O.&XZ &XO.O.O.O.O.O.O.&XZ O.O.O.Z O.O.O.O.O.Z O.O.O.O.Z &XO.O.O.&XO.O.&XO.O.O.O.O.Z Z O.&XO.O.&XZ J.&XJ.+.J.:X;.r.pX0.8.8.iXy.:.*Xx v.9 s.2 p.h.v.z x C F.O.O.O.O.O.O.Z O.O.O.O.O.O.O.&XO.O.&XO.O.O.O.O.O.O.O.O.O.O.&XZ Z O.O.&XO.O.O.O.&XO.O.O.O.Z Z &XO.O.O.O.O.O.O.Z &XJ.O.J.+.%.$.3XzX5.fX8.8.y.3X;XZ.l g.4 p.2 9 v.V.Z.N Z F.&XJ.O.O.O.O.O.&XO.O.O.O.Z &XO.Z O.O.Z &XO.O.O.O.O.O.O.O.O.O.O.Z O.O.O.O.O.J.O.O.O.O.Z &XO.O.O.O.O.O.O.O.O.J.&XO.&XZ ;X;X4XxXpXhXfX8.iX4.5X+.Z.v.j.p.2 p.8 y k A.C H.H.O.O.&XO.O.O.O.O.O.J.O.O.O.O.Z O.O.O.O.O.O.O.&XZ O.O.O.O.O.O.O.O.O.O.O.O.O.O.O.O.O.O.O.O.&XO.&XO.O.O.O.O.&XO.O.O.J.Z #.Z :X;.3XvXiXfXfXiXaX3X&XA.n.7 2 2 s.w r V.x J.C O.J.O.O.O.O.O.O.O.O.O.O.O.O.O.O.&XO.O.O.&XO.O.O.&XZ O.&XZ O.O.",
"O.O.O.O.Z O.O.O.O.O.O.&XZ O.O.&XO.O.O.O.O.O.O.Z O.J.&XJ.#.;X4X3XzX5.8.hXiXaXr.#.N B.7 7 s.3 4 9 B.x N Z N O.Z O.O.O.O.O.Z O.O.O.O.&XO.O.O.O.O.O.&XZ &XO.O.Z O.O.&XZ O.&XO.O.O.O.O.O.O.O.O.O.O.O.O.O.O.&XO.O.Z O.O.O.O.&X&XO.&X&X+.;X4X3Xe.aX8.gXhXvXxX+.D.v.4 s.p.p.g.n.V.D.F.H.H.*XJ.J.O.J.O.J.O.O.O.O.O.O.&XZ O.O.O.O.O.O.&XO.O.O.O.O.O.&XO.&XO.O.O.O.O.O.Z O.O.Z O.O.O.O.O.O.O.O.O.O.O.O.J.&XO.J.+.&X:X>.3XpXhXfXfXaXy.6X*Xx y j.s.p.g.g.n.V.x C H.O.&XO.Z &XO.&X&XZ O.O.O.O.O.Z O.O.Z O.O.&XO.O.O.O.O.O.O.&XO.O.O.O.O.O.O.O.&XO.O.O.O.O.O.O.O.O.O.Z O.O.O.O.O.O.J.Z O.H.*X>X-.3XvX5.fX8.fXpX3X;XZ.B.h.4 2 p.9 x.V.Z.H.Z F.*XO.O.O.O.O.O.O.O.O.O.O.O.O.O.&XO.O.O.O.O.O.O.O.O.O.&XO.O.O.O.&XO.O.O.Z O.O.O.O.O.O.O.O.O.O.O.O.O.O.O.O.O.O.J.O.&XJ.;X#.4XzX4.0.fX8.aXzX6X+.Z.y h.s.2 p.h.n.B.x J.Z H.O.&X&XO.O.J.Z O.O.O.O.O.O.O.&XO.O.O.&XZ &XO.O.O.O.O.O.O.O.O.O.O.O.O.O.&XO.O.O.O.&XO.O.Z Z O.Z O.Z &XO.Z O.O.&XO.&XH.*XZ >X;.3XvXiXiXhXiXvX6XO.A.t 8 2 4 s.h.b.V.x &XN O.&XZ O.O.O.O.O.O.O.Z &XZ O.Z O.Z O.&XO.Z O.O.O.O.O.O.O.O.O.O.",
"O.Z &XO.&XO.O.Z O.O.O.Z O.O.Z O.O.O.O.O.O.O.O.&XJ.Z O.Z +.;X5X3XzX3.fX0.fXaX*.$.D.B.7 8 s.3 8 w k A.C C N +.J.&XO.O.Z O.&XO.O.O.O.O.O.Z O.O.&XO.O.&XZ O.O.&XZ &XO.&XO.O.O.O.O.O.O.O.Z O.O.O.O.O.O.O.O.Z O.O.O.O.Z &XO.O.O.O.J.&X+.+.;.3X4.iXiX8.aXvXxX&XZ.y 9 s.p.p.7 r V.M H.J.C O.&XZ &X&XO.Z O.O.&XO.O.O.O.O.O.O.&XZ O.O.O.O.&XO.O.O.O.O.&XO.O.Z O.O.O.O.O.O.&XZ O.O.O.O.O.O.O.O.Z O.O.O.J.O.Z &X*XZ $.>.3Xe.3.8.8.iXe.6X*XZ.r 8 2 2 a.h.r z x C N O.&XO.O.&XO.O.O.O.&XO.O.Z O.O.O.O.&XZ O.O.O.O.O.O.O.O.O.Z O.Z O.&XO.O.O.O.Z O.O.O.Z O.O.O.O.O.O.&XO.O.Z &XO.O.&XJ.O.&X+.%.:X3XvXaXfXhXfX4.:.+.x l h.4 s.2 h.w k Z.H.O.M *XO.O.O.O.Z &XZ O.Z O.O.O.O.O.&XO.Z O.O.O.Z &XO.O.O.O.O.O.O.O.&XZ O.O.&XO.O.O.O.O.Z O.O.O.&XO.O.O.O.J.O.O.&XO.O.&XO.*X#.4XzXy.iXfXfXiXzX5X+.M y h.4 p.p.8 y B.Z.H.C J.O.O.Z O.O.O.&XO.O.O.O.O.O.O.O.O.&XO.Z O.Z O.O.O.O.O.O.O.O.J.&XO.&XZ O.O.&XO.O.Z Z O.O.&XO.&XO.O.O.O.O.O.O.O.&X&X&XZ +.J.$.4X3XvXaXfXfX3.pX6X+.A.n.8 2 2 2 4 N.V.A.J.H.O.&XO.O.O.Z O.Z O.O.&XO.O.O.&XO.&XO.O.O.O.O.O.&XZ &XO.Z O.O.O.",
"O.O.O.O.O.O.O.&XZ O.O.O.O.O.&XO.O.&XZ O.O.&XO.O.O.J.&XJ.#.#.4X*.zX0.fX0.3.pX:.#.D.B.x.4 p.s.s.x.t x F.&XC O.Z Z O.O.&XO.O.O.O.O.O.O.O.&XO.O.O.Z O.O.O.O.O.O.O.O.O.Z O.O.O.&XZ O.O.O.&XO.&XO.O.Z &XZ O.O.O.O.O.&XO.O.O.O.O.O.J.&X+.;X5X3Xy.aXiX8.3.e.xX&XD.r 9 s.3 g.8 r z M H.C H.&XO.J.&XZ O.&X&XO.Z O.O.O.O.O.O.O.O.O.O.O.O.O.Z O.O.O.O.O.Z O.O.&XO.O.O.O.O.O.O.O.O.O.&XZ O.O.O.O.O.&XO.O.O.J.O.Z +.O.4X;.*.pXiXfX8.iXy.6X*Xx n.j.2 a.g.h.v.V.x J.N &XZ O.O.O.O.O.O.O.Z O.O.&XO.O.O.O.O.O.O.O.O.O.O.O.O.J.O.O.O.&XO.O.O.O.Z &XO.O.&XZ &XO.O.O.&XO.O.O.O.O.O.O.O.&XZ Z O.J.+.>X$.3Xe.5.fX2.fXzXxX;XZ.V.7 7 p.2 7 v.V.x C O.F.J.Z O.O.O.O.O.&XO.&XO.O.O.O.O.Z O.&XO.O.O.O.O.O.O.O.O.&XZ O.O.O.O.O.O.O.O.O.O.O.O.&XO.O.O.Z O.O.O.O.O.O.O.O.O.O.&X&X*X:X4XxX4.iXfX0.3.zX=.&XA.n.7 4 p.p.8 n.B.x J.H.J.O.J.O.&X&XZ O.O.O.O.O.O.O.O.O.O.O.O.O.&XO.O.Z &XO.O.O.O.O.O.Z O.O.O.Z O.O.O.O.&XO.O.O.O.O.Z O.&XO.O.O.O.O.O.O.Z J.J.;XJ.;X5X3X4.iXfXjXhXvX=.*Xx y 8 s.s.4 x.r z A.&XC O.J.O.O.O.&XO.&XO.O.O.O.O.O.O.O.O.Z O.O.O.O.O.O.O.O.O.&XO.O.O.",
"O.O.&XZ Z O.O.O.&XO.O.O.O.O.O.O.O.O.O.O.O.Z O.O.O.O.J.J.;X;X4X3Xe.aX8.hXiXaX6X:XM B.w g.4 2 s.w t x N H.H.O.Z J.O.O.O.O.O.&XO.O.O.O.O.O.Z O.O.O.O.O.O.Z &XO.O.O.O.O.O.O.O.Z &XO.O.O.O.O.O.O.O.&XO.O.O.O.O.O.O.O.O.&XO.O.O.&XZ O.#.#.;.:.e.iX0.8.hXy.*.+.x v.j.7 2 p.8 y z D.C C C &XJ.J.J.J.&XZ Z O.O.&X&XO.O.O.O.&XO.O.Z O.&XO.O.O.Z &XO.O.O.O.O.O.O.Z &XO.O.O.O.O.O.O.O.O.O.O.O.O.O.O.O.O.J.O.J.J.+.O.4X;.r.vX2.fX8.5.y.6X*XZ.n.8 2 2 p.j.r V.A.Z F.O.J.J.O.O.O.O.O.O.O.O.O.&XO.O.O.O.&XO.O.O.&XO.Z &XO.O.O.O.O.O.O.O.O.O.O.O.&XO.O.&XZ &XO.O.Z O.O.O.O.O.O.O.Z &XZ J.O.J.#.;X:XxXzX5.8.8.fX4.r.#.x l 7 4 2 p.9 x.l x F.O.C &XJ.O.O.O.O.O.O.O.&XZ O.O.O.O.O.O.O.O.O.O.O.&XZ O.Z &XO.O.O.&XO.O.O.O.O.O.O.O.O.O.Z O.O.&XZ O.O.O.O.O.O.O.J.J.O.&XZ *X;X-.zXvX3.8.fXaXy.>.&Xx b.7 2 p.p.h.y N.x J.H.H.O.O.&XO.O.&XO.O.O.&XZ &XO.O.O.O.O.Z O.O.O.&XO.O.O.O.O.O.O.O.O.O.O.O.O.O.Z &X&XO.O.O.O.O.O.O.O.Z &XO.O.O.O.O.J.Z &XJ.+.O.#.-.:.vXiXfX8.iXvX6X*XZ.n.8 4 4 s.8 t z x O.C +.J.O.O.O.Z O.O.O.O.O.Z O.O.O.&XO.O.Z O.O.Z O.O.&XZ O.O.O.O.O.",
"O.O.O.O.O.O.&XO.O.O.O.O.O.O.O.O.O.O.O.O.O.&X&XZ &XO.C Z +.;X4XxXvXaXfXhXhXvX3X4XB b.x.7 2 s.s.e C.x M A J.&X&XZ O.O.O.&XO.Z O.&XO.O.O.O.&XO.&XO.O.O.O.O.O.O.O.O.O.O.O.O.O.O.O.O.O.J.O.O.O.O.O.O.O.O.O.O.O.&XO.O.O.Z O.O.O.O.O.O.+.#.-.:.t.3.8.8.hXvX*.*XM y 8 g.p.2 8 v.l D.C J.J.O.J.Z &XJ.O.O.O.O.O.O.O.O.O.O.O.Z O.O.O.O.O.O.O.O.O.O.O.O.O.O.O.O.O.O.O.O.O.O.O.O.O.O.O.O.O.O.O.&XO.O.Z O.O.J.O.Z +.&X:X-.r.zXfXfX8.5.y.>.*Xx y 8 2 2 2 8 r V.A.J.N O.&XZ +.&XJ.O.O.O.O.O.O.Z O.O.O.O.Z O.O.&XO.O.O.O.O.O.O.O.O.&XZ O.Z O.O.O.O.O.Z O.O.O.O.O.O.O.O.&XO.O.&XZ O.O.&XJ.O.H.#.;X$.*.zXaXfXfXiXy.*.#.x l 8 4 2 3 9 r l x F.&XH.O.O.O.O.O.O.O.O.Z O.O.O.O.O.O.&XO.O.O.O.O.O.O.O.O.O.O.O.O.O.Z O.&X&XZ O.Z &XZ O.&X&XO.O.O.O.O.O.O.O.O.O.O.O.J.O.&XZ ;X:X-.t.vX8.3.fXaXvX6X*Xx b.j.4 p.2 h.v.V.Z.H.Z H.O.&XO.O.&XZ Z O.O.O.O.O.O.Z O.O.O.&XO.O.O.Z O.O.O.O.O.&XO.O.O.O.O.O.O.O.O.O.Z O.O.O.O.O.O.O.O.&XZ O.O.O.O.O.O.&X&XZ +.J.:X-.:.y.sXfXfX3.pX3X*XZ.n.x.3 3 3 8 r z x O.B O.J.Z O.O.&XO.Z &XO.Z &XO.O.O.O.O.O.&XO.O.&XO.O.O.O.O.O.O.Z &X",
"O.O.O.O.O.&X&XZ O.O.O.O.O.Z O.O.&XO.O.O.O.O.O.O.&XO.Z Z *X;X4X3Xe.5.fXfXfX4.3X4XD.b.x.4 2 s.h.w B.Z.N C C Z &X&XO.O.O.Z O.O.O.O.Z O.O.O.Z &XZ O.O.O.O.O.O.O.O.&XO.Z &XO.O.O.O.O.O.O.O.O.O.O.O.O.O.O.O.O.O.Z O.O.O.O.O.O.O.O.O.&X;X#.;.xXzXhX0.0.3.4.3X+.D.r 7 4 p.2 8 y l D.C H.H.O.J.J.J.J.O.O.O.O.Z O.Z O.O.O.&XZ O.O.&XO.Z &X&XO.O.O.O.O.O.O.O.O.O.O.O.O.O.J.O.O.O.O.O.O.O.O.O.Z &XO.&XO.J.J.O.Z +.Z 4X;.r.4.iXfX8.3.y.:.*XZ.r 8 a.3 2 j.y l Z.J.F.O.J.Z O.O.O.O.O.O.O.O.O.O.Z O.O.Z O.O.O.O.O.O.O.O.O.Z &XO.O.O.O.O.&XO.O.O.O.O.O.O.O.O.O.O.&XO.O.Z O.O.O.O.O.O.J.Z O.H.;X;X4X*.zXiX8.hXfX4.xX#.Z.l h.4 4 2 4 r V.x N O.C &XJ.O.O.O.O.O.O.&XO.O.O.O.O.O.Z O.O.O.O.&X&XO.&XZ O.O.O.O.O.&XZ O.O.O.O.&XO.O.O.O.O.O.O.O.O.O.O.&X&XO.O.O.J.O.O.*XZ +.;X-.zX4.iX0.0.iXy.6X*Xx t 9 4 2 p.h.n.B.x J.H.J.Z &X&XO.&X&X&XO.O.O.O.O.O.&XO.O.O.O.O.O.Z O.O.O.O.Z O.Z O.O.&XO.O.O.O.O.O.O.O.O.&XO.Z O.O.O.O.O.O.O.O.O.Z &XO.Z O.J.;X&X;X-.:.vXaX0.fXhXzX3X+.Z.t 7 2 4 4 w t V.Z.Z N O.&XZ O.O.O.O.O.O.O.&XO.O.O.O.O.O.O.O.Z O.O.O.&XO.&XO.O.O.&XZ ",
"O.O.O.O.O.O.O.O.O.O.O.J.O.&XO.O.Z O.O.O.O.O.O.O.&XO.J.J.*X;X-.*.vXaXhXfX2.4.3X4XD.b.w 4 2 s.4 x.B.x F.H.H.J.Z O.Z O.O.O.O.O.O.O.&XO.O.O.O.O.O.O.O.&XZ O.O.O.O.Z O.O.O.O.O.Z &XO.O.O.O.O.O.O.&XZ O.O.O.J.O.O.O.O.O.Z &XO.O.O.O.Z +.+.-.*.t.3.0.0.0.zX*.+.M y 8 7 2 4 8 r l D.C J.Z &XJ.Z &XJ.O.O.O.O.O.&X&XO.O.Z O.O.O.O.O.O.O.O.Z O.&XO.O.O.&XZ &XZ O.O.O.O.O.O.O.O.J.O.O.Z &XO.O.O.O.O.O.O.Z &XO.J.*XZ 4X5X3Xe.iXfXfXhXvX6X*XZ.t 7 g.2 s.h.n.k x J.F.O.J.&XO.O.O.O.&XZ O.O.O.O.&XO.O.&XO.&XZ O.Z &XO.O.O.O.O.O.Z &XO.O.O.O.&XZ O.O.O.Z &XO.&XZ O.O.O.O.O.O.O.O.O.O.&XJ.+.J.#.;X:Xr.zXaX8.8.iXpXxX+.Z.l x.4 4 a.9 r l x F.O.C O.J.O.O.O.O.O.O.O.O.O.O.O.&XZ &XO.O.O.O.Z O.O.O.O.O.O.O.O.O.O.O.O.O.O.O.O.O.&XO.Z O.O.O.O.&XO.O.Z Z O.O.O.&XZ O.&XJ.;X;X-.r.vXfX0.8.pXy.5X*XV.b.g.s.p.p.8 y B.x H.C J.&XZ Z O.O.O.O.O.O.Z &XO.O.O.O.O.O.O.O.&XO.O.O.O.O.&XO.O.O.O.O.O.Z &XO.O.O.O.O.O.O.O.&XO.O.O.O.O.O.O.O.O.O.O.&XZ O.Z +.&X:X-.:.e.iX8.hX5.pX:.;Xx t w 4 4 s.4 v.V.A.&XF.&XJ.+.O.O.O.O.O.&XO.O.O.O.O.&XZ O.O.O.&XO.O.O.O.O.Z O.O.O.O.O.",
"O.O.O.O.O.O.&XO.O.O.O.O.O.Z O.O.Z O.O.O.O.O.O.O.O.+.J.Z *X#.4X3XzX3.fXfXiXpXxX4XD.b.w g.p.2 4 w l x M C H.&XO.O.&XO.O.O.O.O.O.Z O.O.O.O.O.O.O.O.O.O.&XO.O.O.O.O.O.O.&XZ O.O.O.O.O.O.O.O.O.&XZ O.O.O.O.O.O.&XO.O.O.&XO.O.O.O.O.O.;X;X5X*.e.hX0.0.3.y.*.+.x v.j.g.3 s.8 b.l M C J.H.O.O.J.J.J.O.O.O.O.O.Z &XO.O.&XO.O.O.O.O.O.O.O.&XO.O.Z O.O.O.Z O.O.&XO.O.O.O.O.O.O.Z O.&XO.O.O.O.O.&XO.O.O.&XZ O.&X+.J.4X5Xr.pX2.fXfXiXzX>.*XD.y 8 4 2 2 7 r V.x Z F.&X&XJ.O.O.O.O.O.O.O.O.&XO.O.O.O.O.O.O.O.O.O.O.O.Z &XZ O.O.O.O.&XZ O.O.O.O.O.Z &XO.O.O.O.O.&XZ O.O.O.&XO.O.O.O.J.Z O.H.+.;X:Xr.zXaX8.hXfXy.*.+.D.l h.4 4 3 7 v.k x N O.H.O.O.O.O.O.O.O.O.O.O.O.O.Z O.O.&XO.O.&XO.O.O.O.&XO.O.O.O.&XO.O.O.O.O.O.O.O.O.O.O.Z O.O.O.O.O.O.O.O.O.O.O.Z &XJ.O.&XJ.;X;X;.cX4.iX8.fXiXzX6X*Xx b.7 4 p.p.h.y B.Z.J.H.J.O.J.&XO.O.&XO.O.O.O.O.O.O.O.O.J.O.O.O.O.&XO.O.O.&XO.Z O.O.O.O.&XO.O.Z O.O.O.O.O.&XO.O.O.Z O.O.O.O.O.O.O.O.O.O.Z &XZ *XZ ;X5X:.vXiXhXhX3.pXxX#.x t 8 4 2 3 9 r z x O.F.O.J.&XO.&XO.O.O.O.O.O.O.O.O.O.O.O.O.Z O.O.O.O.O.O.O.O.O.O.O.O.",
"Z &XO.O.O.O.Z O.O.&XZ O.O.&X&XO.&XO.O.&XO.O.O.O.&X&XZ J.O.;X4XxXzXiXfX0.fXy.*.-.Z.b.x.7 2 2 s.9 N.Z.F.H.C O.O.&XO.O.O.O.Z &XO.&XO.O.O.O.O.&XZ O.O.Z O.O.&XO.O.O.O.O.O.O.&XZ O.&XO.O.Z &XO.O.O.O.O.O.O.Z O.Z O.&XO.Z O.&XO.O.O.O.#.*X-.3Xe.0.0.0.0.4.:.O.D.y j.2 p.2 8 v.l x C H.H.&XO.J.J.J.O.O.O.O.O.O.O.O.O.O.O.O.O.O.O.O.O.Z O.O.O.&XO.O.O.&XO.Z O.O.&XO.O.O.O.O.&XO.Z O.O.&XO.O.Z O.O.O.J.J.&XZ +.&X:X;.*.pXiXfX8.pXvX>.*XZ.n.9 4 2 4 7 r V.x J.F.&XJ.O.O.O.O.O.O.O.Z O.O.O.&XO.O.O.O.O.&XZ O.O.O.&XO.O.O.O.O.O.O.O.&XO.O.O.O.O.O.O.O.O.O.O.O.O.O.&XO.Z O.O.O.O.J.O.O.J.*X$.4X*.zXaXfX8.iX4.xX*XZ.z 8 4 4 2 7 v.N.Z.F.O.Z &XJ.O.O.O.O.O.&XO.O.O.O.&XO.O.Z O.O.Z O.O.Z O.O.O.O.O.O.Z O.Z &XO.&XO.O.O.O.O.O.&XO.J.O.O.O.O.O.O.O.O.O.O.&XZ O.&XJ.*X;X$.r.pXfX3.fX3.e.6X*Xz t j.2 p.2 8 v.B.x H.C J.Z &XJ.O.O.Z O.O.&XZ &XZ O.O.O.O.O.O.&XO.O.O.&XO.O.O.O.O.&XZ O.O.Z &X&XO.O.O.O.O.Z O.O.O.&XO.Z O.O.O.&XZ Z &X&XJ.O.J.+.J.:X5X6XvXiX0.fXiXpX:.#.x t 9 3 3 4 8 r z x O.N O.J.Z O.Z O.O.O.O.&XZ O.O.&XZ O.O.O.&XO.O.O.O.O.O.&XZ O.O.O.O.",
"O.O.O.O.O.O.O.O.O.O.O.O.O.&XO.O.O.O.O.O.O.&XO.O.O.&XJ.H.*X;X4X*.vXaXfXhXhXpX3X4XD.B.x.7 2 s.s.x.z x M C J.&XO.Z &XO.&XZ O.O.&XZ O.O.Z &XO.O.&XO.O.&XZ &XZ O.&XO.O.O.O.O.O.O.O.O.O.O.&XZ O.O.O.&XO.O.O.&XO.O.O.Z O.O.O.O.O.O.O.O.+.;X-.xXy.3.8.3.2.y.*.*XM v.g.4 p.p.8 v.B.D.C J.Z &X&XZ &XJ.&XO.Z O.O.O.O.O.O.O.O.O.O.O.O.O.O.&XZ O.O.O.&XO.O.O.&XO.Z &XZ O.&XO.O.O.O.O.O.O.O.O.&XZ O.O.O.O.Z &XZ J.+.Z 4X;.*.zXhXfXfX3.vX6X*XM y h.2 2 4 j.r k x Z F.O.&XJ.O.J.O.Z O.O.&XO.O.Z Z O.Z &XO.O.O.O.&XO.O.O.O.O.O.O.Z O.O.&XO.O.O.O.Z O.O.O.&XO.O.O.O.O.O.O.O.O.O.&X&XO.&XO.O.&X+.:X:X*.zX3.fX8.hXpXxX*XD.B.9 4 2 2 7 v.l x F.&XC Z Z &XO.O.Z &X&XZ O.Z O.O.&XZ O.O.O.O.O.O.O.&XO.O.O.O.O.O.&XO.Z O.Z O.O.O.O.O.O.O.O.O.O.O.Z &X&XO.&XO.O.O.J.J.O.&XZ *X;X;.zXvX3.iXfX5.zX>.*XA.k 7 s.p.p.8 y l Z.H.C J.O.J.O.O.O.&XO.O.O.O.O.O.O.O.O.O.O.O.Z O.&XO.Z O.&XO.&XO.O.O.O.O.O.O.&XO.&XZ &XZ Z &XO.O.O.O.&XO.&XO.O.O.O.O.O.Z J.J.+.J.;X-.6Xe.5.fXfXiXpX:.#.x y w 4 3 3 0 e z x Z N O.J.Z O.J.O.O.O.O.O.O.O.O.O.O.O.O.O.O.O.J.Z &XO.O.O.O.Z &XO.O.",
"O.J.O.O.O.&XZ O.O.O.O.O.O.Z O.O.O.Z &XO.O.Z O.&XZ &XZ J.*X#.4X3XzX0.8.0.hXy.3X4XD.b.w 7 2 4 4 w N.A.F.H.Z O.J.J.Z O.O.O.O.O.O.O.&XZ O.O.O.O.O.O.O.O.O.O.O.O.Z O.O.O.O.O.O.&XO.Z O.O.O.O.O.O.O.O.O.O.O.O.O.&XO.O.O.&XZ O.Z &XO.O.#.;X-.3XvXhX0.2.0.y.*.+.M r h.g.2 s.j.v.N.D.C C H.O.J.J.J.J.&XO.&XO.O.O.O.O.&XZ O.O.J.O.O.O.O.O.&XO.O.O.Z O.O.O.O.O.O.O.O.O.Z O.O.O.O.O.O.&XO.Z O.O.O.O.O.O.J.J.J.J.*X&X:X5Xr.pXfXfX8.aXvX>.+.Z.y j.7 2 2 7 r N.A.J.N O.&XO.O.Z O.&XO.O.O.O.O.&XO.O.O.O.O.O.O.O.Z O.O.O.O.O.O.O.&XO.O.O.Z &XO.O.&XO.O.O.Z O.O.O.O.O.O.Z &XO.O.Z Z O.Z &XO.J.*X#.-.*.zXaX8.0.fXvX*.#.Z.V.7 4 2 2 7 v.V.x N &XH.O.J.O.O.O.O.O.O.O.O.&XO.O.O.O.O.O.O.O.O.O.O.Z O.O.O.&XZ O.O.O.&XO.O.O.&XZ O.O.O.O.O.O.O.O.O.O.Z O.Z O.O.&XJ.O.O.&XJ.#.:X-.xXpXfXfX8.iXzX6X*XV.k h.4 2 2 8 n.B.A.Z H.J.O.Z &XO.O.J.O.O.O.O.O.O.O.O.O.O.O.O.O.O.Z O.O.O.Z O.O.O.O.O.O.O.O.O.Z O.O.O.O.O.O.O.O.O.O.O.O.O.O.O.Z &XO.O.&XJ.&XZ O.J.%.-.3XvX0.hXhXiXpXr.#.x y 8 4 4 4 8 y k x O.N O.Z &XO.O.O.O.&XZ O.O.&XO.O.O.O.O.O.O.O.O.O.O.O.O.O.O.O.O.O.&X",
"O.O.&XZ O.&XZ O.O.O.O.&XZ O.O.O.&XO.O.O.O.O.Z &XO.*XJ.H.*X#.-.*.e.jX8.iXhX5.3X$.D.B.w g.s.2 4 x.t D.M H.J.&XO.J.Z &XO.O.O.O.O.O.O.O.O.O.O.O.O.O.O.O.&XZ O.O.&XO.Z &XO.O.O.O.O.O.O.O.O.O.O.O.O.O.O.O.&XO.O.O.O.O.O.O.O.O.O.O.O.O.+.;X5Xr.e.q.0.0.hXe.:.*XZ.v.h.g.p.p.h.v.V.D.H.J.H.&X&XZ J.O.Z O.O.O.Z O.O.O.O.O.O.O.O.O.O.O.O.O.O.O.O.O.O.O.O.O.O.Z &XO.O.O.&XZ Z &XO.O.O.O.&XO.O.O.&XO.O.O.J.&XZ J.*XJ.:X5X*.pXhXfX8.5.4.5X+.D.y 7 7 p.p.8 r l x Z F.&X&XO.O.&XO.O.&XO.O.O.O.O.O.O.O.O.O.O.O.O.O.O.O.O.&XO.O.&XO.O.O.O.O.O.&XZ O.O.O.O.O.O.O.O.O.O.&XZ O.O.O.O.J.O.&XO.O.Z +.>X:X6XzXiXgXhXiXpX3X:XB B.j.h.3 2 h.e V.x C Z J.Z O.O.O.O.&XO.Z O.O.O.O.O.Z &XO.O.O.J.O.O.O.O.Z O.O.O.O.O.&XZ O.&XO.O.O.O.O.O.Z O.O.&XO.O.O.O.O.O.O.&XJ.J.O.O.O.Z +.O.#.5Xr.4.3.fX8.5.y.>.*XA.t 8 p.p.p.h.n.V.Z.H.H.Z O.Z J.O.O.&XO.Z &XO.O.O.O.O.O.O.O.O.O.O.O.&XO.O.Z &XO.O.O.O.O.&XO.O.O.O.Z O.O.O.&XZ O.O.&XZ Z &XO.O.O.O.O.&XO.Z &XZ +.O.$.-.:.y.iXfXfX3.aX:.;XM t 9 5 3 4 0 r z x C F.O.&XO.O.O.O.O.O.O.O.O.Z O.O.O.&XO.O.O.O.&XO.O.O.O.O.O.Z &XO.O.",
"O.O.O.O.O.O.O.O.O.O.O.O.O.O.Z O.O.O.O.O.O.O.O.O.O.O.J.J.*X;X-.:.zXaX8.0.iXaX*.$.D.b.x.4 p.2 7 x.k Z.N N H.O.Z J.O.O.O.O.O.O.O.O.O.O.&XO.O.O.O.O.O.O.O.O.O.O.O.O.O.O.O.O.O.O.O.O.Z &XO.O.Z &X&XZ O.O.Z O.O.O.O.O.O.O.O.O.O.O.O.O.@.+.;.r.e.0.3.0.0.e.:.+.Z.r h.g.p.p.k.v.V.D.H.H.H.*X&XC &XO.&XO.O.O.&XO.Z O.O.O.O.O.O.O.O.&XZ O.O.O.O.O.O.O.O.O.O.&XZ O.O.O.O.O.O.O.O.O.Z &XO.O.Z O.O.O.O.O.&XZ &XJ.+.O.4X;.*.vXhX8.fX3.pX>.*XD.y h.4 a.p.8 r l A.C F.J.&XZ O.O.Z &XZ O.O.O.O.O.O.O.Z &XO.O.O.O.O.O.O.O.Z O.O.O.O.O.Z &XO.O.O.O.O.O.O.O.O.O.O.O.O.O.O.O.O.&XO.&XO.O.O.O.O.Z +.%.4X3XvXiXfXjXiXpX6X#.M t h.4 2 2 9 0 k z N V C O.O.O.O.O.O.O.O.&XO.O.O.O.O.O.O.&XO.O.O.O.O.O.&XO.O.O.O.O.O.O.O.O.O.O.O.O.O.O.&XO.O.O.Z O.&XO.O.O.J.&XZ J.O.&XO.Z +.+.$.>.r.4.3.fX8.3.e.>.+.A.t g.2 p.p.h.v.V.D.H.F.Z O.&XO.&XO.&XO.O.O.O.O.O.Z &XZ O.&XO.&XO.O.Z &XO.O.O.Z O.O.O.O.Z O.O.O.O.&XO.O.O.O.O.O.O.O.O.O.O.O.O.O.O.O.O.&XZ &XJ.+.O.$.-.6XvXiXfX8.iXaX:.;XD.t e 4 2 5 5 r z z H.C &XZ &XO.&XZ &XO.O.O.O.O.O.Z O.O.O.O.O.Z O.O.O.O.O.O.O.O.O.O.O.",
"O.O.O.O.Z O.O.&XZ &XO.O.O.O.O.&XO.O.Z O.O.O.O.O.J.&XJ.J.*X#.5X:.y.5.0.fXhXaX:.$.N B.w g.2 2 7 x.t Z.M C Z O.O.J.O.O.O.O.O.O.O.O.Z &XZ O.O.J.O.O.O.O.O.O.O.O.O.Z O.O.O.O.O.O.O.O.Z &X&XZ O.O.O.O.&XZ O.O.O.Z &XO.O.O.O.O.O.O.O.O.+.#.5Xr.y.0.0.2.3.e.*.+.M v.h.p.p.s.j.v.V.Z.C J.J.O.&XZ &XO.&XO.O.O.O.O.&XO.O.O.O.O.Z &XO.O.O.O.O.O.Z &XZ &XO.O.O.O.O.O.O.O.O.O.O.O.O.O.O.O.&XO.O.&XO.O.O.O.Z &XZ &X+.J.4X5Xr.vXiXfXfX5.pX;.;XD.n.7 g.p.p.9 r k x Z F.O.O.O.O.O.O.&XO.O.O.O.Z &XO.O.Z O.O.O.O.O.O.O.O.Z O.O.O.O.O.O.Z O.O.O.&XO.O.O.O.O.O.O.O.O.&XZ Z &XO.O.O.Z &XO.Z O.Z Z &X;X5X:.zXiX8.fXiXaX3X:XM t j.4 4 3 9 x.V.x N Z C O.&XO.O.Z O.O.O.O.O.&XO.&XO.O.O.Z O.O.O.O.O.O.O.&X&XO.O.Z Z O.O.O.J.O.O.O.O.O.&XO.O.O.O.&XZ O.O.O.O.&XO.J.O.&XO.Z +.O.$.5Xr.4.iXfXhX5.pX5X*XZ.t j.p.2 p.8 r V.x J.H.J.O.&X&XO.O.Z O.O.O.O.O.O.O.Z &XO.Z O.Z O.O.O.Z O.O.O.&XO.O.O.Z O.O.O.O.O.O.&XO.Z &XO.Z O.O.O.O.O.O.O.O.&XO.O.Z &XO.J.*X&X#.4X:.vXhXhX8.iXpX*.;XB t 8 4 4 4 4 r l x H.C O.O.O.O.O.O.O.O.O.Z O.&XO.O.O.O.O.Z &XO.O.O.Z O.O.O.O.O.O.O.Z ",
"O.O.O.O.&XO.O.O.O.O.O.O.&XZ O.O.O.O.&XO.J.O.O.O.Z &XZ H.*X;X-.>.zXaXhX0.0.5.:.$.M b.w 7 p.2 g.x.t D.M F.J.O.O.J.O.&XO.O.Z &XO.O.O.O.O.O.O.O.O.O.O.O.&XZ O.O.O.&XO.O.&XO.Z &XO.O.O.O.O.O.O.O.O.&XO.O.O.O.O.&XZ O.O.O.O.O.O.O.O.O.;X+.5Xr.y.0.8.2.0.y.:.O.x v.h.s.2 s.h.v.V.D.C Z H.J.J.Z J.&XZ O.O.O.O.O.O.O.&XO.O.J.O.O.O.O.O.O.O.O.O.O.O.O.O.O.O.O.O.O.&XO.Z &XO.O.O.O.O.O.Z O.O.Z O.O.O.O.J.J.O.J.+.J.4X;.*.vXiXfXfX5.4.5X*XM y h.4 2 s.8 v.l A.Z F.&XO.O.O.O.O.O.O.O.O.O.O.O.O.O.&XO.O.O.J.O.O.O.O.&XO.O.&XZ O.O.&XO.O.O.Z O.O.O.J.O.O.Z &XO.O.O.O.O.O.O.O.O.&XO.J.O.J.H.*X$.-.*.e.iXfXiXhXaX3X:XN l j.g.s.3 0 w l z D.J.H.O.Z O.O.&XZ O.O.O.O.Z O.O.O.O.O.O.O.O.O.O.O.O.O.Z Z O.O.&X&XO.O.O.O.O.O.O.O.O.Z O.O.O.O.O.O.O.&XO.O.O.O.J.O.J.O.J.+.*X#.5Xr.pX3.fXfX5.vX;.*XZ.t 7 2 p.p.h.n.V.x H.H.Z O.O.Z &XO.&XZ O.O.O.O.&XO.O.O.O.&XO.O.O.O.O.O.O.O.O.O.O.O.&X&XO.O.O.O.O.O.Z O.O.O.O.&XO.O.&XO.O.O.&XO.Z O.O.&XZ Z J.*X&X:X4X>.zXaX0.8.3.pX*.#.M t 9 4 2 4 h.r z x B C O.&XZ O.Z &XO.O.O.&XO.Z O.O.&XO.O.O.O.&XO.O.&XZ &XO.O.O.O.O.&X",
"O.O.&XZ O.O.O.O.Z &XO.O.O.O.Z &XO.O.O.O.O.O.O.O.J.&XZ J.*X;X4X:.zXhX8.hXhX6.3X;XD.B.w 7 s.2 8 x.t D.M F.Z &XZ O.O.O.O.Z O.O.O.O.O.O.O.O.Z &XO.O.Z &XO.O.O.O.Z &XO.O.O.Z O.O.O.O.O.O.O.O.O.O.O.Z O.O.Z O.O.O.O.O.O.O.&XZ O.&XO.O.+.#.5Xr.e.2.8.0.q.y.:.O.Z.r h.g.p.p.h.b.z D.F.Z J.O.O.Z J.&XJ.O.&XO.O.O.O.&XO.Z O.O.O.O.&XZ O.&XO.O.&XZ O.O.O.&XO.O.O.O.O.O.Z &XO.O.O.&XO.Z O.O.O.O.O.O.O.O.J.O.O.J.+.J.:X;.xXvXhXfX8.3.vX>.;XZ.v.9 s.p.s.9 x.V.x Z F.&XO.O.O.O.O.O.O.O.O.O.Z &X&XO.O.O.O.Z O.O.&XO.O.O.O.O.O.O.O.O.O.O.O.Z O.O.O.O.O.O.&XO.O.O.O.O.O.O.O.O.O.O.&XO.O.&XO.J.*X$.4X:.zXaXgXiXiXpX3X:XM t 8 7 4 3 8 w l x F.Z C O.Z O.Z &X&XO.O.O.O.O.&XO.O.O.O.O.O.O.O.O.&XO.O.O.O.O.O.J.O.O.O.O.Z &XO.O.O.O.O.O.O.O.Z &XO.O.Z O.O.+.O.J.O.J.O.C *X*X#.5Xr.pXiXfXhX5.vX>.*XZ.t h.2 p.p.8 y B.Z.J.H.H.O.&X&XO.O.&X&XO.O.O.O.O.O.&XO.O.O.O.&XO.O.O.O.O.O.O.O.O.O.Z O.O.&XZ O.O.O.O.O.O.&XZ O.O.O.O.O.&XO.Z O.&XO.O.&XZ &XZ *XJ.:X5X6Xe.iXfXfXiXaX3X#.N t w 4 3 4 g.v.V.x F.N +.Z Z O.O.O.O.O.O.O.O.O.O.O.O.O.O.Z &X&XZ O.O.O.O.O.O.O.O.O.&X",
"O.O.O.O.O.O.O.O.O.O.O.O.&XO.O.O.O.Z &XO.O.O.O.O.Z +.J.J.+.$.4X6Xt.hX8.hX3.5.bX:XF.b.w s.p.p.7 x.t D.M F.Z &XZ O.Z &XO.&XO.&XZ O.&XO.O.O.O.O.&XZ O.O.O.O.O.O.O.O.Z &X&XO.O.&XZ O.&XO.O.O.Z O.O.O.&XO.&XO.O.O.O.O.O.O.J.&XO.O.&XO.*X+.>.r.e.2.9.0.5.e.=.+.x r h.s.p.4 8 v.z M N J.J.O.J.J.&XZ O.O.Z O.Z &XO.O.O.O.O.O.O.O.O.O.O.O.Z O.O.O.O.O.O.O.Z O.O.O.O.O.O.O.O.O.O.Z O.&XO.O.O.O.O.O.J.O.O.J.O.J.+.&X4X;.*.y.fXfXfX5.pX5X+.M r g.4 3 s.7 v.b.V.Z F.&XO.O.O.O.Z &XO.O.O.O.O.O.O.O.O.O.O.&XO.O.Z O.O.O.O.O.&XZ &XO.O.O.O.&XO.O.O.&XZ O.Z O.O.&X&XZ O.O.O.O.O.O.O.O.&XO.Z H.*X;X:X3XzXiXiXfXfXsX3X:XN l 8 5 2 3 7 w k z F.Z C O.Z O.O.O.O.O.O.O.O.O.Z O.O.O.O.O.O.O.O.O.O.O.O.O.O.O.O.O.O.O.O.O.O.O.O.O.O.O.&XO.Z O.O.O.O.O.&XO.O.O.J.J.O.J.*XJ.*X+.#.5Xr.4.3.fXfX5.vX5X*XZ.t j.4 p.2 h.y B.x C H.Z O.O.O.O.O.J.O.O.O.O.&XO.O.O.O.O.Z O.Z O.O.O.&XZ &XO.O.O.O.O.O.O.O.O.O.O.O.O.O.O.O.O.O.O.O.O.O.O.O.O.O.Z O.O.&XZ J.Z *XZ #.4X:.zXiX0.fX0.aX:.#.N t w 7 4 2 7 r z z F.C O.Z &XO.O.&XZ J.O.O.O.O.O.O.O.O.O.O.O.O.O.O.O.O.J.O.O.&XO.Z O.",
"O.O.O.O.O.O.O.Z O.O.O.O.O.O.O.O.&XO.Z O.O.O.O.O.&X&XZ J.*X;X$.6XvXaX8.hXhX5.6X$.D.V.w g.p.2 8 x.b.M M F.Z O.J.J.O.O.&XO.O.O.O.O.O.O.&XO.O.O.O.O.O.O.O.O.O.O.O.O.O.O.&XO.O.O.O.O.O.O.Z O.&XO.O.O.O.O.O.O.O.&XO.O.O.O.J.O.O.&X&XO.;X+.>.*.y.0.8.8.6.y.:.O.x v.h.p.a.s.j.v.V.D.C J.H.Z &XC &XO.J.O.O.Z O.O.Z O.O.Z O.O.O.O.O.O.O.O.&XO.O.O.&XO.O.Z &XO.O.O.O.O.O.O.O.O.O.O.O.O.&XZ O.O.Z O.O.O.J.O.Z &X*XZ :X>.r.zXiX8.fX5.pX>.;XD.n.7 4 s.s.8 v.B.A.Z F.&XO.O.O.O.O.&X&XZ O.Z O.O.Z O.O.O.O.O.O.O.O.O.&XO.O.O.O.O.Z O.O.O.O.O.O.O.O.O.O.O.O.O.O.O.O.O.O.O.O.Z &XO.&XO.Z &XZ H.+.;X-.6XcXaXgXiXiXpXxX4XF.V.9 7 2 3 7 w l z M J.J.&XO.&XO.O.O.O.O.O.&XZ O.O.O.Z Z &X&XO.O.Z O.O.O.O.O.O.O.O.O.O.O.O.O.O.O.O.O.O.O.Z &XO.O.O.O.O.&XO.&XO.O.J.O.J.&XJ.*X+.$.5XxXpX2.fXfX5.pX;.&Xx t 8 s.p.p.h.y V.D.J.H.J.&XZ J.O.O.Z O.O.O.&XZ O.O.O.O.O.&XO.O.O.O.O.&XZ O.O.&XO.O.&XO.O.&XO.&XO.O.O.O.O.O.O.O.O.O.O.Z O.O.O.O.O.O.O.Z Z &XJ.*XZ ;X4X6XzXiX8.fX3.aX6X#.N t 9 4 3 3 4 r k z C C Z J.&XO.O.O.O.O.O.O.O.O.O.O.O.O.O.O.O.O.O.O.O.O.O.O.O.O.O.O.O.",
"Z &XO.O.O.O.O.&XO.O.O.&XZ O.O.Z O.O.&XO.O.O.O.O.Z &XJ.J.*X#.4X:.zXiXfXiXfXvXxX$.D.B.w s.p.2 7 x.t D.M F.O.&XJ.&XO.O.Z O.O.O.O.O.Z O.O.O.O.O.O.O.&XO.&XZ O.O.O.O.O.O.Z O.O.O.O.O.O.O.&XO.O.O.O.O.Z O.O.O.O.O.O.O.O.O.O.J.O.O.&XZ ;X#.>.r.y.2.8.0.5.e.>.&Xx v.g.p.p.g.8 n.z D.N J.C *X&XZ J.&XJ.O.O.O.&XO.&XO.O.&XO.O.O.O.Z &XO.O.O.O.O.O.Z O.O.&XO.O.O.&XZ O.O.O.O.&XZ O.O.&XO.O.O.O.&XO.O.O.O.J.Z Z +.J.4X5X*.4.iXfX2.5.pX5X;XD.v.9 s.2 4 w x.l Z.Z F.&XO.O.O.O.O.O.O.O.O.&XO.O.O.&XO.O.Z &XO.&XO.O.Z O.O.O.O.O.O.O.&XO.Z &XO.&XO.O.O.O.O.&XZ O.O.O.O.O.O.&XZ O.O.O.&X&XZ Z +.:X:X6XzXiXfXfXfXaXbX:XN l 9 4 2 p.8 x.l A.N Z C &XZ O.O.O.O.&XZ O.O.O.O.O.O.&XO.O.Z O.O.&XZ &XO.O.O.O.O.O.O.O.&XZ O.O.O.&XZ O.&XO.O.O.O.O.O.O.Z O.Z &XJ.J.O.J.&XZ &X*X#.5X*.aXiXfX0.aXvX>.*XZ.b.h.p.2 4 7 n.l Z.C C J.O.&XO.O.&X&XO.O.O.Z O.O.&XZ O.O.O.O.O.O.O.O.O.O.O.O.O.Z O.O.O.O.Z O.Z O.&XO.Z &XO.O.O.O.&XZ &XO.O.Z &XO.O.O.&XZ &XJ.*XZ #.5X6XvXiXhXfX0.pX:.#.M l 9 7 2 s.g.v.V.x H.M *XZ &XO.O.O.O.O.O.&XZ O.O.O.O.J.O.O.O.O.O.O.O.O.O.O.O.O.O.Z &X",
"O.&XZ O.&XO.O.O.O.O.O.Z O.O.O.&XO.O.O.O.&XZ J.J.O.+.Z H.*X#.-.:.e.0.0.0.iXaXxX:XM l w s.s.2 s.v.n.Z.F.H.O.Z Z O.&XO.O.O.O.O.Z O.O.O.O.O.O.O.&XZ Z O.O.O.O.&XO.O.O.O.O.O.O.Z O.O.O.O.O.O.O.O.Z O.&XO.O.O.O.O.O.O.&XZ &X&XO.Z +.Z *X:X-.xX4.3.8.0.0.e.>.O.x n.8 3 a.4 j.t V.D.H.Z C O.J.Z &XZ O.O.O.&XO.O.O.O.Z &X&XO.O.O.O.O.&XZ O.O.O.O.O.O.O.O.O.O.O.O.&XO.O.&XO.O.O.O.O.J.O.O.&XO.O.O.O.J.Z J.J.J.;XZ %.5XxXpX2.8.fXaXpX>.&Xx b.j.3 4 4 8 w V.z C C &XO.&XO.O.O.O.O.O.O.O.O.&XO.O.O.O.O.O.O.Z &XO.O.O.O.O.O.&XO.O.O.O.O.O.O.Z O.&XO.O.O.O.O.O.&XO.O.&XO.O.&XO.&XO.O.o.Z Z +.@.4X6XxXsXgXgXiXsXr.4XH.l w s.4 3 0 e k z M J.F.&XO.O.Z &X&XO.O.O.O.O.O.O.O.O.O.O.O.O.O.O.O.O.O.O.O.O.O.O.O.O.O.O.O.O.Z O.O.O.O.O.O.O.&XO.O.O.O.O.&XO.Z J.O.J.+.H.+.*X;X;.r.aXiX8.2.aXy.>.+.x y h.s.2 p.7 y V.x H.H.J.J.O.O.O.O.Z O.O.O.O.&XZ O.O.O.O.O.O.O.O.O.O.O.O.O.O.O.O.O.O.&XO.O.O.O.&XO.O.O.O.O.&XO.O.O.O.O.O.O.&XO.O.O.O.J.Z &XZ *XZ %.;.>.e.3.0.8.0.pXxX#.F.B.x.4 4 2 7 r z V.H.H.J.J.Z &XO.O.O.O.O.O.O.&XO.O.O.O.Z &XO.O.O.O.O.O.O.Z O.O.O.O.O.",
"O.O.O.O.Z O.O.O.O.O.O.&X&XZ O.O.Z &XO.O.O.O.O.O.&XO.J.J.*X:X5X>.e.5.2.0.3.aX*.:XD.B.w g.s.p.s.r y D.D.H.&XC J.Z Z O.Z &XO.O.&XO.O.O.&XO.O.O.O.O.O.O.O.O.O.Z O.O.O.Z &XO.&XO.&XZ O.&XO.O.O.O.&XO.O.O.O.&XO.O.O.J.&XZ Z Z &XZ O.O.+.:X;.xX4.8.0.0.0.t.>.Z A.w j.s.2 7 h.r V.M C Z Z O.J.J.&X&XO.&XO.O.O.O.O.O.O.O.Z O.O.O.O.O.O.O.O.O.O.O.O.Z &XO.O.O.O.O.O.Z O.O.O.O.O.O.O.O.O.O.Z O.O.O.O.O.&XO.O.J.#.Z $.5X3X4.3.fXfXiXvX6X+.M b.9 2 2 4 7 r z x C H.O.&XZ &XO.O.O.&XZ O.O.O.Z O.O.O.O.O.O.O.O.Z O.O.&XO.O.O.Z O.O.O.O.O.O.O.O.O.Z O.O.O.&XO.O.Z O.O.Z O.O.O.O.O.&XO.Z Z =X@.O.4X3XxXaXiXgXgXpXt.;XH.z 0 8 4 3 7 e k z B Z C O.Z J.Z O.O.O.O.Z O.O.O.O.O.O.O.O.O.Z O.Z O.O.O.O.O.O.Z &X&XO.Z O.O.O.&XO.O.O.Z &XO.O.Z O.O.O.O.O.&XZ O.&XO.O.O.J.+.&X;X5XxX4.fXfX2.aX4.5XO.Z.y x.2 2 p.h.n.V.x J.Z H.Z &XO.O.O.O.O.Z &XO.O.O.O.O.&XZ O.Z &XZ &XO.O.O.Z &XO.O.O.Z Z O.O.&XO.Z O.O.O.O.O.Z O.O.O.O.O.O.O.O.O.O.O.O.&XZ &XZ *XZ >X-.:.e.iX0.hX0.4.*.:XM t x.s.4 4 4 e k V.N H.Z &XO.O.O.O.O.O.O.O.O.Z O.Z &XO.O.O.O.O.O.Z O.O.O.&XO.O.O.O.O.",
"O.O.O.&XO.O.O.O.O.O.O.O.O.O.O.O.O.&XO.O.O.O.O.O.O.&XH.J.*X#.4X:.zX3.fXhX0.aX*.$.F.b.w s.4 3 4 n.t D.D.H.O.Z &XO.O.O.O.O.O.O.O.Z O.Z Z O.&XZ O.O.&XZ O.O.Z O.O.O.O.&XO.O.O.O.O.O.O.Z &XZ &XZ O.O.O.O.O.Z O.O.O.O.&XZ &XZ O.Z &XO.O.$.>.r.4.3.0.8.0.zX>.&XV.v.g.s.p.p.h.t V.Z.Z J.C +.J.Z O.&XO.O.O.O.O.O.O.O.O.O.Z O.O.O.Z O.O.O.Z &XO.&XO.&X&XZ &XO.O.Z &XZ O.O.Z &XO.O.O.O.O.O.&XO.O.O.O.O.O.O.Z J.+.O.:X5X3XaXjXfXfXaXpX6X*XD.y 8 4 4 4 s.n.V.z H.C O.Z &XO.O.O.O.O.O.O.O.O.O.O.O.O.O.O.O.O.O.O.O.Z O.O.O.O.O.O.O.O.O.O.O.O.O.O.O.O.O.O.Z O.O.Z O.O.O.&XZ O.O.&XO.&X=XH.*X;X*X4X3XcXpXfXfXgXiXcX:XH.V.9 7 2 3 4 w k z N Z C O.Z Z &XZ O.O.&XO.O.O.&XO.Z &XO.&XZ &X&X&XO.O.&X&XO.Z O.O.O.O.&XO.O.O.&XZ O.Z O.O.&XZ O.O.O.Z Z &X&XO.Z J.Z J.+.J.*X*X;X>.r.4.iX8.hXpXvX>.*Xx b.7 2 s.2 h.r V.x Z C J.J.O.Z O.O.O.&XO.Z O.O.O.O.O.O.O.O.&XO.O.O.Z O.O.O.O.O.O.O.&XO.O.O.Z O.O.O.O.&XO.O.O.O.O.Z &XZ J.&XJ.J.Z &XJ.&XZ J.J.&XJ.:X4X6XzXiX0.hXhXy.r.#.M t x.s.s.4 7 v.N.V.H.F.&XZ J.O.O.O.O.O.O.O.O.O.O.O.O.O.O.O.O.O.O.&XO.O.O.&XZ O.O.O.O.",
"&XZ O.O.&XO.O.Z O.O.O.O.O.O.O.O.O.Z O.O.O.O.O.O.O.&XJ.Z +.#.4X6XzX3.0.8.0.vXr.$.M l x.7 4 p.s.y b.x D.H.J.Z O.O.O.&XO.O.O.O.&XO.O.&X&XO.O.O.O.O.O.O.O.&X&XO.O.O.O.O.O.O.O.O.O.O.O.&XO.O.O.O.O.O.O.O.O.O.O.O.O.O.J.O.J.J.O.O.*XO.+.:X-.t.4.0.0.0.3.t.6X&XA.v.g.p.p.s.h.n.A.D.C Z C &XJ.Z &XZ O.O.O.O.Z &XO.O.O.O.&XO.O.O.&XO.O.O.O.O.O.Z O.O.O.O.Z O.O.&XO.O.O.O.O.O.O.O.O.O.O.O.O.O.O.O.O.O.O.O.&X&X+.Z :X5XxXpXiXfXfXaXvX>.+.x n.x.2 2 4 h.y B.Z.J.H.O.&XZ O.O.O.O.O.O.&XO.Z O.O.O.&XZ &XZ O.O.O.O.&XO.O.&XZ O.O.O.&XZ &XZ O.O.O.Z &XO.O.O.O.O.O.O.&XO.O.O.O.O.Z O.O.O.J.&X*X&X:X5XcXiXfXfXjXpXvX:XJ.V.w 0 5 3 4 w k z F.C H.O.J.&XJ.O.O.O.O.O.O.O.O.O.O.O.O.O.Z O.O.O.O.O.O.O.O.&XO.O.O.O.O.O.O.O.O.O.O.&XO.O.O.O.O.O.O.&XO.O.Z &XZ &XZ J.+.H.*X*X;X5XxXpXiX8.fX3.vX5X*XZ.b.7 p.p.2 h.y V.Z.Z H.Z J.O.&XO.O.O.O.O.&XO.O.O.O.O.O.O.O.O.O.&XO.O.O.O.O.O.&XZ O.O.&XO.O.O.O.O.O.O.Z O.O.&XO.O.O.O.O.O.O.O.O.O.O.O.O.J.Z J.+.J.$.-.:.e.3.0.9.0.y.r.#.D.B.9 4 p.s.s.v.V.V.C J.O.&XO.O.O.&XZ &XZ O.O.O.&XO.O.&XO.O.Z O.O.O.O.O.O.O.O.&XO.O.O.",
"O.O.O.O.O.&XO.&XZ &XO.O.O.O.&XO.O.O.O.O.O.O.O.O.O.&XZ J.*X>X4X=.zX5.8.fX3.aXr.:XD.B.w g.4 p.s.n.n.x D.H.J.Z O.O.O.Z &XO.O.Z &XO.O.O.O.O.O.O.O.O.O.O.O.O.O.O.O.O.O.O.O.O.O.O.O.O.O.O.O.O.O.O.O.O.O.O.Z O.O.O.O.O.J.O.J.Z O.Z &XO.+.;X;.t.y.0.8.8.3.t.>.Z A.v.j.2 p.p.h.t A.x H.J.C &XZ Z O.J.O.&X&XO.O.O.J.O.O.O.O.O.Z O.O.O.O.O.O.O.O.O.&XO.O.O.O.O.O.O.O.O.O.O.Z &XO.O.O.O.O.&XO.Z &XO.&XO.O.O.Z J.+.Z $.5X3X4.iX8.fXhXvX>.+.x t x.4 4 2 4 v.z x N H.O.&XZ &X&X&XZ O.O.O.O.O.&XO.O.O.Z &XO.O.O.O.O.O.O.O.O.O.&XO.O.O.O.O.O.O.O.O.&XO.O.O.O.O.O.O.&XO.&XO.O.O.O.O.O.&XO.O.O.+.+.:X6XcXsXfXfXgXsXcX4XZ z r 8 5 3 4 e t z B J.H.&XJ.J.&XO.&XO.O.O.O.O.O.O.O.Z O.O.O.O.O.O.O.O.O.O.O.O.O.O.O.&XO.O.O.O.O.O.Z O.O.O.O.O.O.O.O.O.O.O.O.O.Z &X&XJ.O.J.+.*X;X5XxXpXfXfX8.5.y.6XO.M t 8 2 2 2 7 n.l Z.J.H.J.Z O.O.O.O.O.O.O.O.O.O.O.O.&XO.O.O.O.O.O.O.Z O.O.O.O.O.O.O.O.Z O.O.&XO.O.Z O.O.O.O.O.O.Z &XO.O.O.O.O.O.O.O.O.O.O.O.J.O.&X$.5X:.y.3.q.8.q.y.r.#.B t 9 s.s.2 7 j.V.z C C O.O.Z O.O.O.Z &XO.O.O.O.Z &XO.O.O.O.&XO.O.O.O.O.O.O.O.O.O.O.O.",
"O.O.O.O.O.Z Z &XO.O.O.O.O.O.Z O.O.O.O.O.&XO.O.&XZ +.J.J.&X%.4X3Xt.hX2.8.2.4.xX$.M B.j.s.4 2 s.v.b.M M H.&XC &XO.O.&XZ &XO.&XZ &XO.O.O.O.O.O.O.O.O.O.O.O.O.O.O.O.O.O.O.O.O.O.O.O.O.O.O.O.O.O.O.O.O.O.&XO.O.O.O.O.O.O.&XZ O.J.+.O.+.:X-.t.y.8.2.0.q.t.;.Z z y 8 s.p.g.9 t A.D.C J.H.*XJ.Z &X&XO.J.Z O.O.O.O.O.O.O.O.O.&XO.O.O.O.Z O.O.Z O.Z O.O.O.O.O.O.&XO.O.O.O.O.O.O.O.O.O.O.Z O.O.O.O.O.O.O.O.Z J.+.&X;X;.*.pXaX8.8.3.aX>.+.M y 8 2 4 4 4 y z z H.C O.Z J.Z Z O.O.&XO.O.O.O.O.O.O.O.O.O.O.O.O.O.O.Z O.&XO.Z &X&XO.O.&XO.O.O.O.O.Z O.O.O.O.O.O.Z Z O.Z O.O.O.Z O.Z O.O.Z &X+.+.;X6XcXpXiXfXfXpXvX5XO.z e 0 3 3 0 0 y l B Z C O.&XJ.Z &XO.O.&X&XO.O.O.O.O.&XO.O.&XZ &XO.O.O.O.O.Z O.O.O.O.Z O.Z &XZ O.O.O.&XZ Z Z &XO.O.O.O.&XZ O.O.O.J.O.J.O.J.&X*X;X;.xX4.iX8.8.3.e.>.+.x y 8 s.2 4 7 y l x C Z H.&XO.&XO.O.Z Z &XO.O.O.O.O.Z O.O.O.&XO.O.O.&XO.O.O.O.O.O.O.O.O.O.O.O.O.O.&XO.O.O.O.O.O.O.O.O.O.O.O.O.&XO.O.O.&XJ.Z J.+.O.:X;.:.y.3.q.8.5.6.=.#.M t 9 4 2 2 7 w l z C Z O.&XZ O.O.O.O.O.O.O.O.O.&XZ &XO.O.O.O.&XZ O.O.O.O.O.O.O.O.O.J.",
"J.J.O.J.J.&XJ.Z J.J.&XJ.J.J.Z Z O.O.O.O.Z J.&XZ J.&XZ H.+.%.5X=.zX0.0.8.3.4.*.$.F.B.j.7 s.3 s.v.b.D.M H.Z J.J.O.Z J.J.Z Z J.J.Z &XJ.J.Z J.O.O.J.J.&XJ.J.&XJ.J.J.J.J.J.&XJ.J.Z J.O.Z J.Z J.J.&XJ.O.O.O.O.O.O.&XZ &XO.J.Z &XJ.&XO.*X:X;.cX4.2.8.0.6.t.>.Z x r 8 s.3 2 9 y z x C J.C &XJ.Z O.Z O.J.J.&X&XJ.J.J.J.O.J.&XJ.Z J.&XJ.&XO.O.&XO.O.O.O.O.O.O.O.Z O.&XO.Z O.O.&XZ O.O.Z &XO.J.O.O.J.J.J.Z &XZ *XJ.$.;.*.pXhX0.9.3.pX>.+.x t w 3 4 5 5 r z x C H.Z &XZ J.&XJ.J.Z J.J.J.O.J.J.J.J.&XJ.J.&XJ.J.J.J.&XZ J.&XJ.Z J.J.J.J.J.&XJ.J.&XJ.J.J.J.&XJ.&XJ.J.&XJ.Z J.&XZ O.O.V O.&X+.O.#.;.cXpXdXfXfXpXvX4XO.x e 0 3 3 6 e u c x V M O.Z Z J.J.&XJ.J.J.J.J.&XJ.J.J.O.J.&XZ Z J.Z Z J.Z J.J.J.&XJ.J.J.Z J.&XO.J.&XJ.Z J.Z J.J.J.J.J.J.Z J.Z O.&XO.J.+.C *X*X;X;.r.pXhX8.8.4.y.>.O.x y 7 s.2 s.7 r l x J.Z H.Z O.O.O.O.O.O.Z O.O.O.O.O.O.J.J.J.J.J.&XJ.Z J.J.&XZ J.O.J.J.&X&XZ J.J.&XJ.&XJ.O.J.J.J.&XJ.J.J.J.J.J.Z J.J.J.J.J.&XZ +.Z $.;.=.y.6.0.9.2.6.=.#.x l 9 4 2 4 7 r z z C C O.O.&XJ.J.J.&XJ.J.&XJ.Z J.&XJ.J.J.O.J.J.J.&XJ.J.J.&XJ.J.J.&X&X",
"&X&X&X&X&X&X&X&X&X&X&X&X&X&X&XJ.&XJ.&XJ.&XJ.&XJ.&X&XJ.Z *X>X4X*.e.5.0.hXhXaX*.#.D.B.j.s.s.p.s.v.t Z.D.H.&XZ J.O.&X&X&X&X&X&X&X&X&XJ.&X&XJ.&X&XJ.&X&X&X&X&X&X&X&X&X&X&X&X&X&X&X&X&X=X&X&X&X&X&X&XJ.&X&XJ.&XJ.&X&XO.O.J.J.O.J.+.=X;X;X;.zXaXhX0.0.q.t.;.C x r 4 2 2 4 9 y A.D.J.J.H.&XJ.J.&X&X&XJ.&X&X&X&X&X&X&X&X&X&X&X&XJ.&XJ.&XO.O.O.O.O.O.O.O.&XJ.&XJ.&XJ.&X&X&XJ.&X&XJ.&X&X&X&X&X&X&X&X&X&X&X&XJ.;XZ $.5XxX6.3.0.hX5.4.>.#.M t w 4 2 4 4 n.l z C C &XO.J.&XJ.&X&X&X&X&X&X&X&X&X&X&X&X&X&X&X&X&X&X&X&X&X&X&X&X&X&X&X&X&X&X&X&X&X&X&X&X&X&X&X&X&X&X&X&X&X&X&XJ.=XO.O.O.Z O.#.O.;X6Xt.pXfXfXfXiXsX4X&Xx u 0 0 3 5 0 y k B C C o.C J.&XJ.J.&X&XJ.&X&X&X&X&X&X&X&X=X&XH.-XJ.=XJ.J.&X&X&X&X&X&X&X&X&X&X&X&XJ.&X&X&X&X&X&X&X&X&X&X&X&X&X&X&XO.&XO.J.*X*X;X5XxXpXfX8.3.iXy.5X*XZ.y j.3 2 s.9 r C.x J.H.H.&X&XZ &X&X&X&X&XJ.&X&XJ.&X&X&X&X&X&X&X&X&X&X&XJ.&XJ.&X&X&XJ.&XJ.&X&XJ.&X&X&X&X&X&X&X&X&X&X&X&X&X&X&X&X&X&XJ.&XJ.&XJ.*XO.-.;.:.y.0.0.8.3.4.:.#.B t e 7 2 2 7 y k z N N &X&XJ.&X&X&X&X&X&X&X&X&X&X&X&X&X&X&X&X&X&X&X&X&X&X&X&X&XJ.J.J.",
"n V n V V o.o.V V V V V V V V V V O.Z Z o.o.Z A V o.Z Z +.%.-.:.e.6.fX0.0.e.xX$.N l 0 0 4 3 0 e y x F.V B *X+.A o.V o.O.O.Z o.V V Z V o.O.O.@.V V V o.V V o.o.V o.V V o.V V Z o.O.o.o.V V V O.O.@.Z Z O.Z Z V Z O.V O.@.A V +.o.@.@.>.u.7.9.0.0.3.r.5XJ.V.b.j.a.3 4 8 u z B B Z Z C o.O.Z o.Z O.@.V Z o.o.V o.o.o.o.V V Z V o.V Z J.&XO.Z O.O.V o.V O.V Z O.V O.Z Z Z V Z o.O.V Z Z O.o.o.V V Z O.@.o.@.%.>.t.u.jX2.8.5.y.>.*XB u 8 s.5 3 e u t x C C A V @.O.o.V o.o.o.V V V V o.o.o.V o.O.o.V o.o.V n V n o.V o.o.n V V n o.V V o.V o.O.o.o. .V V V o.V o.o.o.o. .o.o.V n o.#.@.>.r.y.q.0.jX5.y.>.V x t q 6 6 6 q e x v v C A V V  .o. .V V n V n n V o.o.o.O.| S S V n n o.n V V V Z V o.o.o.o.o.V o.o.o.V V V O.V V V V V V Z O.o.V Z Z Z O.%.V @.>.u.4.6.0.9.6.y.:. .x y k.s.2 4 8 y z v v C O.o.A Z O.V O.o.O.o.V Z O.O.V O.@.O.V V V o.O.Z O.o.O.@.V Z Z Z O.V O.O.o.V V o.V o.o.o.o.V n n V n n V V o.V V o.V o.n ..@.>.u.u.9.7.q.q.6.>.#.x t e 7 3 3 e e t Z.m A n n  .n o.V  .o.n n V V o.o.o.o.V V n V n V n V V o.o.o.o. . .",
"O.Z &XZ Z O.Z Z &X=XJ.&XJ.J.J.J.&XJ.Z J.&X&XJ.J.J.=XJ.H.+.:X5X*.y.q.9.w.w.u.u.%.B l w 0 5 3 5 e t x D.Z M *XO.J.J.J.J.J.J.J.J.=X=X&XJ.J.J.J.J.=X&X&XO.O.O.&X&XO.&X&X&X&X&XJ.J.&XZ O.&X&X&XO.Z C Z Z Z Z Z Z &X&XZ Z O.O.J.&X*X&X+.$.>.u.y.9.9.q.6.u.>.m c e 8 5 5 0 e e k N M Z Z H.=X&XJ.J.J.J.J.J.J.J.J.=X=XJ.J.J.J.J.J.J.=XJ.J.J.&X=X=XJ.&X=X&X=X&X&X&X&X&XO.J.J.O.&X=XJ.J.&X&X&X&X&X&X&XJ.J.J.&X#.+.X.,.u.u.2.w.w.w.4.>.+.B t 8 5 5 6 q e y x v B Z C O.O.O.Z Z O.&X&X&X&X&X&XO.O.O.O.Z Z Z J.&X&XO.Z J.J.Z O.O.O.O.Z O.O.O.O.O.O.O.O.O.o.O.Z V O.O.O.o.O.O.O.V Z O.O.Z @.*X-.,.i.7.w.w.q.7.u.>.@.x t 0 6 6 6 q i c c v m b n n  . . . .n n n o.n V  . . .n o.O.Z Z Z O.Z Z Z Z Z Z O.O.V Z &X&X&XO.O.J.Z Z Z &XO.O.&XO.J.J.&XO.O.Z Z J.Z O.;X-X*X6XxX4.8.8.9.5.e.>.Z z b.0 2 5 5 0 e z A.D.H.-X=XJ.=X&XJ.=XJ.=XJ.=XJ.J.&X&X=XJ.J.J.J.J.J.Z J.&XJ.J.J.C J.J.O.Z O.O.O.O.O.&X*XO.Z Z Z &XZ +.Z Z O.&XO.Z Z Z &X&X+.O.+.+.%.5Xu.u.2.w.q.6.7.=.#.B t e 5 5 3 0 q y B v B Z J.O.O.O.O.O.O.O.Z O.Z Z Z J.O.O.O.&XO.O.O.Z Z J.Z Z Z J.J.Z ",
"g | b | | g | g ] | g b b | m b | | n b  . .n n V  .o.n @.X.X.u.u.6.2.w.q.y.u.%.B l w 8 5 4 q q c c v  .v | b n o. . .n  . .| n  .S  ... .S | n  .n  . .n b |  .S n  .n n n b n  .| | S m b b  ... .| | n S | S | b | | m b | ..X.X.,.i.1.q.w.w.6.u.>.Z x y 0 5 3 5 0 u c j v m b m | | b  .| b n n n n n V  .n V V o.n V n n  . .n b n n n  . .n  .n n n  . .|  .| |  .| | b b b b | | b n n S | | ..X.%.,.u.7.w.w.w.7.u.,.@.B l u 5 6 5 0 0 u c b n g | | | | b b b | | | b | | | | | g | b b b | ] | b b g g ] ] ] | g g ] b g b g ] [ ] ] | g g ] ] ] ] ] [ h g b ..] ] { { { ,.i.7.w.7.w.7.u.,. .v u u 6 q 6 1 1 p p j h h h [ [ d d d d h d [ d h h [ h d g h h h h g g S ] g g h b g b g | g b b b b b b | | | | | | b m ..b b n n n n  .X...X.,.u.u.w.9.q.6.y.>.+.x y e 5 4 4 4 y l x v A  . .m n  . .n o.o.o.o.n n  .V o.o.o.n o.o. .n |  .n n b | | |  .| | g | | | | b | | | b g b  .b b | b | g b b | | b ..| ..{ &.} 7.w.w.w.7.u.,.@.v t e 5 5 6 q u u c v v | n m b | | | ] b b g g g g ] [ g ] | ] ] ] g | g ] | g | g | ",
"h h h h h g h ] [ h h g g ] g g g b b b b b b A b  .| b ..X.,.u.7.w.9.6.q.y.r.X.B c q 0 6 6 6 q u p v m A ..n o.b  . . .b b b |  . .S S | b b S ..g | b | | b g | ] | | ] ] ] ] g g b g ] ] g g h h ] h ] ] h g ] ] ] h ] h h ] { &.} i.7.1.7.w.7.,.,.O.z y 0 0 5 6 q i c c v h | b b | b  .| b b | b b b b b b b b b |  .b b  .b  .b b b b  . .| n  .| | | | | | g S | ] | ] | g g ] ] ] g g | [ [ [ { { } i.i.1.w.w.7.u.=.o.v u e 5 q 5 1 i i j j j h h h [ h h g h ] ] g h ] g g h h ] g ] h ] [ [ [ h h ] [ ] h h ] h [ ] h h d [ h [ ` h [ f d h d ` ` d ` d d d ' ' ) ' ' ^ } i.1.w.1.w.7.r.,.n v c i 6 1 1 1 1 < p , f > a a _ ) ` ` _ _ s s d s s s ` s s a d f f d h f d h h d h h h h h h h ] ] g g ] h h g g g g h h ] g g b g g b b | ..X.,.i.7.7.w.w.7.u.,...x u e 5 6 6 q u p c m v  . .A n  .o.n  . . . . . . .n b | | n | | | | | | | S | | | ] [ [ ] ] h ] ] h h [ h h ] [ h h [ [ [ [ d h h [ [ [ d d ' { { } i.i.1.w.w.1.u.,. .v c e q 6 6 6 1 p j j j [ d f [ h h [ [ [ [ [ ] ` h d [ d d [ [ d h h h h h h h ] [ ] ",
"! _ : a s a _ : s s f a f d d f ` f d h h d h h [ [ [ h { { } <.i.1.w.1.w.i.,.%.B c u q 5 q q 1 i p j j j [ g [ ] [ h [ [ ] ` [ ` ` ` [ [ ` [ [ ` ` ` ` ` s ` ` _ ` ) ` _ _ _ _ ` ` ` ` ) s a _ _ _ s s ` _ s _ ` ) _ a ` ) ) ' { / / <.1.1.1.w.1.,.,.| c u q q 1 1 1 1 D j j d d h ` h d d [ h ` ` S [ [ ` ` ` s h d h ] h h g h ] ] h h ] [ ] [ [ [ [ [ [ ` ` ` ` ) d s ` ` ` _ ` ` ` ) ) ) ) ) ` ' ) ^ / <.( 1.1.1.w.u.,.X.B c u e 1 1 1 1 @ < , , s a s _ s s s s _ s _ s s ) ) ) _ _ ) s ) ) ) ) ) ) ) ) ! : : s _ a ) ! ! ) ! ) _ ) ) ! ! _ ) ! ! ! ! : ! ! W ; Q W Q ~ ^ / / T ( 1.1.1.1.,.,...m c u q 1 1     @ * * Q & & ; ; ; ; ; ; : ; W W % W W W Q ; = ; > > ; ~ > ! ! : : : ! a a ) a a s ) a a s _ s s d s s s f d a a f f f d d ' [ { i.1.1.1.w.7.7.u.&.o.v z q 1 6 1 6 i D p g j h g g h ] g g ] h ] [ ] [ [ d [ [ [ [ ` ` [ [ [ ` ` d ` ` ` ` ` ` ` _ ) _ ) a ) ) ) ) ! ! ) ! ) Q ! ) ) : : ! ! ! ! ! ~ ) / / 1.1.1.1.1.i.u.,. .B c y e 6 1 1 1 < < < , _ > a ! Q ! ! ) ! ) ! ! ) ! ! ) : : : ! ! : > a : a ! : : ! a ",
"= = = = = = = = = = = - = = > - : > > > : ! : > : ! : a ^ ^ { <.1.1.1.w.7.i.,.%.v x u q 1 1 1 1 < < , - , Q > ) : ! ! ! Q W ! ! : ! ! Q Q Q Q : Q ! ; Q Q Q ! ; ! ; ; ; ; ; W Q R ; W ; W ; W = ; ; W ; ; = ; W ; W W ; W W % E ^ Y T ( ( 1.1.1.7.,.X...v i u 1 6 1 1   < < , > ; ; Q Q ; ! : : : : ; Q : : ! Q > > : : : : s : s a s _ s : _ _ ) ) ! ! ! ! Q Q ! ~ W W W W ; W : W W Q W W W W U E E Y / T T ( 1.1.1.i.,.,.| v c u q 1 1       < , , % ; = = = = ; ; = = = = R = = % ; R = % ; = R R R R = R = = = R R R R = R I R P % I R I % I I P I I $ P % I % % I U % U I Y T T T ( <.1.i.} ,.| m c i i i 1     @ @ * & = % L L o # H H H # # # # o o O O & $ $ & & & & & % - & % = - - = = R R = ; ; W = W = ; = ; ; ; ; ; ; > > > > : : ~ E ^ / <.1.1.1.1.7.u.,.V x c q 6 6 6 1 i p j < f : s a a ) a a a _ _ _ ) ) _ ) ) ) ! ~ ! ! ! W Q Q ~ ~ W ~ W W W W E W ; W R = = ; I R R R I R % I % R I R % % = P R % U Y U / T T ( ( ( i.i.,. .v c u i 1 1     < < , ; P R % R = % R % % % % I I R I I I % I % % % # % R I R = = = R ",
"o o o # # # # # # # # # o & # & $ & & & & & & & % I R % Y ^ / T ( ( 1.1.1.u.,.] v v u u 1 1     @ @ * - * $ % I = % % P R R R $ I I I $ $ $ P $ L P P P P L L P L % % L $ $ # # P P L L L L I P # L P P P P L U # L P L L L L L Y U T T ( ( ( 1.i.&.X...x u i i 1     @ * * * & % & $ % & % $ # & I % % P I I P - = = - = - % % % = % = R % R R I U P I U L U I P P L I P $ # $ L L L L L L L L U U U K K K T T T ( ( i.} &.| v c i i i 1     * + + O o & o H # o H H o H H H H P L L L L L L L # L # # o # # # o o o L L H H H # H H H L H H H F H H F F H H H . F H J J . J G K K T T ( ( ( i.&.,.n n c c p D   @ @ + + + X X F . F H H F F . . . X . . o o O X . . O # O . O o o & . O o o o o o $ o o # P o P L # o # # # # P # $ & O $ $ & $ E J T <.( ( 1.1.i.i.X.| v c u q 1 1   @ @ < - - ; = ; W W I ; W ; W W I I W I I I W I I I I P I P L I L I L P U L H H H L L L P L L L U L H H L L L # # . # . o H L # U Y K K T T ( ( 1.1.} X.| m c p i i 1   @ @ + + O # o # o L L L L H o L . . . # # # . # # . # O O . . # o o o . ",
"H . . X . . . X X X O o o o O O . X O X O # # & # . $ # J U T T T T 1.( i.} } b j v c i D 1     * @ * O & o $ H H H H H F F H H F F H H H F H H H H H . F o H F . F F F . F . F . . . H . H . . F . . F . . . . # F F . F H L H K J K T T ( T ( } { X.] v p c i     @ @ @ + + o H o L . . # . # L . # . # # L . o o . H o . o # o # o # # # H J L U L L H L F U L H F H F . F H F H H H F F F F G G F J K K T T T 1.T } } X. .A v c i D   @ @ * + + O X X . H o o o o H H . H . F . F F . F F F F H H G G F H G . . . F F F F F F H . F F F F X F F F F F F . . F F . G G G G K K K K T T / <.} { X.n V v c p i < @ @ + + O O O . . . H . . . F . . . . . . . . . X . O X . H X . X X X o X X X . . X . . X . . . . o o o . o o o X O o o X O O H J J T Y ( T 1.i.} ,.X.X.v c i i 1       @ * + * $ # # L L $ $ # # L U P L L U H U J H H L H F L F U J F H F F J H H H F F F H F F F F . . . H F F F . L F F F o G F . G K K K K T ( T / i.{ ..@.v x p p D   < @ * + * o X o . . H . F F F F F F F F F F F F F F F . . F . . F . . . H ",
". X o X X X H H X X o X X X X X X O O X X X O . o X F F G G K K T T T <.i.} X.;XZ v x c D D   , + + + o X O X G H . . F F H H H F F . F F . F o F F F F F . . F F o F . . . H H F . . o o G . . F F F F F . G . F . . F F F F G G K K K T T / / } X...| x M c p D D @ * + + O X X . . o . . . o . . . . o . . H F X X X . X X o X F X X G G . F F G F F F G G G G J G . F F F F F F G G F G G F G . J G K Y Y T T / } } { ..O. .v c c p D < @ * * + o o X o o . o . o o . H . o . . F . . F F H F H H F . F . F . . . . . H . F . H H F F F F H H o F H H o o H . . # F L L F F Y U Y K T / } { X...@.m A B c j < , @ * * & O O o o H H P H o H o o o o o o o o o X o o X O X . . X . X O F G + . O O o . X . H F o . . . o . o . . X X o . o X o J J K K T T ( <.} } &.g v x c D D D @ @ * + + + . G . X X H . F H H F G H F F . G J F H H G H G G G X G F F F F G F F . F . H G F . F G H F . H F . F . . . . . . F F G F U K K T T Y } } &...n  .v c c j < @ + + + + O F . F . F F F . . o H F F H o F F . . . H o o . o F . . G F G ",
"o o o o o o o X $ # # $ # o O # . O o X o O O o o X . H H K K K T T T / } { [ X.b v p j i p , * * @ + o o o X F H H H . . H H J H H G F F H H H H H H H L L F L o H H H H H o H H H H H H L H H # L # # o H o o H H H H H L H H J Y Y Y Y / } } { X...m o.j p j < < < * * * + O o o o o H H o H . . F H o o H H H . X F X O X . . H X X J F F . J G F J G H . X L L F H F H H H o # L H L L L L L L U J J U Y Y / ^ } &.X.| n o.v v j j < < , * + & # o $ o # o H H # H H H L L L # # L # L L L H H H L L P P P L # P H P P P # L P L L L P L P P H H P P P # P I I L L P U I U Y E / ^ { { &.&...%.O.V v v v m j j , , - - - - % = R R R % % R % % = R % R R R = = - U L $ H # # L . O O O # . & O o H o o # o H o H o o o o o H # . & O o O O X J J G Y T T / <.{ X.X.o.v v j p p D < @ * + O O F G . . o F . o H H G G G H G F G G F G H G H H H U F H J H H U F L H L H L L L L P L L H P L # H H P U L L # P # # # U K U K Y Y / { } { X.| n  .v c j p p < < * - O & o R o L L L L L L L L L P # P P L L P # P O P o o H H L H F L ",
"% & $ = & - = = = & = = $ & % % & # $ $ O & O # # o # o U J U U T / / &.,.X.%.o.O.B B v p p j , < - & & - O o o o o H o o P H H L H L # # # # L P P $ # L $ % $ $ R P % P P = % P $ = $ P R R % $ $ P I R = P % P = P % % P I P U I ^ E ^ { { &.X.X.O.=XJ.F.x v v p < , * * - O # # o o $ o o O # # $ # o H o H O o # # $ $ # L H H o X o . o H F L . U J L U L L # L # $ $ P # P $ $ P I I E P P % R E E E ~ ^ { { X.%.X.1X=X=XG.D.B v v p , : , - & % = = & R R = $ = I I I % R P P % % P % % R I R = W % % R ; = = = % = R W R R R R R = ; = > W ; R W W W W W W ; ; W W ~ ! ~ ~ ) ' { ] %.$.K.-X<XI.U.U.M B C v v h f f a : : s : ! s : : s s a : s : ! s : : ! ! Q W ! R ; I E I % & = $ % & & % # P & & % R % = = = $ = & R % & $ $ o # & O P Y U Y / ^ } } { ..#.&XH.B M c c p < * * & O * o H o o o H . H . . H L F . L H J H L L H L o L L L L P P P $ U # I $ P I % P % R % R % = % E = R = % = R = = R R = R R U E ~ ^ { { { X.%.@.+.=X-XH.x C v v j f > : > > = = - R I = = = = = ; W = = = W W W = R E % I % $ I I % P I I ",
"> > > > : , : a , : s ! : a : : : : > > ; ; ; - = W % R R ~ R ~ ^ ^ { { X.X.+.@.Z F.H.A v j < j , , > - ; = Q Q W ; W W Q E Q W W Q Q : ; : ! Q W Q Q ! : W : ! ! ! ! ! ! : Q ! ! : ! ! ! ! ! : ! ! ! ! ! ! ! ! : ! : : : ! _ ! ! ' ' { { { X.X.@.@.+.O.F.H.F.v v v g f f : > > : Q ; ; W > ; ; ; Q ; = > Q ; W Q Q Q ; W R W E R R P $ = o o R I U R & W W ; : W Q ! ! ! ; : ! ! ! ~ ! : : ! _ ) s ! ` ' ' [ X...X.%.;X;XJ.K.=XK.F.F.C v v m g h d h a a : _ : ! _ : ! : ) : : a : : _ _ _ _ _ ) s s : _ _ _ a s s s _ _ _ d _ s ` d d [ ` [ d ` d [ h h ` h [ [ h [ h g ] ] ] ] ] X...@.%.#.-XP.,X<XQ.U.<XY.F.F.L.N H.O.n o.b n b b n n n n  . .n n n n b b  .b ....[ [ [ [ ` ) ! > ! a , > > : > > f : f d ) : : s ! _ : s : ! a : > : W : > ; ~ W Q I { { { { @.@.+.&XV B B v c j , , , > - & = R = % = I % % P R P R R R R W E W W W R W ; W W ! W Q Q Q : ! : : ! ) : _ ) : ) ) : _ _ _ : s _ _ ) s _ s s s _ ) a d [ [ ] { [ X...$.@.+.=XK.=XJ.D.C B v h j j j f f s ! _ s s s ` ` _ ` s d ` d d ` ` ` ` d ` d _ ` ' ) ! ~ ! W W ",
"f f j f h h h g m m b  .| n b | b g g g g [ h d d d ` ) ' ' ` { [ { X.@.+.-X=X<XU.Y.P.P.L.F.B m v h h h d h ` h [ ] h [ [ h [ [ [ [ h g h g g h g g ] ] | ] | ] | ] b | | b ] b | | | | | | | |  .| | b b b |  .| | | b b n  . ...| ..@.@.+.>X2X1X<X0X1XI.P.Y.H.C C v n m m g g h h [ h [ h [ h ] h h ] [ ` [ d d ` ` ` ) : ! ~ W ! ~ Q > : ; = > : : j f h h h ] [ | ] b b b b | b  .| b b b  .o.n n  .+.@.O.+.-X,X=X1XqX9XqX0X!.!.Q.U.G.G.C J.C V V o.n o. .n n b n n  . . .o.o.n  . .n n  .n o.o. . .n o.o.o.V V o.o.o.o.o.o.o.V Z Z V O.O.O.J.Z J.Z Z &X&X=X=XK.=XK.=X=X=X,X,X<X1X0X0XrXrXwX8XrXE.E.~.eXE.~.W.W.!.U.Q.Q.I.Q.P.<X,X<XI.I.I.<X<XI.I.I.<X<X<X1X,X-X2X-X-X#.%.X.X.[ f [ [ f f j m v v m m A m n V V V n ..o. .n | | | | b ] ] ] ] [ ] [ X.] X.$.>X2X1XK.<XP.P.L.H.B v v j f f d f a _ _ s ) ) _ ! _ _ a s _ _ ` ) ` ` ` [ ` h [ [ [ h ] ] [ | ] b b b | b  .b  .b  .n n .... .n n o. .n o.o.o.o.V V V o.o.@.o.@.O.+.O.,X-X1XtX!.qX0XW./.<XL.F.H.C B A A o.n V n o.o.o.o.o.o.o.o.V O.O.o.@.o.@.O.O.@. ...] X.[ ) ' ' ' _ ",
"v A A N x D.G.G.L.Y.U.U.<X,XI.,X1X,XK.J.=X&XO.Z @.o.A o. .@.o.o.*X-X1X2X0X0XqXqXW.~.W./.!.U.U.K.J.H.N H.Z Z V Z Z Z O.Z Z &X&XO.=X=XK.J.K.K.=X=XK.K.P.P.P.P.K.P.P.P.P.P.P.P.P.P.P.P.P.P.,X,X,X<X,X,XP.,XP.I.I.P.,XP.P.P.P.P.P.<X<X,X1X<X0XQ.qXqXwX~.~.8X^.~.E.W.Q.U.U.K.C K.H.J.Z Z O.o.O.O.Z Z Z Z Z &XO.O.O.Z Z @.o.o.....X.] [ [ ' ' d d h f h j m m m A A Z H.J.K.K.P.K.P.P.K.P.,X,XK.U.P.U.<X<XU.<X<X<X<XQ.qXrX8X8XeXHXOXHX$XE.OX^.~.~.!.Q.I.U.I.0X0XI.<XI.I.Q.I.I.0XI.I.<XQ.I.I.Q.I.Q.Q.Q.0X0XQ.0XQ.0XQ.Q.qXqXQ.Q.Q.Q.Q.0XQ.!.qXqX!.!.9X9XW.W.~.~.~.~.W.~.~.~.wX~.wXwXwX^.rXE.eXeX8X8XHXGXKXJXGX$X@XJXoX#XJXoX+XR.OXOXR.OXOXOXR.OXR.OXOXOXOXOXOXOXHXHXJXHXeXrXrXrXtX2X>X;X;X%.O. ...V B M H.D.G.L.U.U.U.U.Q.Q.Q.0X0X<X<XI.1X<X<XP.P.K.,X=XK.-X*X*X*X*X=X1X1X1XqX!.W.~.^.W.Q.U.U.L.H.A V m m b | | | | b |  .| |  . .b b  . .V V o.o.Z V O.Z O.J.J.J.J.J.K.K.K.P.P.P.P.P.P.P.I.U.U.I.0XI.Q.I.0XQ.I.I.I.<X0XQ.Q.Q.0X0X<X1XI.<XqXqXwXrXwXPX8X^.^.E.E.rXeX^.~.!.!.Q.Q.P.I.Q.Q.Q.0XQ.Q.Q.!.Q.Q.Q.Q.Q.Q.qXqX0XQ.rX2X1X>X;X#.%.@... .| | ",
"v B D.G.Y./././.$X^.OXOXR.HX8XeXeXeX8XwXrXrX9X9XqXqX0XqXqXqX0X!.qXrX9X8XR.8XPXR.^.E.E.^.E.^./.R.wX~.~.W.W.!.W.qXW.~.9X~.9XwXwX~.wX~.~.~.^.~.eXeX^.^.^.eXeX^.R.eX^.^.eXHXeXHXeXOXOXOXOX^.eXHXeXOXR.eXHXHXeXeX^.HX^.^.8XHXR.R.R.eX8XOXHX8XPXOXJXJXHXOXJXGX+XGXGX8XR.HXE.wXrX~.W.!.W.W.W.qXwXW.~.W.W.wXW.W.qXrXqXqXqXqXqX0X0X2X4X-X%...X.[ h h g m v x M D.G.Y.!.!.E.~.^.E.^.^.^.^.eXR.eXeXOXOXOXOXOXOX$XJXJX+XGXoXKXoXLXoXLXKX@X@XMXKXoXoXKX'.oXGXJXHXOXHXOXJXHXR.OX+X+XOXOXHXJX+X+XOXOXOX+X+XOXOX+XJX+X+XJXoX+XJXoX+XoXJXoXoXoXoXoX+XGXoXoXoXGXoXoXoXoXoXoXoXoX@XoX@X@XKXKXGX'.@XLXMX'.MX@X'.'.`.NXNX].[.].NX].[.'.[.[.NX'.].LXMX].'.MX].@X].'.MX].'.].MXMXNXMXBXLXVXVXIXIXyXtX2X5X>Xo.V n B Z.A.G.S.T././.+X+X+X+X+XOXJXJXHXHXJXHXHXHX8XR.^.eXeXeXrXwXrXrX9XtXR.HXPX8XPXHX+XOXR.OX^.^.wX~.qXqXQ.I.I.<X<X<X<XI.<XI.,X,XI.I.<XI.I.<XI.Q.Q.0X!.!.qX!.~.W.~.~.~.~.^.^.^.^.^.^.HX^.^.^.OXOXOXHXOXOXOXJX+XOX+XOXHXHXOXHXHXOXR.8XHXOXOXJXJXoXGXMXGXOX'.@XLXGXGXoXKXoXoXOX$X+XHXOXOXOX$XOXOXOX+X+XOXJXoX+XOX+XJXJXGXJXJXPXIXPXtX2X7X2X;X%.@... .",
"G.Y.Y.T.T.T.$X%X#X$X#X'.KXKXGXLXBXKXGXGXGXLXGXGXGXGXoXGXKXPXJXoXGXKXGXGXoX@XoX'.'.'.@X#X@X@X#XKXGX#X+X@XGX#XoXKXGXoXoXKXoXoX@X@XoX@XoX@X#X'.@X@XKX'.KX@X'.MX'.MXKX@X@XKXKXKXKXKX@X@X@X@X'.KXMX'.MXMXKX'.KX].MX@X'.MX'.MXKX'.oX@XKX@XLXMXMX].NXBXBX].].LX@XKX'.LXMXMX@XMXGXGXKXoXoX+X@XoXoXoXoX@XGXoX@X@XGXGXPXoXJXJXPXIXPXtXyX2X2X>X;X#.Z C H.F.A.G.Y.S.$X%X$X$X#XoXoXoX@XoXKXoX@XGXKXMX'.@X@X#XMX@X#X].NX[.`.NX[.`.`.].mXSXDXSXNX X.X`.BXNXNXNXNXmX'.NXMXMX'.MX'.@X'.@XMXMXMXMX@X'.'.KXMX'.MXMX'.'.].'.'.NX[.'.MX].'.'.].MX].].NX].'.].].NXNX'.].].`.].`.].mXNX[.].].`.`.`.`.mX[.`. X`.`. X X XZXDX}. XZXZX X[.DX`.SX`. X XmX X[. X X`. X`. XmX`.`.`. X XmXmXBXFXVXVXVXCXCXIXuXyX7X1X-XL.G.S.S./.T.%X_.$X[.].].KX'.MXMXMXMXMXMXMXMXLXLXMXMXKXGXKXGXMXLXMXMXKXMXKXMXKXKXMXKXGX@XoX@X+X+XKXGXJX+XJX+XHXHXHXJXOXOXHXJXOXHXHXOXHXOXJX+X+X+XoX+XoXoXoXoXoXoXoXoX@X@XoXoX@X@X@X'.@X@X[.@X'.MX'.@X].#XMXMX'.].NXKXMXMX'.@XKX'.NX].].NXmX].BXMXMXNXNXNXBXNX`.].'.MXKX'.MX'.MXKXGX[.@X@X].MX@X'.'.'.'.NX].NX].].BXMXBXMXLXIXVXIXIXyXyX7X2X>X-X&X",
"A.S.S.T.(.%X%XXX{.XX X X.XDXSX XZXSXZXSXmXVXDXBXmXBXNXNX'.mXNXNX@XMXNX`. XSX XSX`.`.SX`.`.`.mX].`.`.].'.`.`.`.mX[.`.`.`.mXSXmXmX[.`. XSXmX`.NXmX[. X X XSXSXZX}.mX`.`.mXNX`.mX XmX XmX XSXmXSXSX XSXSXmX`. XSXmXmXmXmXmXmX}.mX`.mXmX XmXDXmXmXmXSXZXZX XSXDXDX`.DXmXmXmX'.`.`.mXSXmXNX].].].NX].[.`. XNXmX`.NXmXmXVXLXCXLXIXIXyX2X7X2X*X*XC H.A.S./.M.$X(.{._.{.]..X.X XSX X X XZXmX`.`.`. X.X X`. X X X X.X X X}.}.}.ZXZXZXZXZXZXZX}.ZXZXZXZXZXBXZXZXZXZXZXmXZX XSX X XSX`. XSX X X X}. X}.}.mXZX}.ZXZXmX}. XZXmX X`. XZX X X}.}.ZX}.|.}.}.}.ZX}.}.}. X}.}.}.ZX}. X}.}.ZX X}.}.}.}.ZX X}.}.ZXZX}.}.}.}.ZX}.ZX}.ZXZXZX}.ZXZXZXZX}.}.}.}.}.}.}.ZXZX}.}.}.DXZXZXZXFXFXFXFXCXCXUXuXuXyX2X,XL.Y.S.M.M.%X_._.XXXX.XXX}.}.ZXZXZXZXAXAXSXDXZXZXZXDXBXBXNXmXmXmX`.BXNXmX`. XSXSXmXZXSXmXmXmXmXmXNXNXmX'.NX'.MXMX'.MXMXMX'.KX'.'.'.'.'.].].NX`.`.`.[.].`.].`.`.`.mXmXmXmX[..X.X X`.`.[..X|. XSX X X}. XSX`. XSXSX`. XSXZXZXSX}.}.SXSX XZXZX}.SX XZXZXZXZXZXZXZX X}.ZXZXZXZXmX}.`. X X X X X`.}.SX}.}.}..X}.}.}.SXmXSXAXVXmXFXCXCXCXIXyXyX7X:X#.O.",
"S.T.T.z.)._._.XX{.XX X X|.SXSXSXDXDXmXDXSXZXmXmXSXZXmXmXDX X`.}.ZXZXZXZXZXZX X X X X}.|.}. X}. X`.ZX|.}.`.`.}. X}. X}. X XSXSXmXZX X}. X.X.X.X}.}. X}. X}.}.}.ZX}.}.ZXZX}.}.}.}.}.}.}.}.}.}.ZXZX}.ZXSXZX}.}.}.}.ZXZX}.ZX}.}.}.ZXDXZXZXZXZXZXZX XZX}.ZXZXZXZXAXZXZXZXZXSXSXmXZX`. X X}.}.}.}.}. X X X XDX`. XAXZXDXDXFXFXFXCXIXUXIXyXyX2X=XG.G.S.m.T.M.M._._.XXXX.X.X.X X X X X X.X}. X}.}.|.}.}.|.}.|.}.|.|.|.|.|.}.}.}.}.ZXZXZXZX}.ZXZXZXZXZXZX|.}.}.}.}.}.ZXZX}.|.}.}.}.}.}.ZX}.|.|.}.}.}.}.}.}.}.}.ZX}.}.}.ZX}.}.ZX|.ZX|.}.}.}.SXSX}.}.}.|.ZX|.}.}.}.}.}.}.}.}.}.ZX}.}.}.}.ZX X|.}.}..X|.}.}.}.}.}.}.|.}.}.}.}.}.}.}.}.}.}.}.}. X}. X}.}.}. XZX X|.}.SXZXZXZXVXFXFXCXCXUXUXlXnXyX7X=XY.S.m.M.(.%X)._.XXXX.X.X}.}.}.ZXZXAXZXAX}.ZXAXZXZXZXZXZXAXZXZXAXZXZXZXAXSX`.SXSX}.}.ZXZX}.ZXZXSXDXSXSXmXZXZX}.SX`.SXmXZXSXSXSX X X X}. X.X[. X}.`.`. X}..X X.X}.`.|.`.`.`.SX X}. X X}.|.}.|. X}.}. X}.}.}.}.}.}.ZX}.}.}.ZX}.}.}. X}.}.ZX}.}.}.}.}.}.ZXZXAXZXZXZXZX X}.}.ZX}.}.}.|.}.|. X|.|.|.}.|.}. X}.|.SX}.ZXZXZXAXFXFXFXCXCXCXlXuXyXyX2X>X=X",
"S.m.M.M.).)._._.XXXXXX X}.DXZX}.AXAXAXAXAXAXAXAX}.}.ZXAX XZXAXZX X}.}.}.}.}.}.ZX}.}.AX}.ZX}.}.ZX|.}.}.}.}.}.ZXZXmXZX}. X}.}.}.}.|..X}.}.ZXZXZXZX X X XSX}.SX}.SXZXSXSXZXSX}.ZXZXZXZXZX}.ZXSXSXZXZXZXSX}.ZXSXZXZX}.ZXZX}.ZXZXZX}.}.ZX}.}.}.}.}.}.ZXZXZXZX}.ZXZX}.AXAXAXZXZXSXZXZXZXSXSX X}.}.}.}.}.}.}.AXZX}.AXAXSXFXFXFXCXCXUXUXuXuX7X>X1XG.Y.M.M.(.).)._._.XXXX.X.X.XZX}.}.AX}.ZXZXZXZX}.ZX}..X X X.X}.ZX X}.|.}.}.ZXZXSXSXZXZXmXmXmXZXZXmXmXmXmXmXmXZXmXZXZXmXSXSXZXZXSXmXmX XZX`.ZXSXmXZX}.mX`.}.mX`.mX X XZX}.}. X}.mX}.mX|.mXZXSXmX`.`.mX`. XmXmXmXSX XSXSX`.`.`.`.mX`.`.mX`.`.`.`.`.`.`.mX`.NXSX`.mXmXmXmXSXNXNXmXNXNXSXNX`.`.NXNX].NXNX`.mX'.NXNXNXBXNXmXVXFXCXCXCXUXUXlXnXnXyX1XY.T.z.z.z.).)._.XXXX.X.XmXmX`.ZXDXmXmXmXSXDXZXVXZXSXZXDXZXZXAXZXZXZXZXZXZXZXZXZXAXZXZXAX}.ZXAXAXAXZXAXZX}.}.}.ZXZXZXZXZXAXZXZX}. X}.}. XZX}.}.}.}.}.}.|.|.}.|.|.}.|.|.|.|.|.}.}.ZXZXZX X|.|.ZX}.ZX XZXSX X}.ZXSXZX}. XSXZXSXZXZX}.SXSXSX`.mXSXSXmXZXZXmXZXAXZXmXZX}.}.}.ZXZXZX}.}.}.}. X|. XZX}.}.SX XmXSXSXSX XDXDXDXFXVXCXCXCXUXUXuXnXnX7X2XK.",
"S.M.l.z.z.)._._.XX{.[..X XNXSX XNXNX`.mX`.mXSXmXmXDXmX}.SX`. X`. X.X X}.}.}.}.|.}.mX}. X}.`.`.`.`.}.`.`.`.`.}. X X`. X X X X`.`.NX`. XNX`.[.`.SX}.`. X`.mX`.mX`. XSX X X`.mX X`.].`.`.`.SX X`.NXSXmXSXmX`.`.`.mXmX`.ZX`.`.`.ZXmXmXmXmXSXZXmXmXmXmX`. XmXSXmXmXmXNXmXZXmX X}.}. X X}. X X XSXZX`.SX XSXNXSX XmXmXDXFXFXFXCXUXUXUXnXnXnX2X2XG.S.m.z.z.z.).)._.XXXX[..X.X]..X[.NX.X].`.].`.].[..X].`.`.`.[.[.[.].'.].'.'.'.KXNX].MX`.NXMX`.mX`.mX].mXNXNXNXNX].NX`.].`.MX].].NX[.].NX`.'.`.`.].'.`.`.'.NX`.].].].].MX].].'.'.].'.].].].'.].].].'.'.].'.'.'.@X@X@XKX'.'.'.`.'.MX'.oX'.@X@X@X@X@XoX@X@X@X@X@XoXoXoX@X@X@X'.oXoXoX@X@XoXoXoXoXGXoXoXJXJXoXoXoXGXGXGXGXJXPXIXCXUXlXlXlXnXnX7X1XY.S.M.l.z.z.).).%X_.#X#XNX'.NX].].NXBXNXmXmXmXmXZXmXSXDXmXmXVXmXZXmXmXSX X`.SX X X X`.`.mXmXZXSXZXmXmXmXmXmX}.`.SX X XSX}.mX`.`.SX`.`.`. X`.[. X`. X`.mX`.}.`. XmX`.`.`.`.`.[.`.`.`.SX[.[.`.mX`.`.`.`.`.`.`.`.`.mXmX`.mXNX].mXmX`.`.`.[.`.].`.`.`.mXNXmX'.NXNX`.mX`.mX`.`.mX`.}.`.`.`.`.[.`.].].].].[.].MX'.].`.NXNXBXVXCXFXCXUXlXlXlXlXbX7X4XJ.",
"M.M.z.z.z.z.).%X%X{.+X+XoXJXGX@XLXGXGXMXMXMXMXBXMXBXNXMXmXNX].mXNX].MX'.NXMX'.MX@XMXMXKXNXNXNXNX`.MXMX].`.'.'.'.'.'.'.MX'.KXMXKXMX@XMXMXKX@X@XGXoXoXGXGXGXoXGXGXGXGXGXKXGXGXGXoXGXGXGXMXGXGXGXMXGXGXGXKXoXGXGXGXGXGXGXGXGXGXMXGXKXGXoX@X@XGXoX'.MXGXMXGXMXKXMXMXMXBXMXMXMXNXMXNXNXNX].'.].`.].MX'.'.'.MXMX].MXNXMXVXVXCXCXUXUXlXlXnXyXyX2XY.S.m.M.l.z.).)._.{.{.{.#X'.'.KX@XKX@X'.@X'.@X'.oX'.oXoXGXoXoX+XOXHXOXOXOXOXOX+XHXOXOXGXOXGXGXJXGXGXGXoXoX@XGXoXoXoXGXGXGXJXoXGXoXGXGXGXGXoXJX+X+XGXJXoXoXGXGXGXoXoX'.JXHXoXOXOXOX+XOXR.JXJXHXOXOXGXJXOXOXHXHXOXOXOXHX8X8XHX8X8X8X8X8XR.R.R.R.8X8X8XeXeX^.R.eXwXeXwXR.wXeXeXeXeXeXeXeXR.E.wXR.eXwXR.eXE.wXwXwXwXwX8XtXeXPXyXnXlXlXlXkXkXnX7X1XY.C.l.l.z.z.z.).%X%X#X$XJXoXJXJXJXJXGXJXJXJXJXJXGXGXGXGXGXGXKXKX'.'.MXNXNX'.NXMX].MX].NXNXmXMXNXNXmXmXMXmXNX`.mXNX`.`.NXmXmXmX].NX`.`.`.[.].].].].].].].MX].'.'.mXMXMX`.@X'.@X@X@X'.'.@XoXGXGXGXoXoXGXGXGXGXoXoXJXJXGX+XoXoXGXGXGXoXGXGX+XoXGXoXGXGXJXoXGXGXGXMXGXGXGXGXGXGXGXoXGXGXGXGXGXJXJXGXoXoXoX+XGXJXJXJXJXJXJXPXPXIXIXlXlXlXkXlXbX7X7XP.",
"n.k.l.l.f.z.z.%X/././.E.^.rXwXE.eX8X8XR.HX8X8XHXJXJXGX+X+XJXGXJX+X+XJX+X+XOX+X+XoX+X+XoXoXOX+XOX+X+XOX+X8X+X8X8X8XR.R.HX8XR.R.OXOXOXE.R.OXOX^.eXR.^.E.^.^.^.E.R.^.^.wX^.eXeX~.E.eX^.~.~.wXwXE.wXwXeXwXeX^.E.R.~.wXR.wXR.E.8XwX8XwXeXeX~.eX^.eXwXwXeXeX^.^.HXHX8XHXHXHXHXHXOXHXHXHXHXOXOXOXOX+X+XJXOX+XPXHX+XJXPXPXPXPXIXCXlXlXlXlXkXbX5X>XZ.S.m.l.l.f.z.z.(.%X$X$XOXR.E.HXOX^.OX8X8XR.wXwXwX~.E.~.~.^.~.wX~.wX~.E.wXwXwXwXwXwXwX9X9X9X9X9XwX9XwXwXwXwXwXwXwX8XeXwXeXwXR.wXR.^.~.R.wXE.wXwXwX~.~.9XE.9XwX9XE.W.8XwXwXwXwX~.wXwX9X~.W.~.~.~.~.W.W.wX9XW.wXrXW.W.!.W.E.W.W.W.W.W.E.!.!.!.Q.!.Q.Q.!.Q.Q.Q.Q.Q.Q.0X0X0XQ.0X0X0XQ.Q.0XQ.0X0X0XQ.Q.I.I.I.Q.<X0XQ.<X<X0X9XtXyXyXlXkXkXkXdXnX7X-XA.m.l.d.f.f.M.T.T.$XOX/.wXwXwX9XwXwXrXwX~.~.rXwXE.wXeXeXeXeX8XeX8X8XR.8XOXJXOXJXOXJXJXJXHXJXJXJXJXoXGXGXJXGXJXJXJXoXJXKXGXJXoXGXoXoXoXGXoXoX+XoXoX+X+XJX+X+X+X+XHXGXR.R.OXR.OXOX8X8X~.^.~.~.E.wX~.W.wXE.~.~.wX~.^.~.wXwXwX~.E.wXwX9XE.wX^.^.eXeXeXwX8XwXeXE.eXeXwXE.wXE.E.wXwX~.E.E.9XE.~.~.~.~.~.~.~.~.~.wXE.wXwXwXW.tXtXuXnXlXlXkXkXkXnX7X7XP.",
"v.k.d.f.f.l.M.S././.E.W.W.qX9X9XQ.0X!.!.qX9XwX9XqXrXW.W.wX~.W.wX8XeXwXeXwX^.~.~.eXwXwXW.W.W.9XW.wX9XW.9XW.W.E.8X~.wXwX~.~.wX9X!.qXqX9X!.!.!.W.wXwX~.W.wXW.wXW.wXqXwXwXqXwXwXW.W.wX9XW.W.wX9XE.9X9X9X9XwXW.W.W.W.qX!.9XW.E.9XwX9X~.wX9XwXW.~.9XwXwXwXW.rXwXqXqXwX9X9XW.~.~.^.~.^.E.wXeXwX9XwX!.Q.qX!.W.qXW.W.rXqXrXrXtXyXnXlXlXkXkXkXsX7X-XY.m.l.l.f.f.z.M.M./.T./.qXqX!.!.Q.!.qX9XqXqX9X!.qXW.W.!.qX!.Q.qX!.qX!.Q.0XQ.Q.Q.qX0X0X!.0X!.qXqX0X!.W.0X0X0XQ.qX!.0XQ.Q.0X!.qX!.!.!.!.0XqX!.0XqX0XqX!.!.!.I.W.U.0XW.<XQ.0X!.0X!.0X!.0XQ.0XQ.I.I.Q.I.<XI.I.Q.<X<XI.I.I.<X<XI.<X<XU.<X<XI.I.<X<X<XI.I.<X<X<X<X<XI.P.I.P.I.P.<XP.<XI.<XI.P.I.<X<X<X<X<XP.<X1XI.P.P.<X<X1XK.2X7X7XnXdXkXkXkXvX5X-XS.m.l.f.a.f.l.m.S.S.Q.Y.Q.0XI.Q.Q.Q.0X0X!.9XqX9X9XwX9XwXwXwXwXwX8X8X8XwX9XqX9X9X9XwX9X9XW.9XrXwXwX~.wXW.E.wXwXwXwXE.~.~.E.wXE.~.~.~.~.~.^.W.~.W.~.~.W.W.W.9XW.9X9X9XwXE.!.9X!.qXqX!.W.W.E.E.W.wXwXW.E.9XW.9X9X9X9X9XqXwX9X9XW.9X9X!.E.W.!.Q.Q.Q.0XW.Q.W.qXQ.!.qX9X9XW.wX9XE.9XE.W.9XE.9XW.!.qXqX!.!.!.0XQ.Q.!.Q.qXqXqXtXtXyXnXlXkXkXkXsXvX3X4XO.",
"m.l.f.d.f.f.M.S.Y.Y.K.K.K.=X=X=X1X,XU.I.<X1X<X<X<X<X<XQ.I.Q.0XI.,XP.P.,XP.P.P.I.0X<X0X<X<X<X1X<XU.P.<XP.I.,X1XL.K.K.K.,XK.K.P.<XP.I.P.P.<X<X,X=XK.P.K.P.K.J.K.P.K.P.K.K.K.K.,X,XL.K.,X,X=XK.K.,X=XK.=X,XP.P.,X,X,XP.,XP.P.P.=X,XK.,XP.=X,XK.K.,XK.,XP.P.P.,XI.,X<XQ.<X<X,X,X,X,X,X,XP.P.P.I.0X<X<XI.I.<X,X<X1X,X<XtX2XtXnXnXkXkXkXlXnX7X>XZ.m.c.d.f.f.l.l.m.S.Y.U.<X<XU.<XI.<XI.P.<X,X,XP.P.,XP.L.,X,X=XK.L.=XJ.=XJ.J.J.O.&X&XJ.J.Z O.&XO.Z Z -XJ.J.J.=XJ.K.&XK.=X=XJ.K.=XJ.J.K.=X=X=X&XZ &XJ.=X=X&XJ.&XJ.O.&X&XO.O.J.=XJ.J.Z O.J.J.&X&X&X&XZ O.Z Z Z &X&X&XO.&XO.O.Z Z +.O.&Xo.Z Z Z O.Z Z J.O.&X&XZ Z O.O.O.O.Z J.&XO.Z Z O.Z Z Z Z Z Z Z Z O.Z O.O.O.&XZ O.O.&X>X7X3XvXkXgXkXdXsX6X-XA.b.j.k.a.f.k.m.S.Y.K.Y.*X&XZ Z Z O.O.=X=XK.=XK.=X,X=X=XK.K.,X,XK.U.K.=XI.I.I.P.P.<X<X<X<XI.<X<X<X<XqXI.Q.Q.0XQ.<X0XQ.Q.qX0X0X0X0XQ.Q.Q.0XQ.Q.Q.<XI.<X<XI.I.I.<XU.P.<XI.I.I.I.I.<X<XK.U.K.K.=X,XK.J.K.,X=XK.K.K.,X=X=XK.K.K.K.K.-X&XJ.J.=X=X&XJ.O.J.&XK.&X=XK.J.K.=X,XK.P.K.=X,X=X&X=XK.K.=X=X=XJ.J.Z J.J.&X&XZ +.&X&X>X>X3XbXsXkXjXdXsXpX3X-.O.",
"b.j.p.a.k.k.m.N.Y.P.K.F.=XK.L.=X=X&X=X=X&XJ.=X=XK.K.=X=X,XK.K.=XP.,X,XP.,X<X,XJ.J.K.K.=XK.K.K.=X,XP.K.=XK.J.-XK.-XL.=X=X=XP.-XL.=X&XJ.=XJ.Z J.=X=XP.K.K.K.K.K.K.K.=X=X=X,XP.K.,X=X=X=XK.=XL.-X&X,XP.,XP.=X,XK.P.,X,XP.,XP.P.P.P.,X=X,X,X,XK.K.K.=XK.=X=X,X=XJ.K.K.J.=XK.K.,X,X,XP.,X=X,X=XK.K.=XK.K.=X&XK.K.=XP.P.1X>X7XbXsXdXkXjXjXcX6X-XG.C.9 a.f.k.f.m.S.S.U.=XB =XK.K.&X&X&XK.J.L.=X,XK.P.=X,XK.P.K.,X=XP.K.K.K.,XK.P.=X=XP.=XP.L.,X=X=X,X,X,X,X,X,X,X,X,X,X<X,XP.,X,X,X,X,XK.K.,X,XP.,X,X,X,XU.-X,X,XU.U.,XL.,XP.,XL.,XP.,XK.=XK.P.,X,X,X=X,XK.J.K.K.K.=X,X,XP.P.,XP.,XU.,X=XK.=X=X=X=X&XJ.&X=X&X=X&X=X=X=X=XJ.&X=XJ.&XJ.J.&X=XJ.&XJ.=X=X&X&X&X=X=X=XK.=X-X&X:X4X3XzXiXfXiXiXvX3X-XZ.t 7 3 d.a.h.v.C.G.G.K.P.K.,X,X=XP.K.=XK.K.=X=XK.=X-X=XJ.K.J.J.K.J.=XK.=XK.=X=X=XL.K.=X=X=XP.=X=X,X,X=XP.K.,XP.,X,X,X,XP.,X,XP.=X,X,XP.=X,XK.=XK.=XK.=X,X-XL.L.-X=XJ.K.J.=XJ.J.L.H.,X,X=XK.=XK.K.K.=X=XK.K.K.K.J.P.L.,X-X=X=XP.P.,X,X<XP.,X,X,X,X,X,XP.,XP.,X=XP.,XK.K.=X=XK.=X=XK.K.P.=X=XL.P.K.,X,XK.=X=X-X,XL.=X,X-X5X7XxXsXsXfXgXsXsX3X2XK.",
"n.k.s.p.p.h.v.N.x H.J.H.*XJ.J.*XJ.Z &XJ.J.J.J.J.&XJ.&X&X&XJ.&X&XJ.J.K.J.&XJ.&XO.&X&X&X&XJ.&X&XJ.J.Z Z &X=XJ.O.L.J.=X&X=X&X&XJ.&XJ.=XJ.&X=XJ.J.L.&X&X&X&X&XO.&XZ O.O.O.O.o.O.O.O.o.&XO.O.O.O.O.O.Z O.O.Z Z O.Z O.O.o.o.O.o.o.O.o.Z Z Z Z O.O.&XZ Z Z Z Z O.&X&X&XO.O.&X&XO.=XJ.J.J.J.J.&X&X&X&XO.=XJ.=X&XJ.J.=XJ.J.*X>X4XbXvXiXfXjXsXvX3X*XG.N.h.g.p.4 g.x.B.V.D.J.F.&X=XJ.J.&XJ.O.O.Z O.O.O.Z O.Z Z Z Z O.O.Z Z O.O.o.O.O.O.O.O.O.O.o.O.O.O.o.O.Z Z Z Z Z Z Z Z Z Z o.Z Z Z Z Z O.Z Z Z O.Z Z Z O.Z Z Z O.o.o.Z @.O.o.O.@.O.o.O.O.O.O.o.O.O.o.O.O.Z O.O.O.O.O.Z O.o.o.O.o.o.O.o.O.Z Z O.Z J.&XO.Z Z O.&X&XZ Z Z &XO.O.O.Z &X&XJ.O.O.Z &XJ.Z O.J.J.Z O.Z Z Z Z &XJ.>X4X3XzXsXgXgXiXsX6X-XZ.t h.3 s.2 x.v.V.x N Z Z O.Z Z O.Z Z Z Z Z Z O.O.Z Z O.O.=X=X&X&X&X&XO.&XK.J.=X&XJ.J.&XJ.J.J.&XK.Z J.=XJ.=XK.J.J.K.J.=XJ.K.J.=X=XK.K.J.K.J.=XJ.K.K.K.J.J.Z J.J.&X&XJ.+.=XJ.=X&X&X&XO.Z &X&X&XZ &X&XZ Z &XO.O.O.O.O.O.o.O.O.O.V Z Z o.Z Z Z Z Z Z Z Z Z Z Z O.Z o.O.O.o.O.O.O.O.@.O.+.O.O.O.O.Z Z O.Z Z Z Z Z O.Z +.+.+.5X;.zXhXhXgX0.0.e.3X5XZ ",
"n.k.d.p.k.h.b.C.D.J.J.J.O.J.J.Z J.&X&X=X&XJ.&X&XK.J.K.&XJ.J.&XJ.K.J.J.J.J.J.O.&X&X&X&XJ.&XJ.J.J.J.=X&X&X&X&X-XJ.J.J.J.J.L.-X&X&XJ.&X&XJ.&X&XJ.Z O.&X&XO.O.O.O.O.O.O.O.O.O.O.O.O.&XO.O.O.Z &X&XO.O.O.O.&X&XO.O.O.O.&X&XO.&X&X&X&XO.O.O.&X&X&X&X*X&X&X=X&XO.=X&XJ.=X&X&XZ J.&XJ.J.J.K.J.J.J.=XO.J.&X&XJ.&XJ.J.O.&XK.;X;X4X3XsXsXgXjXjXsX3X*XD.t k.s.a.p.s.x.C.A.F.J.H.&X&XZ &X&XJ.=XJ.J.&X&XJ.O.O.O.O.&X&X&XO.&X&XO.O.O.O.O.O.O.O.&XO.O.O.O.O.O.&XZ O.O.O.O.O.O.&XZ O.O.O.O.O.&XO.O.O.&X&XJ.&XO.o.&XJ.&XZ &XO.O.&X&X&X&XO.&X&X&XO.&XO.&XO.O.O.O.O.Z &XO.&X&X&XO.O.&XZ &XO.&X&X&X&XO.O.O.O.O.O.O.O.O.O.O.O.&XO.O.O.Z O.O.O.O.O.J.O.O.O.O.O.O.O.O.O.O.O.O.O.Z Z Z O.J.;X4X6XzXsXgXgXiXpX3X;XZ.t h.s.4 4 e r z M N Z &X&XO.&XJ.&XO.O.O.O.O.&XO.O.O.O.J.J.J.&XJ.J.&X=X&XJ.J.&X&X&X&XJ.J.&X&X&X&X&XJ.=X&X&X&X&X=XO.&XO.&X&X&X&XJ.&X&X&X=X&X&X&X&X&XJ.&X&XK.&X&X=X-XJ.L.&XO.&XJ.&X&XZ O.&XO.O.O.O.O.O.O.O.O.O.O.O.O.O.O.&X&X&X&XJ.&X&XJ.O.O.O.O.O.O.O.&X&X&XJ.&X&X&X&X&XZ Z Z Z J.Z O.Z O.O.&X&X&XO.O.&XZ &XO.O.J.+.O.*X:X5XzX5.0.fXhXaXpX:.-.&X",
"N.9 d.p.s.h.v.l D.H.J.H.O.J.J.&XO.O.O.O.&XO.&XO.&XO.Z Z &X&XO.O.&Xo.&X&X&X&XO.O.J.J.J.J.J.J.&XJ.J.J.&XZ Z J.Z Z &X&X=XJ.J.S O.O.O.&X&X&XO.J.J.O.&X&XZ &XO.J.O.O.Z O.Z O.O.O.O.O.Z Z J.Z &XJ.Z J.O.O.Z Z Z Z O.O.J.J.Z &XJ.J.Z J.O.O.O.O.Z Z &XJ.&XJ.O.Z Z Z &XJ.Z O.Z O.O.O.&X&XO.O.O.O.O.O.O.O.Z J.J.&XJ.J.&XZ &X;X;X-.3XpXsXhXgXjXcX3X*XD.B.h.a.s.s.k.j.N.A.C J.C O.Z O.&X&X&XJ.J.J.J.Z O.O.O.Z O.&XJ.Z Z Z &XO.O.O.O.O.O.O.O.&XZ Z O.O.O.O.Z O.O.O.O.O.O.O.O.O.O.O.O.O.O.O.O.Z O.Z &XO.O.&XJ.J.Z J.Z O.O.O.O.Z Z J.Z J.Z Z Z Z &XO.Z Z O.O.O.&XZ O.O.O.O.O.Z O.O.O.O.J.O.Z O.&XO.O.&XO.O.&XZ O.O.O.O.O.O.O.O.O.O.O.O.O.O.O.O.O.O.O.O.O.O.O.O.O.O.O.O.&X&XO.*XV #.4X6XzXsXiXfXjXpXbX;XD.t 0 3 5 5 0 r z M N C O.O.&XZ &XJ.Z O.&XJ.&XZ J.J.J.J.J.J.Z O.&XK.J.Z J.J.J.J.J.J.O.Z &XJ.J.J.J.Z Z Z O.O.O.O.O.O.O.O.O.&XO.O.O.&XO.O.O.O.O.O.J.O.&X&XJ.J.J.Z Z Z Z Z &XJ.&XO.&X&XO.O.O.O.O.O.O.O.&X&XO.Z &X&XJ.&X&XZ Z Z Z J.&XJ.Z &XO.O.O.Z O.O.O.O.O.O.O.Z Z Z J.J.&X&X&X&XJ.J.&XJ.O.O.Z &XJ.Z &XO.&X&XO.O.&X&XO.*X$.5Xr.5.iXfXhXaXpX3X:XJ.",
"v.8 g.p.g.h.v.V.M H.J.C O.J.J.&XO.&XZ O.O.O.&XO.Z Z Z V Z Z Z Z Z O.o.&XO.Z Z O.O.O.O.O.&XO.O.o.O.O.o.O.Z o.O.O.Z O.Z o.Z Z V Z O.Z Z Z Z Z Z &XZ O.O.O.O.O.O.O.O.O.O.O.+.J.&XO.O.O.O.O.O.O.+.Z O.O.&X&X&XO.O.O.&XO.O.O.O.&XO.O.O.&XO.O.O.O.O.O.O.O.O.O.O.O.Z O.Z Z Z Z Z O.Z Z O.O.O.V Z Z Z Z Z o.Z O.Z Z O.O.Z +.#.-.xXy.aX0.gXiXy.*.;XZ.N.x.g.p.g.h.r l A.N J.C Z Z J.J.Z O.O.O.O.O.O.O.O.O.O.O.O.O.&XO.O.&XO.O.O.O.O.O.O.O.O.O.O.O.O.O.O.O.O.&XO.O.O.O.O.O.O.&XO.O.O.O.O.O.O.O.O.O.O.O.*XZ &XO.-X-XO.O.O.O.O.O.O.O.O.O.O.O.O.O.O.O.O.O.O.O.O.O.O.O.O.O.O.O.O.O.O.&XO.O.O.O.Z O.O.O.J.J.Z &XO.Z O.Z O.O.O.O.O.O.O.O.O.O.O.O.O.O.O.O.O.O.O.O.Z O.J.O.Z O.O.+.Z #.$.>.zX6.iXgXsXsXxX:XM t 9 5 5 3 0 y k B M J.O.O.O.O.O.O.&X&X&XO.O.O.O.O.O.O.O.Z O.O.o.O.O.Z o.O.o.O.O.O.o.O.o.O.O.O.Z O.O.O.&XO.O.&XO.&XO.O.O.&XO.O.&XO.O.O.O.O.O.O.&XO.Z Z o.O.O.o.O.O.Z @.Z Z Z Z Z Z O.J.O.J.&XZ &XJ.Z Z O.O.O.O.Z O.O.O.&XJ.&XO.O.O.O.O.O.O.O.O.O.O.&XO.O.O.O.O.&XO.&X&XO.O.O.O.O.O.O.O.O.O.O.O.O.O.O.&XZ H.O.O.Z O.O.+.5X;.cX5.iX8.fXiXe.:.4XZ ",
"v.g.p.a.s.j.b.z M C O.C *XO.Z O.O.O.O.O.O.O.O.O.Z O.O.O.O.J.O.O.O.O.+.O.O.O.O.O.O.o.O.O.Z O.O.O.O.O.O.O.J.O.Z O.Z O.O.O.Z Z J.O.O.Z O.O.Z Z Z O.O.&XO.O.O.O.O.O.J.&X&XZ Z J.Z &XJ.Z &XO.&XO.O.O.O.&XO.O.O.J.&XO.O.&X&XO.&XZ &X&XZ Z O.&XO.&X&XZ O.O.O.&X&XO.V Z O.O.O.O.O.O.o.O.O.O.O.O.O.O.O.O.O.Z Z O.H.J.O.O.Z #.$.-.r.y.iX8.fXiXvX3X*XD.B.g.p.p.p.g.v.B.A.F.O.C &XZ J.J.O.O.O.O.O.O.O.O.&XZ &XJ.J.O.Z O.&XZ O.O.O.O.O.O.O.O.&X&XO.&X&X&XO.&XO.Z O.&X&X&XO.&X&XZ Z &XO.&X&XO.&XO.&X&XO.J.J.J.Z &XS L.O.&XO.O.&XJ.&X&XJ.&X&X&X&XJ.&XO.O.O.O.&XO.J.Z J.&XZ J.O.O.&X&XZ &X&XO.O.O.O.O.O.Z *X&XO.&X&XO.O.O.&XO.O.&XO.Z O.O.O.O.O.O.O.O.O.O.O.O.O.J.&X&XZ J.O.&X&XJ.;X>X6XcXsXfXgXjXaXzX:XB t 0 5 5 6 0 e k x N C &X&XZ O.&XO.Z O.O.O.Z Z O.O.+.O.V O.O.V O.O.O.Z Z O.O.O.O.&XO.O.Z O.O.J.Z Z Z Z Z J.J.Z J.Z &XJ.J.Z O.J.Z J.J.O.O.O.O.O.O.O.O.Z O.O.O.O.O.Z Z Z Z &XZ J.C Z J.J.&XO.O.O.O.O.O.O.O.&X&XO.&XZ O.&XJ.&XO.&X&XO.&XO.O.O.O.O.Z &XO.&XO.&XO.&X&XJ.&XO.&XO.Z O.Z Z &XZ O.O.Z &XO.&X&XO.J.J.&X&XZ O.O.+.-.;.r.5.iX8.3.iXy.:.5XO.",
"v.j.s.p.g.j.b.V.M C Z C +.Z Z +.J.O.O.J.O.&XO.O.=XJ.&X&X&X&XJ.&XJ.&XJ.J.&XJ.&XJ.O.*X&X&X=X&X&X*X&X&X&X&X&XJ.&X&XJ.J.&X&XJ.-XH.-XO.O.&X&X&X&X&X&X&XO.J.&X&XO.&XO.O.&XO.&X&XO.O.O.O.O.O.O.O.O.O.O.O.O.O.O.O.O.O.O.O.O.O.O.O.O.O.O.&X&X&X&XO.O.O.O.&XZ Z J.J.&X&X&X&XJ.&X&X&X&X&X=X=X&X&X&XO.&X&XO.=X&X&X&XJ.J.O.&XJ.-X;X:X3XpXsXfXfXhXpX3X#.D.k g.s.d.p.g.n.B.z H.Z H.=XZ J.O.O.&XO.O.O.O.O.O.O.O.O.O.O.O.O.O.O.O.+.Z O.O.O.O.O.O.O.O.O.O.O.O.O.O.O.O.O.O.O.O.O.O.O.O.&XO.O.O.O.O.O.O.O.O.O.O.O.O.O.O.O.O.O.O.O.O.O.O.O.O.O.O.O.O.O.O.O.O.O.O.O.O.O.O.&X&XZ +.O.O.O.O.O.O.O.O.O.O.O.O.O.O.O.O.O.O.O.O.O.Z O.Z O.&XO.O.O.O.O.O.O.O.O.O.O.O.O.O.O.O.Z O.&XO.J.O.O.*XJ.;X>X6XcXaXgXgXiXaXbX:XN t e 5 3 3 0 y c x A C &XO.O.O.O.O.O.O.&XJ.&X&X&X&X&X&X&X=X&X=X*XJ.&X*X&X&X&X-X&X&X&X&X*XJ.J.&X&X&X&XJ.O.O.O.O.O.O.&XZ O.O.O.O.O.O.O.O.&XO.O.Z O.&XO.&X&XK.-X&X&X&X-XZ *X=X&X&X&X&X&XZ O.O.O.O.O.O.&XO.Z O.Z O.Z Z O.O.O.O.O.O.O.O.&XO.&XO.O.O.O.O.O.&X&XO.O.O.&XO.O.Z O.O.O.O.O.O.O.O.+.O.O.O.O.O.O.O.O.O.O.O.Z +.O.+.-.;.t.5.0.9.8.3.y.*.-.J.",
"r 8 s.p.p.h.b.z M C J.H.Z J.C Z O.O.O.O.O.O.O.O.O.O.O.Z O.Z &XO.&XO.Z &XO.O.O.Z Z Z O.Z Z Z Z Z O.Z J.O.O.Z O.O.&XO.O.&XZ @.O.O.O.O.O.O.Z &XZ O.O.O.O.O.O.O.O.O.O.O.O.O.Z &XO.O.O.O.O.O.O.O.O.O.J.O.O.O.O.O.O.J.O.O.O.O.O.O.Z &XZ Z O.O.O.O.O.O.O.O.O.O.O.O.O.&XO.O.Z O.O.O.o.O.O.O.O.O.O.O.O.O.O.O.O.O.J.&XO.O.Z #.:X5X*.y.5.8.2.3.zX3X*XD.k h.g.3 2 h.r N.Z.H.J.H.O.&X&XJ.&XZ O.O.O.&X&XO.O.&XO.O.O.O.O.O.O.O.O.Z O.O.O.O.O.O.O.O.O.O.&XO.O.O.O.O.O.O.O.O.O.O.O.O.O.O.O.O.O.O.O.O.O.O.O.&XZ J.O.&XO.O.O.O.O.O.O.O.O.O.O.O.O.O.O.O.O.O.O.O.O.O.O.O.O.J.J.O.O.O.O.O.O.O.O.O.O.O.&XO.&XO.Z O.Z &XO.&XO.O.O.O.O.O.O.O.O.O.O.O.O.O.O.O.O.O.O.O.O.O.&XO.O.O.&XO.Z O.O.$.$.;.cXaXjXfXiXiXzX:XC l e 5 5 2 0 0 t x B H.Z Z O.O.O.Z O.O.O.O.O.O.Z J.J.Z Z O.O.Z O.Z O.O.J.Z Z Z &XZ &XO.Z J.O.Z J.Z O.O.O.O.O.O.O.O.O.O.O.O.O.O.O.O.O.O.O.O.O.O.O.O.O.O.Z &XA O.Z O.Z O.J.Z Z Z O.O.O.+.&XO.O.O.&XZ O.&X&XO.O.&X&XO.&XO.O.O.&XO.O.O.O.O.O.O.O.O.O.O.O.O.O.O.O.O.O.O.O.O.O.O.O.&XO.&XJ.J.Z O.&XO.O.O.O.O.O.&X&XO.Z +.O.+.-.-.zX5.hX8.3.3.4.=.-.Z ",
"r g.p.p.g.j.r x F.N Z Z H.&X&X&XO.O.O.O.O.O.O.O.O.O.O.&XZ O.O.&X&XZ O.O.&XZ O.O.O.O.O.O.O.O.O.O.O.Z O.O.&XO.O.O.O.O.O.O.O.O.&XZ O.O.O.O.O.O.O.O.O.O.O.&X&XO.O.O.O.O.J.O.O.O.O.O.O.O.O.O.O.O.Z O.O.O.O.O.O.O.&XZ O.&XZ O.O.&XO.O.Z O.O.O.O.O.O.O.O.O.O.Z &XO.O.O.&XO.O.O.O.O.O.O.Z O.O.O.O.O.O.Z O.O.O.O.O.O.O.Z &X+.$.-.=.4.iX8.0.5.y.3X*XD.B.x.s.p.s.9 w l A.F.J.H.O.J.O.O.O.O.O.O.O.&X&XZ O.O.O.O.O.O.O.O.O.O.O.&XZ O.O.&XO.O.O.O.O.O.Z &XO.O.O.O.O.O.O.O.O.O.O.O.O.Z O.O.O.&XO.O.O.O.O.O.O.O.O.Z &XO.O.O.&XZ O.O.&XO.O.O.Z &XO.O.O.O.O.O.O.O.&XO.Z O.&XO.O.O.O.Z &XO.O.O.Z O.O.O.O.O.&XO.O.O.O.O.O.O.Z &XZ O.O.O.O.O.O.O.O.O.Z &XO.O.O.O.O.O.O.O.O.&X&XJ.O.+.Z $.#.>.r.aXfXfXgXaXxX-.C l w 5 7 3 0 0 k z M Z C O.O.O.Z Z &X&XO.O.O.O.O.O.O.&XZ O.&XO.O.O.O.O.O.O.O.O.O.Z &XO.O.&XO.O.O.&XO.O.&XZ O.&XO.O.O.O.O.,X-XC O.O.O.O.O.O.Z O.O.&XO.O.O.&XZ O.O.&XO.O.Z &XO.O.O.O.O.O.O.O.O.J.O.O.Z O.&XZ O.O.Z &XO.O.Z &XO.O.&XZ O.O.O.O.O.O.O.O.O.O.O.O.O.&XO.O.O.O.O.O.O.O.O.&XZ O.O.&XO.O.O.O.O.Z O.J.O.O.J.*XO.*X4X5Xe.iXhXfX8.3.e.:.-.O.",
"b.h.s.p.s.9 v.A.D.F.J.J.Z O.&XJ.O.O.O.O.O.O.Z &XO.O.O.O.O.O.O.Z O.O.O.O.O.O.&XZ O.O.O.O.O.O.O.O.O.&XO.O.Z O.O.&XO.O.Z &XO.O.O.O.O.O.&XO.&XO.O.O.&XZ O.O.Z O.O.O.O.O.O.O.Z O.O.O.O.O.O.O.O.O.&XO.O.O.O.O.O.O.O.O.O.O.O.O.O.O.O.O.&XO.O.O.&XZ O.O.O.O.O.O.O.O.&XO.Z O.O.O.O.O.O.O.&XO.O.O.Z &XO.&XO.O.O.O.Z &X&XZ Z #.$.-.xXvX3.8.fX0.zX3X+.M b.4 s.2 p.g.v.l x H.Z C +.Z O.O.&X&XO.O.O.Z O.O.O.O.O.O.O.O.O.O.O.O.O.O.O.O.O.O.O.O.Z &XO.O.O.O.O.O.O.O.O.Z &XZ O.&XO.O.O.&XO.O.O.Z O.O.O.O.O.O.O.O.O.&XZ O.O.O.O.O.O.O.O.O.Z O.O.O.O.O.O.O.O.O.O.O.O.O.O.O.O.O.O.O.O.O.O.O.O.O.&XO.O.O.O.O.Z O.Z &XO.O.O.O.O.O.&XO.O.&XZ O.O.&XO.O.O.O.&XZ O.O.J.O.O.O.&XZ Z J.O.O.J.$.$.5XxXpXiXfX2.jXcX4XC l e 4 5 3 8 r k A.N J.Z O.O.O.Z Z Z Z O.O.O.O.O.O.O.Z O.O.O.O.O.O.O.O.Z &XO.O.O.O.O.O.O.Z &XO.O.Z O.O.O.O.O.O.O.O.O.O.O.S O.O.O.O.O.O.O.O.&XO.O.O.O.O.O.O.O.O.O.Z &XZ O.O.O.O.O.O.J.O.O.O.O.&XO.O.&XO.O.O.O.&XO.O.O.O.O.O.O.Z O.O.O.O.O.O.O.O.O.O.O.J.O.O.O.Z O.O.O.O.O.O.O.O.O.O.O.O.O.Z O.&XO.O.O.&XJ.O.O.O.Z &XO.*X4X5Xe.4.0.8.8.0.y.3X-.O.",
"n.k.s.p.p.j.b.A.N N Z J.C O.&XZ O.O.O.O.O.O.Z O.O.O.O.O.O.O.O.O.O.O.O.O.O.O.O.O.O.O.Z &XZ &XO.O.O.O.O.Z O.O.Z O.O.O.Z O.O.O.&XO.Z &XZ O.Z O.O.O.O.O.O.O.O.O.&XO.O.O.O.O.&XO.O.O.O.Z &XO.O.O.&XO.O.O.O.O.O.O.O.O.&XZ O.O.Z &XO.O.O.O.O.O.O.O.O.O.Z O.O.O.Z &XZ O.O.O.O.O.O.O.O.O.&XO.&XZ O.O.O.O.&XO.O.O.O.O.O.O.O.*X;X-.:.pXiX8.fX0.e.xX*XZ.t h.s.2 2 g.w l A.C J.H.O.J.O.O.&XO.O.O.O.O.O.O.&XO.O.O.O.O.O.O.O.&XZ O.O.O.O.&XO.O.O.&XO.O.O.O.O.O.O.O.O.&X&XZ O.O.&XO.O.O.&XO.O.O.O.O.Z &XZ &XO.O.O.O.O.O.O.O.O.O.&XZ O.Z &XO.O.O.O.O.O.O.O.O.O.O.O.O.O.O.O.O.Z O.O.O.O.O.O.O.O.&XO.Z &XO.Z O.O.O.O.O.O.O.O.&XZ O.O.O.&XO.O.O.&XO.O.O.O.O.O.O.O.O.&XO.&XZ &XO.O.+.Z #.:X5XxXaXiXfXfXaXzX4XC z e 5 3 3 0 r t x B J.C Z O.&XJ.J.&XZ O.O.O.O.O.O.O.O.O.&XZ &XO.&XO.O.O.Z O.O.O.O.O.O.O.&XZ O.&XZ O.O.O.O.O.O.O.Z &XO.O.O.O.O.J.O.O.O.O.O.&XO.O.O.Z &XO.O.O.O.O.O.O.O.O.O.O.O.O.O.O.O.O.&XJ.&XO.O.O.O.O.O.O.O.O.O.Z &XO.O.O.&XO.O.O.O.O.O.O.&XO.O.O.O.O.O.O.O.O.O.O.O.O.O.O.O.O.O.Z O.O.&XO.O.O.O.O.O.O.&XO.O.J.&XO.*X-.5Xe.6.3.9.8.5.e.>.-.Z ",
"v.g.p.p.g.h.b.A.D.N &X&XH.O.&XO.Z O.O.O.O.O.&XO.O.O.Z &XO.O.&XO.Z &XO.O.&XO.O.O.O.O.O.O.O.O.O.O.O.O.O.&XO.O.&XO.O.O.&XO.O.O.Z O.O.O.&XO.O.O.O.O.O.O.O.Z &XO.Z O.O.O.O.O.O.O.O.&XO.&XZ O.O.O.O.O.O.O.O.O.&XO.Z &XO.O.O.O.O.O.O.O.O.&XZ O.O.O.&XO.&XO.O.O.O.O.O.O.O.&XO.O.Z &XO.O.Z O.O.O.O.O.O.O.Z O.&XO.O.O.&XZ &X;X#.-.3Xy.iXfXfX3.zXxX+.D.B.h.s.2 s.j.v.z z H.O.H.+.&XO.O.O.J.O.O.O.O.O.O.O.O.O.O.O.O.O.O.O.O.&XO.O.O.O.Z O.O.O.Z O.O.O.O.O.&X&XZ O.O.O.O.O.O.Z O.O.O.Z O.O.&XO.O.O.O.O.O.O.&XO.O.O.O.O.O.Z &XO.O.O.&XO.O.O.O.O.O.O.O.O.O.O.O.Z &XO.Z O.O.&XO.J.O.O.O.O.O.O.Z O.O.O.O.O.&XO.O.&XZ O.O.O.O.O.O.O.O.O.O.Z O.O.O.O.O.O.O.O.O.O.O.J.O.O.&XJ.O.O.&XC ;X;X5Xr.pXgXfXjXiXt.;.Z z y 5 5 3 6 e y z x Z H.Z Z O.J.J.&XO.O.O.O.O.O.Z &XO.O.O.O.O.O.Z O.O.O.&XO.O.O.O.O.&XO.O.O.O.O.O.O.O.Z &XO.O.O.O.O.O.O.O.O.O.O.O.O.O.O.O.Z O.O.O.O.O.O.O.O.O.O.&XO.O.Z &XO.O.O.O.O.O.O.Z ,XS &XO.O.O.O.O.O.Z &XO.O.O.&XO.O.O.O.O.O.O.O.O.O.Z O.O.O.O.O.&XZ O.O.O.O.J.O.Z &XO.O.O.&XO.O.O.O.Z O.O.O.O.O.O.O.O.J.+.O.*X-.>.e.4.3.9.0.3.y.:.-.O.",
"b.g.s.p.g.9 b.Z.M F.O.&XJ.&X&X&X&XO.O.&XZ O.O.O.O.O.O.O.Z O.O.O.Z &XO.O.O.O.O.&XO.O.O.O.&XZ O.O.&XO.O.O.O.O.Z &XO.O.O.O.O.Z O.O.O.O.O.O.J.O.O.O.O.O.Z &XO.O.O.O.O.O.O.O.O.O.O.Z O.O.O.O.O.O.&XO.O.O.O.O.O.O.O.O.O.O.O.O.O.O.Z O.O.O.O.O.O.O.Z O.O.O.O.O.O.&XO.O.O.O.O.Z O.O.O.O.O.O.O.O.O.O.Z &XO.O.O.&X&XO.J.&XO.;X#.-.3XvXiXfXfXhXzX3X+.D.t s.s.2 p.h.v.z A.H.J.C -XZ O.O.&XO.Z O.O.O.O.O.&XO.O.Z O.O.O.O.O.O.O.O.O.O.O.&XO.O.O.O.O.O.O.&XO.Z O.O.O.&XO.O.O.O.Z &XO.O.&XO.O.Z O.O.&XZ O.O.O.O.O.O.O.O.&XO.Z &X&XZ O.O.O.O.&XZ O.O.O.O.O.O.O.O.O.O.O.&XZ O.O.O.O.O.O.O.&XZ O.O.O.O.&XZ O.O.O.O.&XO.O.O.O.O.O.O.O.O.Z &XO.O.Z O.&XZ O.O.O.O.O.O.O.O.O.Z Z O.O.*XZ ;X;X5Xr.4.iXfX2.0.zX5XO.z y 8 0 3 4 0 t z M C J.J.Z &XJ.J.J.O.O.O.O.O.O.O.O.O.O.&XZ O.O.&XO.O.O.&XO.O.O.O.O.Z O.O.O.O.O.O.O.O.O.O.O.Z &XZ O.O.O.O.O.Z &XO.O.O.O.Z O.O.O.Z &XO.J.O.O.O.O.O.O.O.O.O.&XO.O.O.Z O.O.O.O.Z Z &XO.O.O.O.O.Z O.O.O.O.Z O.&XO.O.O.O.O.O.&XO.O.O.O.O.O.O.&XO.O.&XO.O.O.O.&XO.O.O.O.O.O.O.O.O.O.Z O.O.O.O.O.Z O.Z #.O.+.-.>.t.4.3.8.3.3.y.:.-.O.",
"y g.7 2 7 8 t z F.N Z J.H.O.O.Z O.O.O.O.O.O.O.O.O.&XZ O.&XO.O.O.O.O.O.O.O.O.O.O.Z O.O.O.O.O.O.O.Z O.O.O.O.O.O.O.&XO.O.O.O.&XO.O.O.O.O.O.O.O.O.O.O.O.O.O.O.O.O.O.O.O.O.O.O.O.O.O.O.O.Z &XO.O.Z O.O.O.O.O.O.O.&XZ O.O.Z &XO.O.&XO.O.O.O.O.O.O.&XO.O.O.O.O.O.O.O.Z Z &XO.&XO.&XZ O.O.O.O.O.Z O.O.O.O.O.O.O.Z O.O.Z O.+.;X4X3XvXiXfX8.iXvX*.*XM l j.7 2 2 h.w l x F.O.H.O.Z O.O.O.&X&XO.&XO.O.Z O.Z O.&XO.O.O.O.O.O.O.O.O.O.O.Z O.O.O.O.O.Z O.O.O.O.&XO.O.Z O.O.O.O.O.O.O.O.O.O.O.&XZ O.O.O.O.O.O.O.Z O.O.O.O.O.O.O.O.O.O.O.O.O.O.O.O.O.O.O.O.O.O.O.O.O.O.O.&XO.O.O.O.O.O.O.O.O.O.O.O.O.O.O.&XO.O.O.Z O.O.O.O.Z &XO.&XZ O.O.O.O.&XO.O.O.O.&XO.O.O.O.O.O.O.Z &XO.O.*XZ ;X$.;.r.5.2.8.2.aXr.>.Z z y 4 3 3 0 9 b.z D.J.H.J.O.&XZ J.J.O.O.O.O.O.&XO.Z O.O.O.O.O.O.Z O.O.O.Z &XO.O.O.O.O.O.Z &XO.O.O.O.O.O.O.O.&XO.O.O.O.O.&XO.O.O.O.O.&XO.&XO.O.O.O.O.O.O.O.O.O.O.O.O.&XO.O.O.O.O.O.&XO.O.&XO.O.O.O.O.O.O.O.O.&XO.&XO.O.O.O.O.O.O.O.Z &XO.Z O.O.O.O.O.O.O.Z O.O.Z O.O.O.O.Z &XZ O.O.O.O.O.Z &XO.&XO.O.O.O.J.O.O.H.+.O.+.4X5Xe.5.fX9.8.3.e.>.;.O.",
"v.g.g.2 g.9 t z D.F.J.J.J.Z &XJ.O.O.O.Z O.O.O.&XO.O.O.O.O.O.O.O.O.O.O.O.O.O.O.Z &XO.O.Z O.O.O.&XO.O.O.O.O.O.O.O.Z O.O.O.O.O.O.O.O.O.Z &XO.O.O.O.O.O.O.O.Z &XO.O.&XO.&XZ O.&X&XO.O.Z O.O.&XZ O.O.O.Z &XO.O.O.O.O.O.O.Z O.O.O.O.O.O.O.O.O.O.&XZ O.O.Z Z &XO.O.&XO.O.O.Z O.O.O.O.O.&XZ O.O.&XO.O.O.O.Z Z O.O.O.O.Z O.+.;X4X6XpX3.hXfXiXvX*.;XM k h.g.2 p.h.w z z C J.C O.O.O.O.O.&XO.Z Z O.O.&XZ &XO.&X&XZ O.O.Z &XO.O.O.O.O.O.O.O.O.O.O.&XZ O.O.O.Z O.O.O.O.O.Z &XO.O.O.O.O.O.O.O.&XO.O.O.&XO.O.Z &XO.O.O.O.O.O.O.O.O.O.&XO.O.O.O.O.&XO.O.O.O.O.O.&XO.O.O.O.O.O.O.O.O.O.O.O.Z O.&XO.O.O.O.O.O.O.O.O.O.&XO.O.&XZ O.O.O.O.O.O.&XZ O.O.O.O.O.&XO.O.&XO.O.O.O.Z &XO.&XJ.;X:X>.r.5.iX9.hX0.t.5XJ.z y s.a.3 h.8 y z M C C J.Z &XO.J.&XO.O.O.Z &XO.O.&XO.O.O.O.O.O.O.O.O.O.&XZ O.Z O.O.O.O.&XZ O.O.O.O.Z O.O.O.O.O.O.O.O.Z &XO.O.O.O.O.Z O.O.O.O.O.O.O.O.O.O.O.O.O.O.O.Z O.O.O.Z O.O.&XZ O.O.&XO.O.O.O.O.O.O.O.O.O.Z O.O.O.O.O.O.O.O.Z O.O.O.O.&X&XO.&XZ O.O.O.O.O.O.O.O.O.&XO.O.O.Z &XO.&XO.Z O.O.O.O.O.&X&XO.&XJ.+.O.+.-.>.e.5.0.8.8.5.e.=.-.O.",
"v.h.2 2 s.j.n.Z.F.F.J.Z J.J.Z J.O.O.O.&X&XZ O.O.O.O.O.O.O.&XZ O.O.O.O.O.&XZ O.&XO.O.O.&XO.&XO.Z O.O.O.&XZ O.O.O.O.&XO.O.Z &XO.&XO.O.O.O.O.O.O.&XZ O.O.O.O.O.O.O.Z O.O.O.O.Z O.O.O.&XO.O.O.O.O.&XO.&XZ O.O.O.O.O.O.O.&XO.O.O.&XO.O.J.O.O.O.O.O.O.O.&XO.O.O.O.O.O.O.O.&XO.O.O.O.O.O.O.&XO.O.O.O.O.O.&XO.O.&XO.O.O.Z +.:X4X*.y.3.8.fX8.y.r.#.M t 7 7 3 2 h.r l x N Z Z O.O.O.O.&XJ.O.&XO.O.O.O.O.O.O.O.O.O.O.O.O.O.O.J.O.O.O.O.O.O.&XZ O.O.O.&XO.O.O.O.O.O.O.O.O.O.O.O.O.O.&XZ O.O.O.O.O.O.Z O.O.&XO.O.O.&XZ O.O.O.O.O.O.Z O.O.O.O.O.Z O.O.O.O.J.O.Z O.O.O.O.O.O.&XO.O.O.O.O.&XO.O.O.O.O.O.O.O.&XZ O.O.O.O.O.Z &XO.O.O.O.O.O.O.O.O.O.O.O.O.Z O.O.Z O.O.O.&XZ J.O.*XC ;X:X5Xt.5.3.hX3.5.t.>.Z z y 4 p.2 7 9 y x x C J.Z O.O.J.Z J.O.&XZ O.O.O.O.O.O.O.&XZ O.O.O.O.O.O.O.O.O.&XO.O.O.O.O.&XO.O.O.O.&X&XZ O.O.O.O.O.O.O.O.O.O.O.O.O.O.Z &XO.&XZ O.O.O.O.O.O.&XZ O.O.O.O.O.O.&XO.O.O.O.O.O.O.O.O.O.O.&XO.O.O.O.O.O.O.O.O.&XZ O.O.&XO.O.O.O.O.O.Z O.O.O.&XO.O.Z &XO.&XZ O.O.O.O.O.O.O.O.O.O.&XO.O.Z &XO.O.Z O.O.J.O.+.+.5X5Xe.5.3.9.9.5.e.:.-.O.",
"y h.g.p.s.x.n.A.Z.H.&XJ.J.J.Z Z &XZ O.O.O.O.O.O.&XZ Z O.O.O.O.O.O.O.Z O.O.O.O.O.O.&XO.O.O.O.O.O.&XO.O.O.Z &XO.O.O.O.O.O.O.O.O.Z O.O.O.O.O.O.O.O.&XZ O.&XZ O.O.O.O.O.O.O.O.Z &XO.O.O.O.O.O.O.O.Z O.O.&XZ &XZ O.&XO.O.O.&XO.&XZ O.O.O.O.&X&XO.O.O.O.O.O.O.O.O.O.O.O.O.O.O.Z O.O.O.O.O.O.O.O.O.O.&XO.O.O.J.O.O.&XO.O.+.;X-.xXe.3.fXfXhX4.>.:Xx l g.2 2 2 j.9 z z C &XC O.&XO.&XO.O.O.Z &XO.O.O.O.O.Z &XO.O.Z O.O.&XO.O.Z &XO.O.O.O.O.O.O.O.O.O.O.O.O.&XO.O.O.O.O.O.O.O.Z O.O.O.&XZ O.&XO.O.O.Z O.O.O.O.&XZ &XZ O.O.&XO.O.O.O.&XO.O.O.Z O.O.Z O.O.O.O.O.O.O.&XO.O.O.O.O.&XO.O.O.O.O.&XZ O.O.O.O.O.O.O.Z &XO.O.O.O.O.O.O.O.O.O.O.O.O.O.O.Z &XO.O.O.&XO.J.O.O.O.O.J.*XZ #.:X=.xX4.hXfX8.5.e.>.J.z r h.4 2 7 h.b.A.D.C H.J.Z O.&XJ.&X&XO.O.O.&XO.&XZ O.O.Z O.O.O.O.Z O.Z &XO.O.O.O.O.O.Z O.O.O.O.O.O.O.O.O.O.Z O.O.O.&XO.O.O.O.O.O.O.O.O.&XO.O.Z O.O.&XZ O.O.&XO.&XO.O.O.O.O.O.Z O.O.O.O.O.O.&XZ O.O.Z Z &XO.&XZ O.O.&XO.Z &XO.O.O.O.&XO.Z &XO.O.O.Z O.O.O.O.O.O.O.O.O.O.O.O.O.O.O.O.O.O.O.Z &XO.O.O.O.Z &XJ.&XZ *XO.+.4X=.t.4.8.8.3.6.e.*.4XZ ",
"v.h.p.p.s.w b.x D.N &XZ Z &XJ.J.O.O.O.O.O.O.O.O.O.O.O.O.&XO.O.O.O.O.&XO.O.O.O.O.O.Z O.O.O.O.O.&XZ O.Z &XO.O.O.O.O.O.&XZ O.O.O.O.Z O.O.Z &XZ &XO.O.O.O.O.O.O.O.O.&XO.O.O.O.O.O.O.&XZ O.O.Z O.O.O.O.O.O.O.O.O.O.O.O.Z O.O.O.O.O.O.O.O.O.Z O.Z O.&XO.O.O.O.O.O.O.O.Z &XO.&X&XO.O.&XZ O.O.O.O.O.O.Z O.O.&XZ O.&XO.&XZ +.;X5Xr.zXiX8.fX3.4.:.:XD.B.h.g.2 2 g.j.V.Z.F.-XN &XJ.O.Z O.O.O.O.O.O.O.O.O.O.O.O.O.O.&XO.O.O.O.O.O.O.O.O.Z &XO.Z &XO.Z O.O.O.O.Z O.&XO.O.&XZ O.O.&XO.O.O.O.O.O.O.Z &XO.&XO.O.O.O.O.O.O.O.O.O.Z O.O.&XZ O.O.O.O.&XO.O.O.&XO.&XO.O.&XZ O.O.O.Z O.O.Z O.O.O.O.O.O.O.Z &X&XO.O.O.O.O.O.O.O.O.O.O.O.Z &XO.O.O.O.O.O.O.O.O.O.O.O.Z O.J.O.&XO.O.H.*XZ +.;X=.xXpX8.fXhXaXzX5X&Xz w 7 2 a.7 8 b.z D.C Z J.O.O.J.Z &XZ O.O.O.Z O.O.O.O.&XO.O.&XO.O.&XO.O.O.O.Z Z O.O.O.O.&XO.&XO.O.Z O.O.O.O.&XO.O.Z O.O.O.O.O.O.&XZ O.O.O.O.Z &XO.O.O.O.O.O.O.O.Z O.O.O.O.O.O.&XO.O.O.&XZ O.O.O.O.O.O.O.O.O.O.O.O.Z O.O.O.O.O.&XO.O.O.O.O.O.O.O.O.&XO.O.O.O.O.O.O.O.O.Z O.O.O.O.Z &XO.Z O.O.O.O.O.O.O.&X&XJ.O.Z +.+.+.5X:.e.5.hX8.8.5.e.>.4XZ ",
"n.k.p.2 s.x.b.x D.C &XZ C &XZ &XO.O.O.O.O.Z Z &XO.O.O.&XO.O.O.Z O.O.O.&X&XO.O.Z O.O.O.O.Z &XO.O.O.O.O.O.O.O.O.O.O.O.O.O.O.O.O.O.&XO.O.&XO.O.O.O.O.O.O.O.O.O.O.&XO.O.Z O.O.O.O.O.O.O.O.&X&XO.O.O.O.O.O.O.O.O.O.O.Z O.O.O.&XZ O.O.O.O.O.O.O.O.O.O.O.O.J.O.O.O.O.&XO.O.&XO.O.O.O.Z &XO.O.O.O.O.O.O.O.O.O.J.O.O.+.O.Z *X;X-.xXy.aXfXfXjX4.3X;XD.t 8 7 2 2 7 r B.x N Z H.-XO.O.J.O.O.O.O.&XO.O.&XO.O.O.O.O.O.O.O.O.O.O.O.O.O.O.O.Z O.O.&XZ O.&XO.O.O.O.&XO.Z O.O.O.O.O.O.O.&XO.Z &XO.O.O.O.O.O.O.O.O.O.O.O.O.O.O.O.O.O.O.O.O.&XO.O.Z &XO.&XO.O.O.O.O.O.O.O.O.O.O.O.O.&XZ O.O.O.Z &XO.O.Z O.O.O.O.Z &XO.O.&XO.O.&XO.O.&XO.Z O.O.O.O.O.O.O.O.O.O.O.Z O.Z &XO.O.O.O.H.#.H.;X;X5XxXpXiXfXhXiXcX6X&XA.w g.4 a.7 8 y A.M H.J.H.O.+.J.J.J.J.O.O.O.O.Z O.O.O.Z O.O.O.O.&XZ &XO.O.O.&X&XO.O.O.O.O.O.Z O.O.&XO.Z &XO.O.&XO.O.O.O.J.Z &XO.O.O.O.O.O.O.&XO.O.O.O.O.O.O.O.O.O.O.O.O.O.O.O.&XO.O.&XO.O.O.O.O.O.O.&XO.O.O.O.O.O.O.O.O.O.O.O.Z O.O.O.Z O.O.O.O.O.&XZ O.O.J.O.&XO.O.O.&XO.&XO.O.&XZ O.&XO.O.O.O.O.O.O.O.&XZ Z Z +.O.+.-.6Xt.aX8.8.0.5.e.=.5XZ ",
"n.h.g.p.g.w n.x D.N &XJ.Z &XJ.O.O.O.O.O.O.&XO.O.&XZ O.O.O.O.O.&XO.O.O.Z Z O.O.&XO.O.O.O.O.O.Z O.O.O.&XO.O.O.&XO.O.O.O.O.&XZ O.O.O.O.O.O.O.&XO.Z O.O.O.O.&XO.O.Z O.O.&XO.Z O.O.O.O.O.O.O.O.O.O.O.&XO.Z &XZ &XO.O.&XO.O.O.O.O.O.O.Z O.O.O.O.O.O.Z O.O.O.O.&XO.O.Z O.O.Z O.O.O.O.O.O.O.O.&XZ O.O.O.O.O.J.O.J.Z J.&XJ.*X#.5X*.zXaXfX8.hXzX*.#.D.t j.g.7 2 7 x.k A.F.o.F.o.J.O.J.O.O.O.O.O.Z O.Z O.O.O.&XZ O.Z &XO.O.Z O.O.O.&XO.O.O.O.O.&XO.O.O.&XZ O.O.O.O.O.O.O.O.O.O.O.Z O.O.O.O.O.O.O.O.Z &X&XZ O.O.Z &X&XZ O.O.O.&XZ O.O.O.O.&XO.Z O.O.O.Z &XO.O.O.O.O.Z &XO.O.O.O.O.O.O.&XZ O.O.&XO.O.O.O.O.O.O.O.O.O.O.Z O.O.O.O.&XO.O.O.O.J.O.O.O.O.O.O.&XO.O.O.O.J.O.J.J.*XC #.;X6XcXaXfXfXjXiXzX5XZ A.v.h.2 2 7 j.n.x Z.H.Z J.O.O.J.J.Z J.O.Z &XO.&XO.O.O.&XO.O.O.O.O.O.O.O.&XO.O.O.O.O.&XO.O.O.O.O.O.O.O.O.O.O.O.Z O.&XO.O.O.O.O.O.O.O.O.O.O.O.O.O.O.O.O.O.O.&XZ &XO.O.Z Z &XO.O.Z O.O.Z O.O.O.O.&XZ O.O.O.O.&XZ O.O.O.&XO.O.O.&XO.O.&XZ &XO.O.O.O.O.O.O.O.O.O.O.Z O.O.O.O.O.O.O.Z O.&XO.O.O.O.O.O.O.&XZ O.&XJ.&XH.*X*X+.-.>.e.3.2.8.0.3.zX>.-.Z ",
"r g.s.a.h.j.b.A.D.C O.Z Z &XJ.J.O.O.O.O.O.O.&XO.O.O.O.O.O.O.O.Z O.O.O.O.&XO.O.Z O.J.O.O.O.O.O.O.O.O.&XO.O.O.O.O.O.Z &XZ O.O.O.O.O.O.O.O.O.O.O.O.O.O.O.O.O.O.O.O.O.&XZ O.&XO.O.O.O.O.&XO.O.O.&XZ O.O.O.Z &XO.O.O.O.O.O.O.O.O.O.O.&XO.O.O.Z O.O.&XO.O.Z O.Z O.&XO.&XO.O.O.O.O.O.O.O.Z O.O.O.O.O.O.O.O.J.&XJ.O.O.*XZ *X;X5Xr.vXaXfXfX3.vXxX#.D.B.8 7 2 a.7 j.k z F.O.H.+.O.O.&XZ O.O.O.&XO.O.&XO.O.O.O.O.O.O.O.O.O.&XO.O.O.O.O.O.&XO.&XO.O.O.O.O.O.O.Z O.O.O.&XO.O.O.O.O.O.O.Z O.O.O.&XO.O.O.O.O.O.&XO.&XO.O.O.O.O.O.O.O.O.O.O.O.O.O.O.O.O.O.O.Z O.O.Z O.O.O.O.&XZ O.O.Z O.O.O.O.O.O.O.&XO.O.Z &XO.O.O.&XZ O.&XO.O.O.O.O.O.O.O.O.O.Z &X&XZ O.O.O.O.O.J.O.&XO.O.J.*XZ +.:X>.3X6.iXfXiXiXzX5XJ.z v.g.2 2 g.j.n.A.M H.Z J.Z O.J.J.&XZ O.&XO.O.Z &XO.O.O.O.O.O.O.O.O.O.O.O.&XO.O.O.O.Z Z &XO.O.O.O.O.O.O.Z &XO.O.&XO.Z O.O.O.O.O.Z O.O.O.Z &XO.O.O.O.O.O.O.O.O.O.Z O.&XO.O.O.O.O.O.&XO.O.O.Z O.&XO.Z &XZ &XO.O.O.Z &XO.O.O.O.Z Z &XO.O.O.O.&XZ O.O.O.O.O.O.O.&XZ O.O.O.O.O.O.O.O.O.O.O.O.O.O.O.O.O.O.O.&XJ.Z &XJ.+.&X;X-.=.zXaX2.8.8.4.t.6X-.J.",
"y g.s.p.h.x.b.x D.N &XZ J.&XJ.J.&XZ &XO.O.Z O.O.O.O.O.O.O.O.O.&XO.O.O.O.Z O.O.&XO.O.O.O.Z &XO.&X&XZ Z O.O.O.O.C O.&XO.O.O.O.O.O.&XO.O.O.O.O.&XZ O.J.O.O.O.O.O.O.O.O.O.O.O.O.O.O.O.O.Z O.O.O.O.O.O.O.O.O.O.O.O.&XO.O.O.O.O.O.O.O.O.O.O.O.&XO.O.O.O.O.&XO.O.O.O.O.Z O.O.O.O.O.O.O.O.&XO.O.Z &X&XO.O.O.Z &XZ O.&XO.J.*X;X-.*.e.3.fXfX3.pXxX#.M b.8 2 2 3 7 j.N.A.H.O.C O.O.O.&XO.O.O.Z O.O.O.Z O.O.O.O.O.O.O.J.O.O.O.O.O.O.O.O.O.O.O.Z O.O.O.O.O.O.O.O.&XO.O.Z O.O.&XO.O.O.O.&XO.O.O.Z O.O.O.O.O.O.O.Z Z O.O.O.O.O.O.O.O.O.&XZ O.O.O.O.O.O.Z O.&XO.O.&XJ.O.O.O.O.O.O.&X&XO.O.O.O.O.O.O.Z O.O.O.O.O.O.Z O.O.O.Z O.O.Z &XO.O.O.O.O.O.O.O.O.O.O.O.O.O.&XZ O.J.O.O.H.*XJ.#.:X5XcX4.iXgXfXiXzX5XJ.x v.7 p.p.7 8 y z M H.H.J.Z &XJ.Z &X&XO.O.O.O.O.O.&XZ O.O.O.O.O.O.O.Z O.Z O.O.O.O.O.O.O.O.O.Z O.J.O.O.O.O.O.O.O.O.O.&XO.O.O.O.O.&X&XO.O.&XZ O.O.O.O.O.O.O.O.O.O.&XO.O.O.O.O.&XO.O.Z O.O.O.&XO.O.O.O.O.O.O.O.O.O.O.O.O.O.O.O.O.O.O.O.Z O.O.O.O.&XO.O.O.O.O.O.O.O.O.O.O.O.O.&XZ &XZ O.O.O.O.O.O.&XZ &XO.O.&XZ &XJ.*XO.+.-.*.e.5.8.8.3.5.zX>.-.Z ",
"n.g.s.2 g.j.b.A.F.F.&XJ.C &XZ J.O.&XZ O.O.&XZ &XO.O.O.O.O.O.O.O.&XO.O.O.O.O.O.O.O.O.O.O.O.O.O.O.O.O.O.O.O.O.O.-XO.O.&XO.&XO.Z O.S ,X&XO.O.O.O.O.O.O.O.O.O.Z Z &XO.O.O.&X&XO.&XZ &XZ O.Z O.O.O.O.Z O.O.O.O.O.O.Z O.O.O.O.J.O.O.O.O.O.O.&XO.O.&XZ O.O.O.O.O.O.O.O.O.O.O.O.O.Z Z &X&XO.&XZ O.O.&XO.O.O.J.J.&XO.&XO.Z *X;X-.*.y.aXfX2.0.e.r.#.M N.j.g.7 2 9 r z x C O.C O.O.O.&XO.O.O.&XZ &XO.O.O.O.O.&XO.O.O.O.O.O.O.O.O.&X&XO.O.O.Z O.O.O.O.O.O.O.&XO.Z O.O.O.O.O.O.O.O.O.O.O.O.O.Z O.O.O.O.O.O.O.O.O.O.O.O.O.O.O.O.Z &XO.O.O.O.Z O.O.Z O.&XO.O.O.O.O.O.O.O.O.O.O.O.O.O.O.Z &X&XO.&XZ O.O.O.O.O.O.O.&XZ &XO.O.O.O.&XZ O.O.O.O.O.O.O.O.O.O.&XZ O.O.O.J.&XO.O.O.J.+.C #.$.;.xXpXiX8.fXaXe.5X&Xx r g.4 2 7 8 y A.Z.H.J.Z O.O.J.J.&XO.O.O.O.O.O.O.O.O.O.O.O.&XO.O.O.&X&XZ O.O.O.O.O.O.O.O.O.&XO.O.O.O.O.O.O.O.O.O.O.O.&XO.O.O.O.O.&XO.O.O.O.O.O.O.J.O.O.O.O.O.O.O.O.Z O.O.O.Z O.O.O.O.O.O.&XZ O.O.O.O.O.O.O.O.Z O.O.O.O.O.O.O.O.O.O.&XO.O.&XO.O.O.O.O.O.O.O.Z O.O.O.&XO.O.O.O.O.O.O.O.O.Z &XO.O.&XZ O.O.J.&XZ Z *XO.#.;.6Xe.5.8.fX3.5.t.6X-.J.",
"r g.g.2 7 8 b.Z.D.H.&XZ J.&XZ Z O.O.O.O.O.O.O.O.O.O.O.J.O.O.O.O.Z O.O.O.&XO.O.O.O.O.O.O.O.Z &XO.O.O.O.O.O.O.S ,XO.O.Z O.O.O.&XO.&XJ.Z O.O.O.O.O.O.O.O.O.O.&XO.O.O.O.O.O.Z O.O.O.O.O.O.&XO.O.O.O.&XO.O.O.O.O.O.O.O.O.Z &XO.O.O.O.&XO.O.Z O.O.O.O.O.O.O.O.O.O.&XZ O.O.O.O.O.&XO.O.O.O.O.O.O.O.Z O.O.O.&XZ J.O.O.&XJ.*X#.4Xr.e.aX8.fX0.y.xX#.M t 8 7 2 2 8 0 k z B O.B O.O.O.&XO.O.O.O.O.O.O.O.O.O.O.Z O.O.O.O.O.O.O.O.O.Z Z O.&XZ &XO.O.O.&XZ O.O.O.O.&XO.O.Z &XO.Z &XO.O.Z &XO.O.&XO.O.O.&XZ O.O.&XO.O.O.O.O.Z &XO.O.O.O.O.O.O.&XO.O.&XO.O.O.O.O.O.O.O.O.O.O.O.O.Z O.O.O.O.O.O.O.O.O.O.&XZ O.O.O.O.O.O.O.O.O.O.O.O.O.O.O.&XZ O.O.O.O.&XZ O.O.O.&XO.Z O.&XO.O.H.#.J.;X;X5X3XaXjXgXjXhXzX5XZ A.w g.2 3 7 8 v.z M H.J.Z O.O.J.H.O.J.Z &XO.O.O.O.O.O.O.O.O.Z Z &XO.O.O.O.O.O.&XZ O.O.O.&XO.O.O.O.O.O.O.O.O.&XZ O.O.O.Z O.O.O.O.O.Z O.O.O.O.O.O.O.O.O.Z &XO.O.O.O.O.&X&XZ O.O.O.O.O.&XO.O.O.O.O.O.O.Z &XO.O.O.&XO.O.O.&XZ O.O.O.&XO.O.O.O.Z O.O.Z &XO.O.O.O.&X&XO.O.Z O.O.O.O.O.O.O.O.O.&XZ O.O.O.O.O.&XJ.Z Z J.*X&X*X5X>.zX3.8.8.0.4.e.6X-.J.",
"b.s.2 2 h.9 b.z D.H.O.J.J.&XZ O.Z O.O.O.&XO.O.O.O.O.O.O.Z O.O.O.O.O.&XO.O.O.O.O.O.O.O.Z Z &XO.O.O.O.Z O.Z O.O.O.O.O.O.O.O.O.&XO.&XO.O.O.O.O.O.O.O.O.O.O.&XO.Z O.&XO.O.O.&XZ O.O.O.O.O.O.Z &XO.O.O.Z O.O.O.O.O.O.O.O.O.O.O.O.O.O.Z O.O.&X&XO.O.O.Z &XO.O.O.O.O.O.O.O.Z O.O.O.O.O.O.Z &XO.O.O.&XO.O.O.O.J.O.O.*XO.J.*X#.-.:.e.pX8.fX3.y.xX;XM b.h.g.2 p.h.x.l A.N O.S L.J.Z J.Z O.O.O.O.O.O.O.O.O.O.O.Z O.O.O.O.O.O.O.O.O.&XO.Z &XO.O.O.O.O.O.O.O.O.&XO.Z O.O.O.O.O.O.&XO.O.O.O.O.Z O.O.O.&XO.O.O.O.O.O.O.Z &XO.O.Z &XO.O.O.O.O.O.O.O.O.O.Z O.O.O.O.O.O.O.O.O.&XZ &XO.O.O.O.O.O.O.O.O.O.Z &XO.O.O.O.O.O.&XZ O.O.Z &XO.O.O.&XO.O.O.O.Z O.O.O.O.&XZ O.O.O.O.&XO.O.O.J.;X;X-.xXaX3.fX8.iXvX>.J.A.v.4 2 2 g.j.N.A.M H.H.J.O.+.J.H.O.J.O.O.Z O.Z O.O.O.O.O.O.O.O.O.&XO.O.O.O.O.O.O.O.O.O.O.O.&XZ O.&XO.O.O.O.O.Z &XO.O.O.O.O.O.O.O.&XO.&XO.O.Z O.O.&XZ O.O.O.O.O.O.O.O.O.O.O.O.O.O.O.O.O.O.O.O.&XO.O.O.O.O.O.O.O.O.&XO.O.O.O.O.O.O.O.O.O.O.Z &XO.O.O.O.O.O.&XZ &XZ O.O.O.O.O.O.O.O.O.O.O.O.O.O.O.&XO.O.&XJ.Z O.Z *XO.*X4X6Xe.3.0.8.hXiX*.xX$.J.",
"n.s.s.2 g.x.N.A.N C O.Z Z &X&XO.O.&XO.O.Z O.O.O.O.O.O.O.&XO.&XO.O.O.Z O.Z &X&XO.O.O.O.&XO.O.O.O.O.O.&XO.&XO.O.O.O.O.O.O.&XO.Z O.J.O.O.O.O.O.O.O.O.O.O.O.O.O.O.&XZ O.O.O.O.O.O.&XZ &XO.O.O.O.O.O.O.&XO.O.O.O.J.O.O.Z &XO.O.O.O.&XO.O.O.Z O.O.O.O.O.O.O.&XO.O.&XZ O.&X&XO.O.O.O.O.O.O.O.O.O.O.Z O.O.O.O.&X&XO.&X&XJ.+.:X-.r.zXiXfXfXhXvXxX;XD.l 8 7 s.p.h.x.V.A.F.O.G.-XZ Z J.O.O.O.&XO.O.O.O.Z &XO.O.&XO.Z O.O.O.O.O.O.O.O.O.O.O.O.O.O.O.O.&XO.O.O.Z &XO.O.&XO.O.O.Z Z O.O.&XO.O.&XO.O.O.Z O.O.O.O.O.O.&XO.O.O.Z O.O.O.Z O.O.O.O.O.Z &XO.&XO.O.O.&XO.O.O.O.O.O.O.O.O.O.O.&XZ O.O.Z O.O.O.O.O.O.O.&XZ O.O.O.O.O.O.O.O.O.O.Z O.O.O.O.&XO.O.O.O.O.O.O.&XZ O.&X&XO.*XH.#.#.5Xr.4.iX8.hXhXzX5XJ.A.v.g.p.p.p.h.v.x M H.J.J.O.O.J.J.&XZ O.O.&XO.&XO.O.O.O.O.O.O.O.O.Z O.O.O.O.O.O.&XO.O.&XZ O.O.O.O.O.O.O.O.O.O.O.O.O.O.O.O.O.O.O.O.Z O.O.O.O.&XO.O.O.O.O.&XZ O.O.O.O.O.O.O.O.O.O.&XO.O.&XZ O.O.Z O.O.&XO.O.&XZ Z &XZ O.O.O.O.O.O.O.O.O.&XO.O.O.O.O.O.&XO.O.O.O.O.O.O.O.Z &X&XO.O.Z &XZ &XO.O.O.O.Z O.O.O.&XZ &XZ *X+.*X5X:.e.iX0.0.0.3.xXxX$.&X",
"v.s.s.d.k.w b.Z.N N &XZ J.J.J.O.O.O.O.O.O.O.&XO.O.O.O.O.Z &XZ O.O.O.O.O.O.O.&XO.O.O.O.O.O.O.&X&XO.O.O.O.O.O.O.O.Z &X&XO.O.O.O.O.O.O.O.&XO.O.O.O.O.O.O.Z O.O.O.O.O.O.O.O.O.Z O.O.O.&XO.O.O.O.O.&XO.O.O.O.O.O.O.O.O.&XO.O.O.O.O.Z O.O.O.O.Z O.O.O.O.O.O.Z O.O.O.O.O.O.&XO.O.O.Z O.O.Z O.O.O.O.&XZ O.O.O.Z Z O.O.O.J.O.;X5X3XzXiXfXfXiXy.r.:XD.t g.7 4 2 h.x.l A.F.Z C O.J.&XJ.O.O.O.O.O.O.O.O.&XZ O.O.O.O.&XO.O.O.O.Z &XO.O.O.O.O.O.O.O.Z O.Z O.O.O.&XZ O.O.O.O.O.O.&XO.O.O.O.&XO.O.&XO.O.O.O.O.O.O.O.O.Z O.O.O.&XO.O.O.&XO.&XZ &XO.&XZ O.O.O.O.O.Z O.&XO.O.O.O.O.O.O.O.O.O.O.O.O.&XO.O.O.&XO.&XZ O.O.O.O.O.O.O.&XO.O.O.O.O.O.O.O.O.&X&XO.O.O.O.O.O.O.O.O.J.Z O.O.J.#.:X4XxXpXfX8.0.3.zX5X&XA.v.h.p.p.g.j.v.A.M C J.J.O.+.J.J.&X&XO.O.O.O.O.O.&XO.Z &X&XO.&XO.Z O.O.O.O.Z O.Z O.O.O.O.O.O.O.O.O.Z &XO.O.O.O.O.O.J.O.Z O.O.O.O.O.O.O.Z O.O.O.O.O.O.O.O.O.O.Z &X&XO.O.O.O.J.O.Z O.O.O.O.O.Z O.O.O.Z O.O.O.O.O.O.&XO.O.O.Z &XO.O.J.O.Z O.O.O.O.O.O.Z O.O.O.O.O.O.O.O.Z &XZ O.O.&XO.O.O.Z &XO.&XZ O.O.O.&XZ O.J.*XO.#.-.:.y.iX0.8.8.3.xX=.:XZ ",
"n.8 p.s.h.x.b.Z.N C J.Z J.Z J.Z O.&XZ O.O.O.O.O.Z &XO.O.O.O.O.O.O.&XZ O.O.O.O.Z O.O.O.O.&XZ &XL.O.O.O.O.O.O.&XO.O.O.Z O.O.O.Z &X&XO.O.Z O.O.J.O.&XZ O.&XO.O.O.O.O.O.O.O.O.&XO.O.O.Z O.O.O.O.O.O.Z &XO.O.O.O.O.O.O.Z O.O.&XZ O.O.O.O.O.&X&XO.O.Z O.O.O.O.&XO.O.O.O.O.Z O.O.O.&XO.O.&XO.O.O.O.O.O.&XZ O.J.&XO.&XO.J.+.#.4XxXe.3.fXfXiXy.r.;XD.B.j.7 a.3 g.v.l A.F.-XB O.&XO.&XO.O.Z O.O.O.O.O.O.O.&XO.O.O.O.O.O.&XO.&XZ O.O.O.O.Z O.O.O.&XO.O.O.O.O.O.O.O.O.O.&XZ O.O.O.O.Z O.O.O.O.Z O.O.O.&XO.O.&XZ O.O.&XO.O.O.O.&XO.O.O.Z O.O.O.O.&XO.O.O.O.&XO.O.Z O.O.O.O.O.O.&XZ O.O.O.&XO.O.O.O.O.Z O.O.O.O.O.O.O.&XZ O.O.O.&XZ O.O.O.O.&XO.Z Z O.O.O.O.O.O.O.&XZ &X&XO.&XJ.#.:X-.r.pXhX8.3.3.e.>.&Xz n.s.p.p.g.h.b.A.M H.H.J.Z O.J.Z &XZ O.O.O.O.O.O.O.O.O.O.Z O.O.O.&XO.O.O.O.&XO.O.O.O.O.O.&XZ O.O.O.&XZ O.O.O.O.O.O.O.O.&XO.O.&XZ O.O.&XO.O.O.Z &XO.O.Z &XO.O.O.O.Z O.O.O.O.O.O.O.O.O.O.O.O.&XO.O.&XO.O.O.O.O.O.O.O.O.O.O.O.O.O.O.O.O.O.O.O.O.&XZ O.O.&XO.O.O.O.O.O.&XO.O.O.O.O.O.O.&XO.O.O.O.O.O.O.O.O.&X&XO.Z *X&X*X5X6Xe.iX8.8.0.5.r.*.4XJ.",
"n.c.s.2 h.x.N.x D.C J.J.J.J.J.&XO.O.O.O.O.&XZ O.O.O.O.O.O.&XO.O.O.O.O.O.O.O.O.O.O.Z O.O.O.O.-XS &XO.O.O.O.&XO.Z O.O.O.O.O.O.O.O.Z O.O.O.O.O.O.O.O.O.Z &XZ O.O.O.O.O.O.&XO.O.&XO.O.O.O.O.&XZ O.Z O.O.&XO.O.O.Z O.O.O.O.Z O.O.O.O.O.O.&XO.O.O.O.&X&XZ O.O.Z O.O.&XO.O.&XO.O.O.O.O.O.O.O.O.O.O.O.O.O.O.O.J.&XO.&X&XJ.&X;X;.3Xe.aXfXfXiXy.r.#.D.B.g.g.s.2 7 x.B.A.H.J.C J.Z O.J.O.O.&XO.O.O.O.&XO.O.Z O.O.&X&XO.O.Z O.O.O.O.Z O.O.&XO.&XO.O.O.Z O.O.O.O.O.O.O.O.O.Z O.O.O.&XO.O.O.O.O.O.O.O.O.O.&XZ O.O.O.O.O.O.Z O.O.O.O.Z O.O.O.O.O.O.O.O.O.O.O.Z O.O.O.O.Z O.&XO.O.O.O.O.O.O.&XZ O.O.O.O.O.&XO.O.O.O.O.O.O.O.Z &XO.O.O.&XZ O.O.O.O.&XO.O.Z &XO.O.O.Z O.O.O.J.O.+.J.;X#.-.zXpX0.fX0.aXe.6XO.A.v.s.p.p.g.j.v.A.Z.H.J.J.O.+.J.J.&XO.O.O.O.O.O.O.&XZ O.O.O.O.O.O.O.O.O.O.O.&XZ O.O.O.Z &XO.O.O.O.O.Z O.O.&XO.O.O.O.O.O.O.&XO.O.O.O.O.O.O.O.O.Z &XO.O.O.O.&XZ &XO.O.O.O.O.O.O.&XZ O.O.&XO.O.O.O.O.O.Z O.J.O.O.O.O.O.&XO.O.S L.&X&XO.O.&XO.O.Z O.O.O.O.Z O.O.&X&XO.O.O.O.O.O.O.O.O.O.Z O.O.O.Z O.O.O.O.O.&XO.O.Z *X&X*X4X3Xe.iX0.fX0.4.xXr.:XJ.",
"n.s.s.4 h.j.b.x F.C O.Z Z &XZ Z O.O.O.O.O.Z &XO.O.O.O.&XO.O.Z O.O.&XO.O.O.O.&XO.O.&XO.J.O.O.O.O.Z O.Z &XO.O.O.O.O.O.O.O.O.O.O.O.O.O.&XZ O.O.O.O.&XO.O.O.&XO.O.O.O.O.O.Z &XO.Z O.O.O.O.O.O.O.O.&XO.O.O.O.O.O.&XO.O.&XO.O.O.&XO.O.&XZ Z O.O.O.O.O.O.O.O.O.O.O.O.Z O.O.Z O.J.O.O.O.Z &X&XO.O.O.O.O.O.O.O.J.Z O.&XO.J.*X;X5Xr.vXaX0.gX2.y.r.#.Z.B.4 g.a.2 h.x.V.A.F.&XC &XZ O.O.&XO.O.O.O.O.O.Z O.&XO.O.O.Z O.O.O.O.O.O.O.O.&XO.O.O.O.Z &XO.O.&X&XZ O.Z &XO.O.O.O.&XO.O.O.Z O.&XZ O.O.O.O.O.O.O.O.O.O.O.O.O.O.O.&XO.O.O.O.&XO.&XO.O.Z &XO.O.O.O.O.O.&XZ &XO.O.O.O.O.O.O.O.O.O.O.O.O.O.O.O.O.O.O.O.Z O.O.Z &X&XO.O.O.O.O.O.O.O.O.Z O.O.O.O.O.O.O.O.O.O.&X&XO.J.O.O.&XJ.;X:X-.r.4.hX8.hXhXe.5XO.A.v.h.p.2 g.j.b.A.N F.J.J.O.O.J.J.&XJ.J.O.O.O.O.Z O.O.O.O.O.O.O.O.O.O.&XO.O.O.O.O.O.&XO.O.O.O.O.O.O.&XZ O.O.O.&XO.O.O.Z &XZ O.O.O.O.O.O.O.O.O.O.O.O.O.O.O.O.O.O.O.O.O.O.O.O.O.O.O.O.&XZ O.O.O.O.O.O.&XO.O.O.O.O.O.O.Z O.O.-XO.Z &XO.O.O.O.O.&XO.&XO.O.O.O.O.Z O.O.O.Z &XO.O.O.O.O.O.O.O.&XO.O.O.O.&XO.O.J.O.O.J.+.&X;X5X>.y.5.8.8.3.5.xX*.$.J.",
"n.s.p.s.g.x.b.A.G.H.&XZ J.Z O.O.O.Z &XO.O.&XZ O.O.O.O.Z O.O.&XO.O.Z O.O.Z &X&XZ O.O.O.O.O.O.O.O.O.Z O.O.&XZ O.Z O.O.Z &XO.O.O.O.&XO.O.O.O.Z &XO.Z O.O.O.O.O.O.O.O.O.O.O.O.O.O.O.O.Z &XO.O.Z O.O.O.O.O.Z O.O.&XZ O.O.&XO.O.Z &XO.O.O.O.O.O.O.Z O.O.O.O.O.Z O.O.O.O.O.O.O.O.O.O.O.O.O.&XO.O.&XO.O.O.O.O.O.Z &X&XO.J.*X;X-.r.zXiXfXhXhXy.r.#.D.l 8 7 2 2 7 v.l x F.&XH.&XO.O.&XO.O.O.O.O.&XO.Z O.O.O.Z O.O.Z O.O.O.O.O.Z &XO.O.O.O.O.&XZ O.O.O.O.O.O.&X&XO.O.O.O.O.O.O.Z O.O.O.&XO.O.J.O.O.O.O.&XO.O.O.O.O.O.O.O.&XO.O.O.O.O.Z O.O.&XZ O.O.O.O.O.O.O.O.Z O.O.&XZ &XO.O.O.O.O.O.&XO.O.Z &XO.O.O.O.&XO.O.&XZ O.O.O.O.O.&XO.O.O.O.O.&XO.O.Z &XO.O.O.O.Z &XZ O.O.J.O.+.J.#.#.5Xr.5.0.8.0.aXzX;.&Xz v.s.p.p.g.8 r Z.M H.C J.Z O.J.Z J.Z O.O.O.O.O.&XZ &XO.O.Z &XO.O.O.O.Z O.O.O.&XO.O.Z O.O.O.O.O.O.O.O.&XO.O.Z Z O.Z &XO.O.&XO.O.O.O.O.O.O.Z &XO.O.O.O.O.O.O.O.O.O.O.O.O.O.O.Z O.O.O.Z O.O.O.O.O.O.O.O.O.O.O.&XO.O.O.O.Z O.O.O.&XZ &XO.O.O.O.O.O.Z O.O.O.O.O.O.Z O.O.O.O.O.O.O.Z O.O.O.O.O.O.&XZ &XZ O.O.&XJ.O.O.*XO.*X-.>.y.0.0.8.0.5.r.*.:XZ ",
"n.s.s.p.k.v.B.x F.H.&XJ.Z &XO.O.O.O.O.O.O.O.O.O.&XZ O.O.O.O.O.O.O.O.O.O.O.O.O.O.O.O.O.O.O.O.O.O.O.&XO.O.O.O.O.&XO.O.O.O.O.O.O.O.O.O.O.O.O.O.O.O.O.O.O.O.O.&XZ O.O.&XZ O.O.O.Z &XO.O.O.O.O.&XO.O.O.O.O.&XO.O.O.O.O.O.O.O.O.O.O.O.O.O.O.O.O.O.&XO.O.O.O.&XO.O.&XO.O.O.O.O.O.O.O.&XO.O.O.Z O.Z O.O.O.O.O.J.&XO.O.J.J.*X#.5X:.e.5.8.9.hXy.=.%.M B.8 4 p.p.7 x.z x M O.C O.O.O.O.O.O.O.O.O.Z O.&XO.O.O.O.O.&X&XO.O.Z &XO.O.O.O.O.O.&XO.O.O.O.O.O.O.O.O.Z Z O.O.O.O.O.O.O.&XO.O.O.O.O.O.O.O.O.O.O.Z O.O.O.&XZ O.O.O.Z O.O.O.O.O.O.O.O.O.O.O.O.O.&XZ O.O.&XO.O.O.O.O.O.O.J.O.O.O.O.Z O.O.&XZ O.O.O.O.O.O.O.O.O.O.O.O.Z O.Z O.O.&XZ O.O.O.O.O.O.O.O.&XO.O.O.O.O.J.J.O.&XC #.#.-.r.4.3.8.hXiXe.5XO.z x.x.p.p.g.j.r A.M F.J.J.J.O.J.J.J.J.O.O.O.O.O.O.O.O.O.O.O.O.O.O.O.O.O.O.&XZ O.O.O.O.&XO.&XZ O.O.O.O.O.O.O.&XO.O.O.O.O.O.O.O.O.O.Z &XO.O.O.O.O.O.O.&XZ O.O.&XZ &XO.O.O.O.O.&XO.&XO.O.O.O.&XZ O.O.O.O.O.O.O.Z O.O.O.O.&XO.O.O.O.O.O.O.O.O.O.O.O.O.O.&XO.Z &XO.&XO.O.Z O.O.Z &X&XO.O.O.O.O.O.O.O.O.O.O.O.J.O.Z J.+.+.+.>.>.e.6.fXfX8.4.r.=.4XJ.",
"r 8 s.2 7 r b.x M C O.&XZ &XZ &XO.O.Z O.Z O.O.O.O.O.Z O.O.&XO.Z &XO.O.O.O.O.O.O.O.O.O.O.O.O.&XO.O.&XO.O.O.O.Z &XO.O.O.Z O.O.O.O.O.O.&XO.O.O.O.O.&XO.Z &XO.O.O.O.O.O.O.O.Z &XO.O.O.O.O.&X&XO.O.O.O.O.O.O.Z O.O.O.O.O.O.O.O.O.O.O.O.O.O.O.O.O.&XZ O.O.O.&XZ O.O.&XO.O.&XO.O.O.O.Z O.O.O.O.O.J.O.O.O.O.O.O.J.Z &X&XZ *X;X-.r.e.6.hXfXiXvX3X;XZ.t 8 p.p.p.7 r l A.M O.C O.O.O.Z O.O.O.O.&XZ O.O.Z &X&XO.O.O.O.O.Z &X&XO.O.O.O.O.O.Z Z &XO.O.O.O.O.O.O.O.O.O.O.Z &XO.O.O.O.O.O.O.O.O.O.O.O.O.O.O.&XZ O.O.O.&XO.O.&XO.O.O.O.O.O.O.&XO.O.O.O.O.O.O.O.O.O.O.O.O.O.O.O.O.O.O.O.O.O.O.O.&XO.O.O.O.O.O.O.O.O.O.O.Z &XO.O.&XZ O.O.&XZ &XO.O.O.O.O.Z &XO.O.O.&XO.O.Z &XZ O.*XJ.;X#.-.r.pX0.8.0.3.e.;.&Xz v.7 2 p.7 9 N.x D.C Z J.O.O.J.J.O.&XO.O.&XO.O.Z &XO.O.O.O.O.O.O.O.J.&XO.Z &XO.&XO.O.Z O.O.O.O.Z &XO.O.Z &XO.O.O.O.O.Z O.O.O.O.O.&XO.O.O.O.J.O.O.O.O.O.O.O.&XO.O.&XZ &XZ O.O.O.Z O.O.&XZ O.O.O.Z &XO.O.&XZ O.O.&XO.O.O.&XO.O.O.O.&XO.O.Z O.O.O.O.O.&XO.Z &XO.O.O.O.&XO.O.O.O.O.&XO.O.Z &XO.O.O.O.O.O.O.O.J.O.Z *XJ.;X>.6Xe.aX8.8.3.aXr.5X-.J.",
"v.4 s.2 s.r B.A.M H.&XO.Z &XJ.O.O.O.&XO.&XO.O.O.O.O.&XO.O.O.O.O.Z O.O.O.O.O.Z &XO.O.&XZ O.O.Z O.O.O.O.O.O.O.O.O.Z &XO.&X&XO.O.O.O.O.Z O.O.O.O.O.O.Z O.O.O.O.O.O.O.O.O.O.O.O.O.O.Z O.O.O.Z O.O.O.O.O.O.O.&XO.O.O.O.O.O.O.O.O.Z &XO.O.O.O.O.O.O.O.O.O.O.O.O.O.O.Z O.Z O.O.O.O.O.O.&XO.O.O.O.O.O.O.O.O.J.O.&XO.&XO.J.*X;X5XxXy.5.0.8.hXy.3X+.M B.h.s.2 2 g.y C.x D.&XH.+.&XO.J.O.Z O.O.O.O.&XO.O.O.O.O.O.O.O.O.O.O.O.Z O.O.Z O.O.O.O.O.O.O.O.J.O.O.&XO.O.O.O.O.O.O.O.O.O.O.O.O.Z &XO.O.O.O.O.O.O.O.&XO.O.O.Z O.O.O.O.O.&XZ &XO.O.O.O.O.O.O.&XZ &XO.O.&XO.O.Z O.O.Z O.O.O.&X&XZ O.O.O.O.O.O.O.O.O.O.O.O.O.O.O.O.O.O.&XO.O.O.O.O.O.O.Z O.O.O.O.O.O.O.O.O.O.J.J.&X&X*XZ #.$.;.r.aX2.8.0.5.u.;.O.A.v.g.p.2 g.9 v.V.D.H.H.Z O.O.J.Z &XJ.Z &XO.O.O.O.O.O.&XZ O.O.O.O.O.O.O.O.O.O.O.Z O.O.O.O.O.O.O.O.O.O.O.O.O.O.O.O.O.O.&XO.O.O.&XO.Z O.Z O.O.O.O.O.O.O.O.O.O.Z O.O.O.O.O.O.O.&XO.&XO.O.O.O.O.O.O.O.O.O.O.O.O.O.O.Z O.&XO.Z O.O.O.O.O.O.O.&X&XZ O.O.O.Z O.O.O.O.O.O.O.O.O.&XZ O.O.O.O.Z O.O.O.&XO.O.Z O.&XO.Z &XZ #.J.#.4X6XvXiX0.fX0.pXzX>.-.J.",
"v.s.s.2 h.v.b.Z.N H.&X&XZ Z J.O.O.&XO.O.O.O.O.O.O.&XZ O.O.O.&XO.O.O.O.O.O.O.O.O.O.O.&XO.&XZ O.O.O.O.Z O.O.O.O.O.O.O.O.O.O.O.S C &XZ O.O.O.Z Z &XO.O.O.O.O.O.O.Z &XO.O.O.O.O.O.Z &XO.O.O.O.O.O.O.O.O.O.O.&XO.O.&XO.O.O.O.O.&XZ O.Z &XO.O.O.O.O.O.Z O.O.O.O.O.O.O.&XO.O.Z Z O.O.O.Z O.O.O.O.O.O.O.O.O.&XJ.&XO.O.&XJ.+.;X4XxXvXiX8.8.3.y.3X;Xx B.j.g.p.p.h.r V.A.M &XC O.O.O.J.O.O.O.O.O.O.Z O.O.O.O.O.O.O.O.O.O.O.O.O.O.O.&XO.O.O.O.O.O.O.O.O.O.O.O.O.Z O.O.O.O.O.O.O.O.O.O.Z O.O.Z &XO.O.O.O.O.O.Z O.O.O.O.&XO.O.O.O.O.O.Z O.O.Z O.O.Z O.O.&XZ O.O.Z O.O.&XO.O.&XO.O.O.Z O.O.O.O.O.O.J.O.O.O.O.O.O.O.O.O.O.O.O.O.O.O.O.O.O.O.O.O.&XO.O.O.Z &X&XZ O.O.Z &XZ Z &XO.J.+.:X5Xt.4.0.q.2.5.t.;.Z V.w g.p.2 g.9 N.x Z.H.H.J.O.+.J.J.&XZ O.O.&XO.Z O.O.O.O.O.O.O.Z O.O.O.O.O.O.O.O.O.O.O.O.Z O.O.Z O.O.O.&XO.O.Z O.Z &XO.O.O.O.O.O.O.O.O.&XO.O.O.O.O.O.O.O.O.O.O.O.O.&XO.O.O.O.O.O.O.Z &XO.Z O.&XS O.O.O.O.O.Z O.O.&XO.O.O.O.O.O.O.Z Z O.O.O.O.O.O.O.O.O.O.O.O.&XO.Z &XO.O.O.O.O.Z O.O.&XO.O.O.Z Z &X&XO.O.O.O.O.J.+.J.#.5X3Xe.iXiXfXfX4.xX5X;.J.",
"v.h.s.s.h.w B.Z.D.C O.&XJ.J.J.J.O.Z O.O.O.O.O.&XO.O.O.O.O.O.O.O.O.O.O.O.Z &XO.O.O.O.O.O.O.O.O.O.O.O.&XO.Z O.O.O.O.O.O.O.O.O.,X-XO.O.O.O.O.&XO.O.O.&XO.O.O.O.O.&XZ O.O.O.O.O.O.&XO.O.Z &XO.O.O.O.Z &XO.O.Z O.O.Z J.O.O.O.O.O.O.O.O.O.&XZ O.O.O.&X&XO.O.O.O.Z &XO.O.O.O.&X&XO.O.O.O.O.O.O.O.O.O.O.O.O.J.O.O.O.O.O.J.+.;X-.3XpX5.8.fX0.y.3X;XM V.7 p.p.p.h.r B.x D.O.H.O.O.O.Z &XO.O.O.O.&XO.O.O.O.O.O.Z &X&XO.O.O.O.&XO.Z O.O.O.O.&XO.O.O.O.O.O.O.O.O.&XO.Z O.O.O.J.O.O.O.O.&XO.O.O.O.&XZ O.O.O.&XO.O.&XZ O.Z O.O.&XZ O.O.O.O.&XO.O.O.&XO.Z O.O.O.O.O.O.O.O.O.O.O.Z O.O.O.O.O.O.Z O.O.O.O.&XO.Z &XO.&XZ O.O.O.&XZ O.O.O.Z &XO.O.O.O.O.O.O.O.O.O.O.O.O.O.O.&XJ.O.&XJ.#.#.;.zX4.2.8.q.3.e.-.Z x v.g.p.2 g.j.N.x D.C J.Z O.O.J.H.&XZ O.O.Z O.&XO.O.O.O.O.O.&X&XO.O.O.Z O.O.Z &XO.O.O.&XO.O.&X&XO.O.O.O.O.O.&XO.O.O.O.O.O.&XO.Z O.Z &XO.O.O.O.O.O.O.O.O.&XZ O.O.O.Z O.O.O.O.O.Z &XO.O.O.&XO.O.,XO.O.O.O.O.&XO.O.O.Z O.O.O.O.O.O.&X&XO.O.O.O.O.O.Z &XO.O.O.O.Z O.O.O.O.O.O.O.O.O.&XO.O.O.O.O.O.O.O.O.O.O.O.J.O.Z *X&X;X5X:.zXiXfXfXiX4.e.5X;.J.",
"v.g.p.p.h.w b.x M H.+.J.H.Z J.O.O.&XZ O.O.O.O.Z O.O.O.O.O.O.O.O.O.O.O.&XO.O.&XO.Z O.O.O.O.O.O.O.O.O.Z O.&XO.O.O.O.O.O.O.O.O.O.O.O.O.Z O.O.O.O.O.O.O.&XO.O.O.O.J.O.&XO.O.&XO.O.O.O.O.O.O.O.O.O.O.O.O.O.O.O.O.&XO.Z &XO.O.O.O.&XO.O.O.O.&XO.&XZ O.O.O.O.O.&XO.O.O.O.&XZ O.O.O.Z O.&XO.O.O.O.O.O.O.&XO.Z &XO.O.&XO.J.*X#.5Xr.vXhX8.8.0.y.3X#.x V.g.s.2 p.h.y V.A.D.-XA &XO.&XZ &XZ Z O.O.O.O.O.O.&XO.O.O.O.Z O.O.&XZ O.O.&XO.O.&XZ Z O.&XO.O.O.O.O.O.O.Z O.&XO.O.O.Z &XO.O.O.O.&XO.O.O.O.&XO.&XZ O.O.O.O.O.O.O.O.O.&XO.O.O.O.O.O.O.O.O.Z O.O.O.O.O.O.O.Z O.O.O.O.O.&XO.O.O.&XZ O.&XO.O.&XZ Z O.O.&X&XO.O.O.Z &XO.O.O.O.O.Z O.O.O.O.O.O.O.O.O.&XO.O.O.O.O.O.&XO.O.O.J.;X:X5Xt.4.0.8.0.5.t.;.C z w g.p.2 7 j.t x Z.H.H.H.O.+.J.J.Z J.O.Z O.O.O.O.O.O.O.&XO.O.O.O.Z O.&XO.O.O.O.O.Z O.&XO.Z &XO.O.O.O.O.&XZ O.&XZ Z &XO.O.O.Z O.O.O.O.O.O.O.O.&XO.O.O.O.O.O.O.O.Z O.O.O.O.O.Z O.O.O.O.O.O.O.O.-XO.O.O.O.O.O.O.O.O.&XO.O.O.Z &XO.&XZ O.Z O.O.O.&XZ O.O.&XO.O.O.O.O.O.O.O.Z &XO.O.O.O.O.&XZ O.O.O.&XZ O.O.O.J.O.J.#.&X;X>.:.e.iXiXfXfX4.cX>.5XZ ",
"r 4 s.4 s.r B.x M H.+.J.Z &XJ.O.O.O.O.O.O.&XO.O.O.Z &XO.Z &XO.O.O.O.O.Z O.O.Z O.&XO.O.O.O.O.Z &XO.O.&XO.O.O.Z &XO.O.O.O.Z O.O.O.O.&XO.O.O.O.O.O.O.O.Z O.O.O.O.O.Z O.O.O.Z O.O.O.O.O.Z O.J.O.O.O.O.O.O.&XO.O.Z O.O.O.O.O.O.O.O.O.O.O.O.Z O.O.O.O.O.O.O.O.O.O.Z O.O.O.O.O.O.O.&XO.Z O.O.&XO.O.Z &XO.Z &X&XO.O.O.*XZ +.;X-.xXpX5.8.8.3.y.3X*XD.B.h.4 2 p.g.v.B.z M O.H.O.O.O.&XO.O.&XO.O.O.O.O.O.Z O.&XZ O.O.O.O.Z &XO.O.O.O.O.O.O.O.O.O.O.O.O.Z &XO.&XO.O.O.O.&XO.O.O.O.O.O.O.O.O.O.O.O.Z O.O.O.O.O.O.O.O.O.O.O.O.Z O.O.O.O.&XO.Z O.O.&XO.O.&XO.O.O.O.&XO.&XO.O.O.O.O.O.O.O.O.O.O.O.O.O.O.O.O.O.O.O.Z O.O.O.O.O.O.O.O.O.&XO.J.O.O.O.O.O.O.O.O.O.Z O.O.O.J.O.&XO.&XJ.;X$.;.cXaX3.9.0.0.t.-.Z z w 7 p.2 g.9 t A.Z.Z J.Z Z +.J.J.J.J.O.&XO.Z O.O.O.O.O.O.Z O.O.O.&XO.O.O.O.O.O.O.&XO.O.O.O.O.O.O.O.O.O.O.O.O.O.O.&X&XO.O.O.&XO.&XO.O.O.O.O.O.Z O.Z &X&XO.O.O.O.&XO.O.O.O.O.&XO.&XO.O.Z O.O.O.C O.O.O.O.O.O.O.Z O.O.O.O.O.O.O.O.O.O.O.&XO.O.O.O.O.O.&XO.O.O.O.O.O.O.O.O.O.O.O.O.O.&XZ O.O.O.O.O.O.O.O.O.O.J.O.Z +.J.*X5X6Xe.iX2.8.fXpXr.5X-.J.",
"y s.p.2 g.r B.Z.M H.&XJ.Z &XJ.O.&XZ O.&XO.O.O.O.O.&XO.O.O.&XO.O.O.&X&XO.&XZ O.O.O.O.O.O.O.O.Z O.O.O.O.O.O.Z O.O.O.J.O.O.&XO.O.O.O.O.&XO.Z &X&XO.&XZ O.O.O.O.O.O.&XO.O.Z O.O.Z &XO.O.&XO.O.O.O.O.O.O.O.Z O.O.O.O.O.O.O.O.O.O.O.Z O.O.O.O.Z O.O.O.O.O.Z &XO.O.&XO.O.O.&XZ O.O.O.O.O.O.O.O.O.O.Z O.O.O.O.O.O.O.O.&X&X*X#.-.*.vXaX8.8.iXy.*.+.M B.h.s.2 p.g.n.B.A.N O.H.O.O.O.J.&XO.O.&XO.O.O.O.Z O.O.O.O.O.O.O.O.O.O.O.&XZ O.O.O.O.O.O.O.O.O.O.&XZ O.O.O.&XZ &XZ O.O.O.O.O.O.O.O.Z O.O.O.O.Z O.O.O.O.O.O.J.O.O.Z &XO.O.O.O.O.Z O.&XO.O.O.O.O.O.O.O.O.&XZ &XZ O.O.O.O.O.O.O.O.O.&XZ O.O.O.O.O.O.O.O.O.O.O.O.O.O.&XO.O.O.O.O.O.O.O.O.O.Z &XO.O.O.O.&XO.O.&XZ &XZ O.*XZ %.:X>.r.5.8.q.q.5.zX-.C z v.h.2 p.7 7 b.x D.C H.J.Z &XJ.J.&XJ.O.O.O.&XO.O.O.O.Z O.O.O.O.O.O.O.O.O.O.O.O.O.&XZ O.O.O.O.O.O.O.&XO.O.O.O.O.O.L.&XO.O.O.O.O.Z O.O.Z &X&XO.O.O.O.O.O.Z O.O.O.O.O.O.O.O.O.O.O.Z O.O.&XO.O.&X&XO.O.O.Z &XO.O.&XO.Z O.O.O.O.O.Z O.O.O.O.O.O.O.O.O.O.O.Z O.O.O.O.O.O.O.J.O.O.O.&XO.O.O.O.O.O.O.Z O.O.&XO.O.&XZ Z *X&X#.5X6XzXiXfXfXhXpXzX5X-.J.",
"v.h.s.s.g.x.B.D.M H.O.J.Z J.J.O.O.O.O.O.O.Z &XO.O.Z O.O.O.Z O.O.O.O.Z O.O.O.O.O.O.&XZ O.O.O.&XO.O.O.&XO.O.&XO.O.O.O.O.O.O.O.&XZ O.O.O.O.O.O.O.O.O.O.O.O.O.O.O.O.O.O.O.&XO.O.O.O.O.O.O.O.O.O.O.O.&XZ O.O.O.O.O.&XO.O.O.O.&XZ &XO.O.Z &XO.&XO.O.O.&XZ O.O.O.O.O.O.O.O.O.O.O.O.O.O.O.&XO.Z O.O.&XO.O.O.O.O.O.O.O.O.&X+.#.-.*.4.iXfX8.hXe.xX#.x b.g.s.p.p.g.r V.A.F.O.C O.O.&XZ &XO.O.Z O.O.O.O.&XO.O.O.O.&XO.Z &XO.O.O.O.O.O.O.O.O.O.O.&XZ O.O.O.O.O.O.O.O.O.O.O.O.O.O.O.O.&XZ O.&XO.Z &XO.&XO.O.O.O.O.O.O.O.O.O.O.O.O.O.O.O.&XO.O.O.O.O.O.O.&XZ O.O.O.O.O.O.O.O.O.O.O.O.J.O.O.O.O.O.O.O.O.O.O.&XZ &XO.O.Z &XO.Z O.O.O.O.O.O.O.O.O.O.&XZ O.O.O.O.O.O.O.O.J.&XZ O.&XZ #.#.>.t.6.q.9.0.5.t.4XZ A.w 7 2 p.5 9 t k G.C Z H.Z +.J.Z &XZ O.&XO.O.O.O.&XZ &XO.O.Z &XO.O.O.O.O.&XZ O.O.O.O.O.O.O.Z &XO.O.Z &XZ O.O.O.O.S -XO.O.O.O.O.O.O.O.O.O.Z O.O.O.&XO.O.&XO.O.Z &X&XZ O.O.O.O.O.O.O.O.O.O.O.Z O.O.O.O.O.O.O.O.O.O.&XO.O.Z &XO.&XO.O.O.O.O.O.&XZ O.O.O.&XO.O.Z &XO.O.O.O.O.O.O.Z O.O.O.O.O.O.O.&XO.O.O.O.O.J.O.J.+.&X;X5X6XcXiX3.fX0.4.zX>.-.J.",
"v.7 4 4 h.x.N.M M H.O.&XZ O.J.O.O.O.O.O.O.O.Z O.O.&XZ O.Z O.O.O.O.O.O.Z &XO.O.O.O.O.O.O.O.O.O.O.&XO.O.O.O.O.&XO.O.O.O.O.Z O.O.O.O.O.O.Z O.O.O.O.O.O.Z &XO.O.O.&XO.O.&XZ O.O.&XZ O.O.O.O.&XZ O.O.Z O.O.O.Z &XO.O.O.O.O.O.O.O.O.O.Z O.O.&XZ O.O.O.O.Z &XO.O.O.Z O.O.O.O.O.O.O.O.&XZ O.O.O.&XO.O.O.O.O.O.O.O.O.O.O.O.*X$.-.3Xy.3.8.fXhXe.3X;Xx B.8 4 p.s.j.v.l A.N Z C &XO.O.&XO.O.O.O.O.O.O.O.O.O.O.O.O.O.O.O.&XO.O.O.O.O.O.O.O.O.Z &XO.O.O.&XZ O.O.O.Z O.O.O.&XZ O.O.&XZ &XO.Z &XO.O.O.O.O.Z &XO.O.O.O.O.O.Z &XO.O.O.O.O.O.O.O.O.O.O.O.O.O.O.O.O.O.O.O.O.O.&XO.O.O.&XO.Z O.&XO.O.O.O.O.O.O.O.O.Z &XO.O.O.O.O.O.O.O.O.Z O.O.O.O.O.O.J.O.O.O.O.Z O.O.O.&XO.J.O.J.+.J.:X$.;.e.pX3.fXiXaXe.-.C z r 4 s.s.s.9 b.B.D.Z C J.&X&XO.Z J.J.O.O.O.O.O.O.O.O.O.O.O.O.O.O.Z O.O.O.O.O.O.O.O.O.&XO.O.O.O.O.&XO.O.&XO.O.O.O.Z O.O.O.O.O.&XO.O.O.O.O.O.Z O.O.O.&XO.O.O.O.O.O.O.O.O.Z &XO.O.O.&XZ O.O.O.O.O.O.Z O.O.&XO.O.O.O.O.O.O.Z &XO.O.O.O.O.O.O.O.Z O.O.O.O.O.O.O.O.O.O.O.Z &XO.O.O.O.&XZ O.&XO.O.O.O.O.Z O.O.&XZ &XZ *XO.#.5X*.zX3.2.8.fX4.xX>.:XZ ",
"v.7 2 s.h.r N.M M H.O.&XJ.&XJ.O.O.&XO.O.Z O.&XO.O.O.O.O.&XO.O.&XZ O.O.O.O.O.O.O.J.O.O.O.O.O.O.Z Z O.O.&XZ O.O.O.O.O.O.O.&XO.O.O.Z &XO.&XO.O.O.O.O.O.O.O.O.O.O.Z O.O.O.O.O.O.O.O.O.O.O.O.O.O.O.&X&XO.O.O.O.O.O.O.O.O.O.O.J.O.O.O.&XO.O.O.O.O.O.O.O.O.O.O.O.O.&XO.O.O.O.O.O.O.O.O.O.O.Z O.O.O.O.O.O.&XZ &XO.O.&XZ O.*X:X-.xXy.3.hX0.hXvXxX;XZ.B.8 s.p.s.g.v.z A.N &XH.&XO.O.O.&XO.O.O.O.O.&XZ O.&XO.O.&XZ &XO.O.O.O.O.Z O.O.O.O.O.O.O.&XZ O.O.O.O.O.O.&XO.O.O.O.O.O.O.O.O.O.O.O.O.O.O.O.O.O.O.O.O.O.&XO.O.O.&XZ O.O.O.&XO.O.O.&XZ &XZ &XO.O.Z &XZ &XO.O.O.O.Z O.O.O.O.O.O.O.O.O.O.O.O.&XZ O.O.O.O.O.O.Z &X&XO.&XZ O.O.&XO.O.O.O.O.O.O.O.O.O.O.&XO.O.Z &XO.Z O.J.+.o.+.$.6XzX6.fX2.2.3.t.-.Z z x.7 2 2 4 x.N.V.F.H.C J.O.O.Z J.&XJ.O.O.O.O.O.O.Z &XO.O.Z &XO.&XO.O.O.O.O.O.&XZ O.O.Z O.O.&XO.O.O.O.O.Z O.O.O.O.&XO.O.O.O.O.Z O.Z &XO.O.O.&XO.O.O.Z O.O.O.O.O.O.O.O.O.&XZ O.O.O.O.O.O.O.O.O.O.O.&XO.O.O.O.O.&XO.O.O.O.&XZ O.O.O.O.O.Z &X&XO.&XO.O.&XO.O.&XZ O.O.O.O.O.O.O.O.O.O.O.O.Z O.O.O.O.O.&XO.O.J.Z J.H.*XO.;X5X*.zX3.hXfXiXaXe.5X$.O.",
"v.7 4 a.h.9 B.x M H.O.&XJ.Z J.O.O.Z O.O.&XO.O.O.&XO.&XO.O.O.O.O.&XO.O.O.O.O.O.O.O.O.O.O.O.O.O.&XO.O.O.O.&XO.O.Z Z O.O.O.O.O.O.O.O.O.O.O.&XO.O.O.O.O.O.O.O.O.Z O.O.O.&XO.O.O.O.O.O.O.O.O.O.Z O.O.O.&XO.O.O.O.&XO.O.O.O.O.O.O.O.O.O.O.O.&X&XO.Z O.Z O.O.O.O.O.&XZ O.O.Z &XZ &XO.O.O.O.O.O.O.O.Z &XO.O.&XO.O.O.O.&X&X*X#.5X3Xy.0.fX0.iXy.*.+.Z.B.7 4 p.p.h.v.V.A.F.O.H.O.O.O.&XO.O.O.O.O.O.O.O.O.O.O.O.O.O.Z O.O.Z O.O.&XO.&XO.O.O.O.O.O.O.O.O.O.&XO.O.O.&XO.Z &XO.Z O.O.&XO.O.O.O.O.O.Z O.&XO.O.O.Z O.O.O.O.O.O.O.Z &XZ O.Z &XO.O.Z &XZ O.O.&XO.&XO.Z &XO.Z O.O.O.&XZ O.Z O.O.O.&XO.O.O.O.O.O.O.O.O.Z O.O.O.O.O.O.O.O.O.Z O.O.Z O.O.O.O.O.O.O.O.&XO.O.J.O.&XO.J.*X&X#.$.5XcX4.fX8.8.5.t.-.H.z v.7 2 p.4 x.N.V.F.H.H.J.O.O.&XJ.J.&XO.O.O.O.O.O.&XZ O.&XZ O.O.O.&XO.Z &XO.O.O.O.O.Z O.O.O.Z &XZ O.Z Z O.O.O.O.O.O.&XO.Z &XO.Z O.O.O.&XO.O.O.&XO.O.O.O.O.Z &XZ &XO.O.O.O.O.O.O.O.O.O.J.O.O.O.O.&XZ O.O.O.Z &XZ O.O.O.O.O.O.O.O.O.J.O.O.O.&XO.O.O.O.Z O.O.O.O.O.O.O.O.O.O.O.&XO.O.O.&XO.O.O.O.Z O.O.O.O.J.&X&XJ.+.O.*X5X*.zX3.8.gXiX5.zX6X4X&X",
"r 7 4 2 8 x.B.D.M H.O.&XZ &XJ.O.O.O.O.O.O.O.O.O.O.O.O.Z O.Z &XO.O.O.O.O.O.O.&XZ O.O.O.O.O.O.O.O.O.&XZ O.O.O.O.&X&XO.O.O.O.O.J.O.O.O.O.O.O.O.Z &XO.O.O.O.O.O.&XO.O.O.Z O.O.O.O.&XO.O.O.O.O.&XO.O.O.Z O.O.O.O.O.O.Z &XO.O.O.O.O.O.O.O.O.Z O.O.O.&X&XO.O.O.O.O.O.O.&XO.O.O.O.O.O.O.&XZ O.&XO.O.O.O.O.O.Z O.O.O.J.Z O.*X#.-.3Xy.0.fXfXhXe.3X#.Z.B.g.s.2 4 h.r z z N O.C &XO.O.O.&XO.O.O.O.O.O.&XZ O.&XZ O.O.O.O.&XO.O.O.O.O.Z O.O.O.O.O.O.O.&XO.O.Z O.O.O.Z O.O.O.O.&XO.O.O.Z &XO.O.O.O.&XO.Z O.O.O.O.O.&XO.O.O.O.O.O.O.O.O.O.O.O.O.O.O.O.O.O.O.O.Z O.O.O.O.&XO.O.O.O.O.O.&XO.O.O.Z O.O.O.O.&XZ O.O.O.&XO.O.O.O.O.O.O.&XO.O.O.O.&XO.O.O.O.O.O.O.O.Z O.O.&XZ O.O.J.+.O.;X$.>.zXaX0.fX0.0.t.-.H.V.v.g.p.s.s.j.b.l N H.J.Z O.O.&XZ J.Z O.O.O.O.O.O.O.O.O.O.O.O.Z O.O.O.O.O.O.O.O.O.O.&XO.O.&XO.O.O.O.&X&XO.O.O.O.O.O.Z O.O.O.O.O.&XO.O.Z O.O.O.Z O.O.&XO.O.O.O.O.O.O.O.O.O.O.O.&XO.Z &XO.O.O.O.O.O.O.O.O.O.O.O.O.O.&XO.O.O.O.O.O.O.O.O.O.O.Z O.O.O.O.O.O.O.O.O.O.&XZ O.O.O.O.Z &XO.O.Z O.O.O.O.&XO.O.O.O.&XJ.Z J.+.O.;X4X*.zX3.3.fXiXaXcX6X;.Z ",
"v.8 4 4 g.w B.M M H.O.J.H.J.J.O.O.O.Z O.O.O.&XZ O.O.O.O.O.Z O.O.O.O.O.O.O.&XZ O.O.O.O.&X&XO.O.O.O.O.O.O.O.O.O.O.O.O.O.O.O.O.O.O.O.O.O.O.O.O.O.O.Z &X&XZ O.O.O.O.O.O.O.O.Z O.O.O.O.O.O.J.O.&XO.O.O.O.O.O.O.&XZ O.O.O.O.O.O.Z O.O.O.O.O.O.Z O.O.O.O.O.O.&XZ O.O.O.Z O.O.Z &XO.O.O.O.O.O.O.O.O.Z &XO.O.O.O.O.O.J.O.O.;X;X-.3Xy.3.fX0.3.e.xX*XD.B.g.4 2 2 8 v.z A.F.O.H.&XO.O.O.&XO.O.O.O.O.O.O.O.O.&XO.O.O.O.&XO.O.O.O.Z O.O.O.O.&XZ O.O.O.O.Z &XO.O.O.O.O.O.O.O.O.O.O.O.O.O.O.&XZ O.O.Z O.O.O.&XZ O.O.O.O.O.O.O.O.O.O.O.Z &XO.O.O.O.O.O.O.O.O.O.O.O.O.O.Z O.O.O.O.O.O.O.O.O.O.O.O.&XZ O.O.O.&XO.O.O.O.&XO.O.&XO.O.Z O.O.O.O.O.O.O.O.O.O.O.&XO.O.O.O.O.Z O.J.O.J.+.Z ;X:X;.zXaX0.fX0.aXzX4XH.V.x.g.2 2 4 9 k l F.J.H.Z Z O.J.Z &XO.O.O.O.O.O.O.O.O.O.O.Z O.&XO.O.O.O.Z &XO.&XO.O.&XO.O.O.O.Z &XO.O.O.O.O.O.&XZ O.O.O.O.&XZ O.O.O.O.Z &XO.O.O.&XO.Z O.O.&XZ O.O.O.&XO.O.O.O.O.O.Z &XO.Z &XO.O.O.O.O.O.O.O.Z &XO.Z O.Z O.O.O.O.O.O.O.O.O.O.O.O.O.O.O.O.O.O.O.O.O.O.&XO.&XO.O.O.O.O.&XO.O.O.O.O.O.Z O.O.J.J.&XZ *X&X#.5X:.zX3.0.gX8.5.e.6X:XO.",
"v.4 2 a.h.x.N.Z.N H.O.J.Z J.J.O.O.&XO.&XO.O.O.O.O.O.O.O.O.&X&XZ O.O.O.&XO.O.O.O.O.O.O.Z O.O.Z &XO.O.O.O.&XZ O.Z O.&XO.O.O.O.O.O.O.O.O.O.O.O.O.O.O.O.O.O.O.O.O.O.O.&XZ O.&XO.O.O.O.O.O.O.O.Z O.O.O.O.O.O.O.Z O.&XO.O.O.O.O.&XO.O.O.O.O.O.&XO.O.&XO.O.O.O.O.O.O.O.O.O.O.O.O.O.O.O.O.O.O.O.O.O.O.O.O.O.O.O.O.J.O.J.O.*X;X-.6XpX3.fXfXiXy.3X+.x b.j.s.4 s.7 r V.z N Z J.O.O.O.J.O.O.&XO.O.O.O.O.Z O.Z O.O.O.O.O.O.Z &XZ &XO.&XO.O.O.&XO.O.O.O.O.O.O.&XO.O.O.O.O.O.O.O.O.O.O.O.O.O.O.O.O.&XO.O.O.O.O.O.Z &XZ O.O.O.O.&XO.O.O.O.O.O.&X&XO.O.O.O.O.O.O.O.&XO.O.O.O.&XO.&XZ O.O.O.O.O.O.O.O.Z O.O.O.O.O.O.O.Z O.O.Z O.O.&XO.O.&XO.O.O.O.O.O.O.O.O.O.O.O.O.O.O.O.O.O.J.+.=X;X$.6Xr.aXfXfXiXaXxX4XH.V.x.h.p.p.4 j.b.z N H.J.J.Z J.J.Z &XO.O.O.Z &XO.&XO.O.O.O.&XO.O.O.O.O.O.O.O.O.Z O.O.Z O.O.O.O.O.O.O.O.O.O.O.O.O.O.O.&XO.O.O.O.&XO.O.O.O.O.O.O.O.O.O.&XZ O.O.O.O.O.O.O.Z O.O.O.O.O.O.O.O.O.O.O.O.O.&XZ Z O.O.O.O.O.&XO.&XO.O.&XO.O.O.O.&XZ O.O.O.O.O.O.O.J.O.O.&XO.O.O.O.Z O.O.Z O.O.O.O.&XZ &XO.O.&XO.O.&XZ &XH.*X&X*X5X:.zX3.iX8.iX4.r.5X:X&X",
"x.4 s.s.h.v.N.M D.H.+.J.Z O.J.O.O.O.O.O.O.&XO.O.O.O.O.O.O.O.O.O.O.Z O.O.&XO.O.&XO.O.Z O.O.O.O.O.O.&XO.O.O.O.O.&XO.Z &XZ O.Z O.O.O.J.O.O.Z &XO.O.O.O.&XO.&XZ O.O.O.O.O.O.O.&XO.O.O.O.O.O.O.O.O.O.O.Z &XO.O.Z O.O.O.O.Z &XO.&X&XZ &XO.O.O.O.O.O.O.O.O.O.O.&XO.O.O.O.O.O.O.O.O.O.&XO.O.O.O.O.O.O.O.O.O.O.O.O.J.J.O.O.*X#.4X3XvX0.8.fXiXvX*.+.Z.B.7 s.4 2 h.x.V.A.F.Z C &XO.O.Z &XO.Z O.Z &XO.O.&XO.O.O.O.O.O.Z O.&XO.O.O.O.Z O.O.O.O.O.O.O.Z O.O.O.O.O.O.O.O.O.O.O.O.O.O.&XO.O.O.O.O.O.O.O.O.O.O.O.O.&XO.O.O.O.O.&XZ O.&XO.O.O.O.Z O.O.O.O.Z O.O.O.O.O.O.&XZ &XZ O.O.O.O.O.Z &X&XO.O.Z O.&XO.O.Z O.&XZ O.O.&XZ O.O.O.O.O.O.O.O.O.O.&XO.O.Z O.O.O.O.O.O.O.O.J.J.J.O.J.;X;X6XzXaXfX8.hXsXt.-.C z w g.p.p.s.j.B.l F.C J.Z Z O.J.J.&XO.O.&XZ O.O.O.&XO.&XZ O.O.O.O.O.O.&XO.O.Z O.O.O.O.Z O.O.O.O.O.O.Z O.O.O.O.O.Z O.O.O.O.O.O.O.O.O.O.O.O.O.O.O.O.O.O.&XO.O.O.&XO.O.Z &XO.O.O.O.O.O.O.O.O.O.O.O.O.O.O.&XO.O.O.O.O.&XO.O.O.O.O.O.O.O.&XO.O.O.O.O.Z O.&XO.O.O.O.Z O.O.O.O.O.O.O.&XZ O.O.O.O.&XO.O.&XO.O.O.J.J.Z O.*X*X#.;.:.zXiXfXfXhX5.t.6X;.O.",
"v.k.s.s.h.v.b.M M C O.J.J.J.J.O.O.Z &XO.O.Z O.O.Z &XO.O.O.O.O.O.O.&XZ O.O.O.O.Z O.O.&XO.O.O.O.Z O.Z O.O.O.O.O.O.O.&XO.O.O.&XO.O.O.O.O.O.O.O.&XZ O.O.Z O.O.O.&XO.Z &XO.O.O.Z O.O.O.&XZ O.O.O.O.&XO.O.O.O.O.&XO.O.&XZ O.O.O.O.O.O.Z O.O.O.O.O.O.O.O.O.&XZ O.Z O.&X&XZ O.&XO.O.O.Z O.O.O.O.J.O.O.O.O.O.O.O.J.O.O.J.O.#.#.4X3XvXaX8.fXjXy.3X+.Z.l 7 2 4 p.g.v.V.A.F.&XH.&XO.O.&X&XO.O.O.O.O.O.O.O.O.O.O.O.O.O.&XO.O.O.O.O.O.O.O.&XZ O.O.O.O.&XO.O.O.Z &XO.O.O.O.O.O.O.O.O.Z Z &XO.O.O.O.O.O.&XO.Z &XO.O.O.O.O.O.O.O.O.O.O.O.O.O.O.O.O.O.Z &X&XO.O.O.O.O.O.O.O.O.O.O.O.O.O.O.O.O.Z O.O.&XO.O.O.O.&XO.O.O.O.O.O.O.O.O.O.Z &XO.O.O.O.O.Z O.O.&XZ &XO.O.&XO.O.Z &XZ J.+.&X>X;X;.cXaXhXfXfXiXzX-.C l w 9 p.p.s.j.N.V.N C Z O.C &XJ.J.O.O.O.O.O.O.O.Z O.O.O.O.O.O.O.&XZ O.O.O.O.&XO.O.O.O.&XO.O.O.O.O.O.&XO.O.Z &XO.&XO.O.O.O.O.O.O.O.&XZ O.O.O.O.&XZ O.O.O.O.O.O.Z O.O.&XO.O.O.&XZ O.O.O.O.O.O.&XZ O.&XO.O.O.O.O.O.O.Z O.O.O.O.Z &XO.O.Z O.O.O.O.O.&XZ O.O.O.O.O.O.O.&XZ O.O.O.O.O.O.O.O.O.O.Z O.O.Z O.O.Z &XO.&XJ.+.O.;X5X:.zXiX3.fXiXaXzX=.$.Z ",
"w 7 4 2 j.y V.x D.C O.&XJ.&XJ.Z O.O.O.&XO.O.O.O.Z &XO.Z O.O.O.O.O.O.O.O.O.O.O.O.O.&XO.O.Z O.O.&XO.&XO.Z O.O.O.O.O.O.O.O.O.O.Z &XO.O.&XO.O.O.O.O.O.O.O.J.O.O.O.O.O.O.&XZ Z &XO.O.O.O.O.O.&XO.Z O.O.O.O.O.O.O.&XO.O.O.O.O.O.Z O.O.O.O.O.O.O.O.&XZ O.O.&XZ O.Z &XO.Z &XO.O.O.O.O.O.O.&XO.O.O.O.O.O.O.O.O.O.O.J.&XJ.O.#.#.:X:.pX3.fX8.fXe.3X*XZ.N.h.s.s.2 g.v.l z C O.H.O.&XO.O.&XZ O.&XO.O.O.O.O.Z O.O.J.O.O.O.Z O.O.O.O.O.O.O.O.O.O.&XZ O.Z O.O.&XZ J.J.O.O.O.O.&XO.O.O.O.O.O.O.O.O.Z &XO.O.O.O.O.O.O.O.O.&XO.O.O.Z O.O.O.O.O.O.&XO.O.O.O.O.O.O.Z Z &XO.O.O.O.O.O.&XO.O.O.O.O.O.&XO.O.O.O.O.O.O.Z O.O.Z O.O.O.O.O.O.O.O.O.O.O.O.&XO.O.O.&XO.O.O.O.O.O.O.J.O.O.J.+.Z #.$.5Xe.pXhX8.iXiXxX4XH.V.v.g.p.2 s.r N.V.H.C Z Z J.Z O.O.O.O.O.O.O.O.O.O.O.O.O.O.O.O.O.O.O.O.O.O.O.O.O.O.O.O.&XO.O.Z O.O.O.O.Z &XO.O.O.O.O.O.O.J.O.O.O.Z O.O.O.O.O.O.O.O.&XZ O.&XO.O.O.O.O.O.O.O.&XZ O.O.O.O.O.O.O.O.O.O.&XO.O.O.O.O.&XO.Z &XO.O.O.O.O.O.O.O.O.O.O.O.O.O.O.O.O.O.O.O.O.O.&XZ O.O.J.O.O.O.O.O.O.O.O.O.O.Z &XO.O.J.O.J.J.*X&X;X5X*.zX3.3.8.0.4.e.6X$.O.",
"v.s.s.s.7 r t M D.C O.&XZ J.J.&XO.&XO.Z O.O.O.O.O.O.O.&XZ O.O.O.O.O.O.O.O.O.O.O.O.Z O.O.&XO.O.O.O.O.O.&XO.O.O.O.O.O.O.O.O.O.O.O.O.Z Z O.O.&XO.O.O.O.O.O.O.O.O.O.O.O.O.O.O.O.O.O.O.O.O.J.O.O.O.O.O.O.O.&XO.O.Z O.O.O.O.O.O.&XO.O.O.&XO.O.&XZ O.O.O.O.O.O.O.O.O.O.O.O.O.O.O.O.O.&XO.Z O.&XZ &XO.O.O.Z &XZ O.&XZ J.O.*X:X4Xr.vX3.fX8.8.4.3X;Xx B.7 4 s.s.h.w z Z.H.Z C O.O.O.O.O.&XO.Z O.&XO.O.O.&XO.O.O.O.O.O.&XO.O.&XZ O.Z O.&XO.O.O.O.O.&XO.O.O.&XO.O.O.O.O.O.O.O.O.O.O.O.O.O.O.O.&XO.O.O.O.O.O.O.O.O.O.O.O.O.O.&XO.O.O.O.O.O.Z O.O.O.O.O.O.O.&XO.O.O.O.O.&XO.O.O.O.O.O.O.O.O.O.O.O.O.O.O.&XO.O.&XO.&XO.Z &X&XZ &XO.O.O.O.O.O.O.O.O.O.Z O.O.O.O.O.O.O.&XO.O.J.+.Z #.$.;.zXpXfXfX3.3.cX5XH.V.x.s.p.a.s.j.N.N.C F.J.J.J.J.&XO.O.O.O.&XZ O.Z O.O.O.Z &XO.O.O.O.O.O.O.O.Z &XO.O.O.O.Z O.O.&XO.O.O.O.O.O.O.Z Z O.O.O.O.O.O.O.O.&XO.O.O.O.J.O.O.O.O.O.O.Z O.O.O.&XO.O.O.O.O.O.O.O.O.O.O.O.Z &XO.O.Z O.O.O.O.O.O.O.O.O.O.O.O.O.Z &XO.O.O.O.O.O.Z &X&XO.O.O.O.O.O.O.O.O.O.O.O.O.O.&XO.O.Z &XO.O.O.O.O.O.O.&XZ &XJ.+.O.+.5X:.zX0.hX8.0.4.cX>.:XZ ",
"r 7 2 2 8 w l x F.N &XZ J.O.J.Z O.O.O.O.O.O.O.O.O.O.O.O.&XO.O.O.O.O.Z &XZ &XO.O.O.O.O.&XO.O.O.&XO.O.O.O.O.O.O.O.O.O.Z O.O.Z O.O.O.&XO.O.O.O.&XO.O.O.O.O.O.O.O.O.Z O.O.O.O.O.O.O.O.O.O.O.Z O.O.O.O.O.O.Z &XO.O.O.O.O.O.O.&XO.&XZ O.Z O.O.O.O.O.O.O.O.O.O.&XO.O.O.O.O.O.O.O.O.O.Z O.Z O.O.&XZ O.O.O.&XO.O.O.O.J.&XO.;X#.4Xr.vX3.fXfX0.4.6X*XZ.b.h.4 s.2 h.v.B.A.F.&XH.O.&XO.O.&XZ O.O.O.O.O.O.O.O.O.O.O.&XO.O.O.O.O.O.O.O.O.&XZ O.O.O.O.&XO.O.O.O.O.O.O.O.O.O.O.O.O.O.O.O.O.O.O.O.O.O.O.O.O.O.O.O.O.O.O.O.O.O.O.O.O.O.O.&XO.&XO.O.O.Z Z O.O.O.O.O.O.O.O.O.O.O.O.O.O.O.O.&XO.&XO.O.Z &XO.O.O.O.&XO.O.O.O.O.O.O.O.O.O.O.O.O.O.O.O.O.O.O.O.O.&XO.O.O.O.O.O.J.O.O.J.&XO.#.;X>.cX4.8.8.hX3.t.4XH.C.x.h.p.p.4 v.N.V.N F.J.J.J.J.Z O.O.J.O.O.O.O.&XO.&XO.O.Z O.O.Z O.Z Z O.O.O.Z O.O.Z O.O.O.O.O.Z &X&XO.O.O.O.&X&XO.O.O.O.O.O.O.O.&X&XZ O.O.&XZ O.O.O.O.O.O.O.O.Z &X&XZ O.O.O.O.O.O.O.O.O.O.O.O.&XZ O.O.O.Z &XO.O.O.O.O.O.O.O.O.O.O.O.&XO.O.O.O.O.&XZ O.O.O.O.O.O.O.O.O.O.O.O.O.Z O.&XO.&XZ O.O.O.O.O.O.O.J.Z &XZ *X+.*X-.*.e.5.3.8.0.4.xX6X4XO.",
"w h.4 2 8 v.t M N H.O.&XZ O.J.&XO.Z &XO.O.O.Z &X&XO.O.O.O.O.O.O.O.O.O.O.O.O.O.O.&XO.O.Z O.O.O.Z Z O.O.O.Z &XO.O.O.O.&XO.O.&XO.O.O.O.O.O.Z O.O.O.O.O.O.O.O.O.O.O.&XO.O.&XO.O.O.&XO.O.O.O.&XO.O.O.&XZ O.O.O.O.Z &XO.O.Z &XO.O.O.O.O.O.O.O.O.O.&XZ O.O.O.O.O.O.Z &X&XO.O.&XZ O.O.O.O.&XO.O.O.O.O.O.O.O.O.O.O.O.O.Z O.*X#.:Xr.y.iXhX8.iX4.3X+.Z.B.h.s.p.p.h.r l A.H.&XC O.&XO.O.&XZ O.&XZ O.O.O.O.O.O.O.O.Z O.O.O.O.O.O.O.O.O.O.&XO.&XO.O.Z O.&XZ O.O.O.O.O.O.O.O.&XO.O.O.O.&XO.O.O.O.O.O.O.O.O.O.O.O.O.O.&XO.O.O.O.O.O.O.O.O.Z O.O.O.&XO.O.O.O.O.O.O.O.O.O.O.O.O.O.Z Z O.O.O.Z O.O.O.O.&XZ O.O.O.O.O.O.O.O.O.O.O.O.&XO.O.O.O.O.O.&XZ O.O.O.O.O.O.O.O.O.&XZ O.O.J.*X&X#.$.;.t.3.0.8.3.3.t.$.C V.v.s.a.p.g.j.N.N.H.H.J.J.Z J.O.O.O.&XO.O.O.O.O.O.O.Z &XO.&XO.&XO.&X&X&XO.O.&XO.O.&XO.O.O.O.O.O.O.Z O.O.&XO.O.O.O.&XZ O.O.O.O.O.O.O.O.O.O.O.O.O.O.O.O.O.O.O.O.O.O.O.O.O.O.Z &XO.J.O.O.O.Z &XO.O.O.O.O.O.&XZ O.O.O.O.Z Z &XO.O.&XO.O.Z O.O.O.J.O.O.O.O.O.O.O.J.O.O.O.O.O.O.O.O.O.O.O.O.O.O.O.O.O.O.O.&XO.J.Z O.J.*X&X*X5X6Xe.hX0.8.8.aXe.>.-.Z ",
"v.7 4 s.j.v.k Z.N C O.J.Z Z J.&XO.O.O.O.O.O.O.O.O.Z O.&XO.O.O.O.O.O.O.&XZ O.O.O.Z O.O.O.O.O.O.O.&XO.O.O.O.O.O.O.O.O.Z O.O.Z O.O.O.O.O.&XO.O.O.O.O.O.O.O.O.O.O.O.O.O.O.O.O.O.O.Z O.O.&XO.O.O.O.O.O.O.O.O.O.O.O.O.O.O.O.O.Z &XO.O.O.O.Z O.O.O.Z O.Z O.O.O.O.&XZ O.Z O.&XO.&XO.O.O.O.O.O.O.O.O.O.O.O.O.O.O.O.O.O.O.O.*X#.4XxXvX3.2.0.iXe.3X*XZ.N.8 s.4 p.h.w V.A.C Z C +.Z O.O.O.&XO.O.&XO.Z O.O.O.O.O.O.O.O.Z O.O.O.&XO.O.O.O.&XO.O.Z O.O.O.O.O.O.J.O.&XJ.J.Z Z Z &X&XZ &XO.Z O.J.Z &XJ.O.&X&XZ J.O.O.&XZ J.&XZ Z O.O.O.Z Z Z &XO.&X&XZ J.Z O.O.O.J.&XJ.J.&X&XZ J.O.O.O.O.O.O.O.&XO.O.O.O.O.O.O.O.Z &XO.O.O.O.O.O.Z &XO.Z &XJ.&XZ &XO.O.O.O.O.O.O.O.Z O.Z O.O.O.+.O.#.%.>.e.6.9.9.q.6.t.%.C C.w s.d.a.g.v.N.V.F.H.C J.J.J.Z &XZ O.O.O.O.O.O.O.O.O.O.O.O.O.O.O.O.O.&XZ O.O.Z O.O.O.&XZ O.&XO.O.O.O.O.O.&XO.O.O.O.O.&XZ O.O.O.&XO.O.O.O.O.O.Z O.O.O.O.Z &XO.O.O.&XO.&XO.&XO.O.O.O.O.O.&XO.O.O.Z &XO.O.O.O.O.Z O.O.&XO.O.O.O.Z O.O.&XO.O.O.O.O.O.&XZ O.O.O.O.O.O.O.O.O.O.O.O.O.O.O.O.O.O.O.O.O.O.O.Z O.&XO.O.Z &XO.#.5X6Xe.hXiX8.8.iXt.5X4XO.",
"w 7 2 2 7 r b.Z.D.H.&X&XH.&X&XO.O.O.&XZ Z O.O.O.O.O.O.O.O.O.O.O.&XO.O.O.O.O.O.&XO.O.O.O.O.O.O.O.O.O.O.O.O.O.J.O.O.O.&XO.O.&XO.O.O.O.O.Z O.&XZ O.O.O.&XO.O.O.O.Z O.O.O.O.O.O.O.&XO.O.Z &XO.O.O.O.O.O.O.O.O.O.O.O.O.Z &XO.O.O.O.O.O.O.&XO.O.O.&XO.&XO.O.O.O.O.O.O.O.O.O.Z O.Z O.O.O.O.O.O.O.O.O.O.O.O.O.O.O.O.O.O.O.;X#.:Xr.y.aX0.8.fXy.3X+.Z.l h.4 a.2 8 r l A.C &XH.&XJ.O.O.&XO.O.O.Z O.&XO.O.O.O.O.O.O.O.O.&XO.O.Z O.O.O.O.Z O.O.O.&XZ O.O.O.O.O.J.J.J.&X&XO.O.O.O.O.O.O.O.O.O.&XO.O.O.O.O.O.O.O.O.O.O.O.O.O.O.&XO.O.O.O.O.O.O.Z J.Z &X&XO.O.&XO.O.O.Z O.O.O.O.O.&XO.O.O.O.O.O.O.O.J.O.O.O.&XZ O.O.O.&XO.O.O.O.J.Z O.O.&XZ J.Z O.O.&X&XO.O.O.O.&X&XO.O.O.O.J.*XJ.;X4X6Xe.5.0.8.0.5.r.-.F.B.9 s.a.p.s.x.N.V.H.J.J.J.Z J.O.O.O.Z &XZ &XO.O.O.O.O.O.O.O.O.O.&XO.&XO.O.O.O.&XO.O.O.O.O.O.O.O.O.O.O.O.Z O.O.O.O.O.O.O.O.O.O.O.Z O.O.O.O.O.O.O.&XO.O.O.O.O.O.O.O.Z O.O.Z Z O.O.O.O.O.O.O.O.O.O.&XZ O.O.O.O.O.&XO.O.O.O.O.O.&XO.O.O.O.O.O.O.O.Z O.O.O.&XZ &XO.O.O.O.O.O.O.O.O.O.O.O.O.O.O.Z &XO.&XO.O.O.O.O.O.Z *X+.*X;.:.e.0.3.8.2.aXe.>.-.O.",
"x.8 4 p.h.r B.D.M H.&X&XJ.O.Z O.O.O.O.Z &XO.O.O.Z O.O.O.O.O.O.O.Z O.O.O.&XO.O.Z &XO.O.O.Z O.O.O.O.O.O.O.O.O.Z O.O.O.O.O.O.&X&XO.O.O.Z O.O.O.&XO.O.Z Z O.O.O.O.O.O.O.O.O.O.O.O.Z O.O.O.Z O.O.O.O.&XZ O.O.O.O.O.Z O.&XO.O.O.Z O.O.O.O.&XZ O.O.O.O.&XZ O.O.O.O.O.O.O.O.O.O.O.O.&XZ O.O.Z &XO.O.Z &XO.O.O.O.O.O.O.O.Z ;X#.4X*.4.5.hXhXiXpX3X*XD.N.h.4 a.2 g.v.z V.N &XJ.O.&XO.O.O.Z &XO.Z O.O.O.O.O.&XO.O.O.O.&XZ O.O.Z O.O.O.O.O.O.&XO.O.O.O.O.Z O.O.O.O.&XO.O.O.O.&X&X&XO.O.O.&X&XO.&X&X&X&X&X&X&XO.O.O.O.O.&XO.O.O.O.O.O.O.O.O.O.O.O.&XO.Z O.O.O.O.&X*X&XO.O.&XO.O.O.Z &XO.O.Z O.O.O.O.O.O.O.O.O.O.O.O.Z O.O.O.O.&XO.O.O.&XO.O.&XZ O.Z O.O.O.O.O.Z Z O.Z Z Z Z O.O.:X4X>.e.5.q.8.q.y.r.$.N B.j.s.d.p.k.c.N.V.C N J.J.J.&XO.O.O.O.Z &XZ O.O.O.O.O.Z Z Z Z Z Z Z Z O.O.O.O.O.O.O.O.O.O.O.O.&XO.&XZ O.Z O.O.Z &X&XZ O.O.O.O.Z O.O.O.Z &XO.O.O.O.&XZ O.Z O.O.O.O.O.O.O.O.O.O.O.O.O.O.O.&XO.O.O.O.O.O.O.O.Z &XO.O.O.O.O.O.O.Z O.O.Z O.O.O.O.O.&XO.O.O.O.O.Z O.O.O.O.O.O.Z O.O.O.O.O.O.O.&XZ O.Z O.&XO.O.O.O.O.Z O.&X;X5X:.zX3.iXgXiXpXcX5X4X=X",
"w 4 4 2 8 v.b.x D.C O.J.Z O.Z Z J.&X&X&X&XJ.O.J.&XO.O.O.O.O.O.O.O.O.&XZ O.O.O.O.O.O.Z &X&XO.O.O.O.O.&XZ O.O.&XO.O.O.O.O.O.O.Z O.O.O.&XO.O.O.O.O.O.&XO.O.O.O.O.O.&XJ.&XJ.&XJ.&X&X&XJ.&X&X&XJ.&XJ.&X&X&XJ.J.&X&X&XJ.&XJ.&X&X&XJ.&X&XJ.&X&XJ.&X&XJ.&X&XJ.&X&XZ &XO.&XJ.&X&X&XJ.&X&X&XJ.&XJ.&X&XJ.&X&XO.O.O.O.O.O.O.C +.:X4XxX4.3.0.8.iXpX6X;Xx k g.s.2 2 9 r z x B J.C O.&XO.O.&XJ.O.O.&XO.O.Z &XO.Z O.O.O.O.O.&XO.O.&XO.O.O.O.O.&XO.O.O.O.O.O.&XO.O.O.O.o.Z Z Z Z V Z Z V Z Z Z Z Z V Z Z V Z Z V Z V O.Z Z Z Z Z Z Z Z &XO.&XO.&XO.O.Z Z Z o.Z Z Z Z O.L.S -XL.S Z Z Z O.O.O.O.&XO.O.O.O.O.O.O.J.O.O.O.O.O.J.O.O.O.O.Z Z Z Z Z V Z Z O.O.O.O.O.O.O.O.O.Z O.Z Z +.C #.-.>.e.6.q.9.6.6.r.%.N b.j.s.a.p.g.v.C.C.H.Z J.J.J.Z O.Z Z Z O.O.O.O.O.O.O.O.O.O.O.O.Z O.O.O.Z &XO.O.O.O.O.&XZ O.O.O.Z O.O.&X&X&XJ.&X&XJ.&X&XO.O.O.O.&XO.O.O.O.O.O.O.O.&XO.O.O.&XO.O.O.O.O.O.&XO.O.O.O.O.Z &XO.Z O.O.O.O.O.O.&XO.O.O.O.O.O.&XZ O.O.O.O.O.O.&XO.O.O.O.O.&XO.&X&XJ.&X&X&XO.O.O.&X&X&X&X&XO.O.Z O.O.O.O.O.O.O.O.O.O.O.O.Z +.O.+.5X*.zX2.iXfXfXpXcX>.-.J.",
"r s.4 4 4 e k x M C O.O.V O.Z Z Z O.Z V O.O.V Z Z &XZ O.O.O.O.O.O.O.O.O.O.O.O.O.O.&XO.O.O.O.O.O.&X&X&X&X&XO.O.O.O.O.O.&XO.O.O.&X&XO.Z O.O.O.Z &XO.O.Z O.O.O.Z Z V O.Z Z V Z Z Z o.O.O.o.O.o.O.Z Z O.Z O.o.O.o.O.O.V Z Z O.V Z Z O.o.O.o.Z O.o.O.O.o.O.O.o.Z Z O.Z O.O.o.O.O.o.O.O.O.o.O.O.o.O.V Z O.O.o.Z Z O.O.O.+.#.-.r.y.5.8.8.8.e.r.+.M t 8 s.p.4 g.w V.A.N Z C Z Z O.O.O.O.O.O.&XO.O.O.O.O.O.O.&XJ.O.O.O.O.O.Z &X&XO.O.O.Z O.O.O.O.O.O.O.O.J.J.&XO.O.O.O.O.J.&X&XO.O.&X&XZ Z &XZ O.O.Z O.Z O.O.O.Z O.O.O.O.Z Z Z O.O.&XJ.J.O.O.O.o.&XO.O.O.O.O.O.&X&XJ.&X&X&XZ O.O.O.&XO.Z &XO.O.&XZ O.Z Z O.O.O.O.O.O.O.&X&XJ.O.J.Z O.Z Z Z &X&X&X&X&X&X&XZ &X&X&XJ.&XJ.;XZ @.5X>.t.3.9.9.q.4.r.%.M b.x.4 a.a.s.n.C.V.H.H.&XJ.J.J.O.O.&XJ.&X&XO.&XO.&X&X&XJ.J.=XO.&X&XJ.J.O.O.Z &X&XZ O.&X&XJ.O.Z O.*XO.V Z Z o.O.o.Z Z J.J.J.&X&XJ.J.Z Z J.J.J.&X&XO.O.O.&XO.O.O.O.O.O.O.O.O.O.O.O.O.O.O.O.O.O.O.O.O.O.&XZ O.O.O.O.O.O.O.O.O.&XO.&XO.O.Z J.Z &XJ.O.O.O.o.Z O.o.O.O.o.O.O.Z o.Z Z Z O.O.O.O.O.O.O.Z O.&XZ &X&XZ &XZ +.+.+.;.r.y.5.q.8.2.5.r.>.-.V ",
"r 8 4 4 8 r l M N F.O.O.Z O.&XJ.Z O.O.&XO.O.Z O.O.O.&XO.O.&X&XO.Z O.O.O.&X&XO.O.Z Z O.O.O.J.O.&XZ Z Z Z Z O.O.O.&XZ O.&XO.O.J.Z &X&XO.&X&X&X&X&XJ.&X&XO.&X&XO.&XO.O.O.&XO.O.O.O.O.Z Z O.O.O.O.&XO.O.&XO.Z O.O.O.&XO.O.O.&XO.O.&XO.O.O.&XO.O.O.O.O.O.O.O.O.O.O.O.O.O.&XO.O.O.Z Z Z &XZ Z Z O.O.&XO.O.&X&XZ Z &XO.&X*X#.-.*.y.aX8.3.hXe.3X+.D.t 7 4 p.2 g.v.z Z.F.Z J.O.C &XO.Z O.O.O.Z &XO.O.O.O.O.O.Z J.O.O.O.Z &XZ J.Z &XZ &X&XO.O.O.O.O.Z O.O.Z V Z &XO.=XJ.=X=X&XJ.&X&XJ.&XJ.&X=X=X&X&X=X=X&X&X=X=X=X&X=X&XJ.=X=XZ Z O.V o.o.Z O.L.-XL.&XJ.-XJ.J.J.J.J.J.J.J.&XK.O.Z J.Z &X&XJ.J.J.J.J.J.J.J.J.J.J.&X&XJ.J.J.&X&XJ.J.&X&X=X=X&XO.Z O.V O.O.V J.Z O.&XJ.&XH.*X&X#.;.=.y.3.8.2.5.4.=.$.M b.h.k.p.p.h.t z x C B J.&X&XJ.&X&X=X&XZ Z o.O.O.o.Z Z o.O.O.O.Z Z Z Z &XZ O.O.Z &XO.Z O.o.Z O.O.C Z O.O.O.O.O.Z &XO.Z o.O.O.o.o.O.Z Z O.Z o.O.Z Z Z O.Z O.&XJ.Z &XJ.Z O.O.O.O.O.O.O.O.O.O.O.O.O.O.O.O.&XJ.J.&XJ.&XO.J.O.O.Z O.O.&X&X&XO.O.&XZ O.Z &XJ.O.O.O.Z O.O.O.O.O.O.O.Z Z &X&X&X&XZ O.&X&XO.O.&XO.Z O.&XZ &X&X*X-.:.e.5.8.8.iX4.t.>.4XZ ",
"w 8 4 4 9 w N.x F.H.O.&XJ.&XJ.J.O.O.J.J.J.&XJ.J.&XJ.Z Z Z J.Z J.O.O.O.O.O.O.O.O.&XO.O.O.O.O.Z O.&X&X&XO.O.O.O.&XO.O.O.O.O.Z O.O.&XO.O.O.O.Z Z Z Z &XZ Z O.Z Z &X&X&X&X&X&X&XO.&X&X&X&X=X&X&X&X&XO.&X&X&X&X&X&X&XJ.&X&X&X&X&X&X&X&X&X&X&X&X&XO.&X&X&X&XO.&X&X&X&X&X&X&X&X=X&X&X&X&X&X+.O.&XO.&X&XO.O.O.&X&XJ.&X&X&X*X#.-.xX4.aX8.0.0.vX3X+.x l g.h.p.4 h.x.V.D.M J.H.Z J.Z Z =XZ O.&XO.&XO.O.O.O.&XO.O.O.O.O.O.O.O.O.O.&X&XO.Z O.O.O.O.O.O.&X&XO.O.O.O.V V V o.V o.o.V o.o.o.O.o.V V Z V o.V V V V o.o.V o.o.o.o.V V O.O.O.O.O.Z O.O.o.o.o.@.S H.A Z O.o.O.o.O.O.Z Z O.O.Z o.O.o.O.o.O.O.O.o.O.@.O.o.O.o.O.o.o.O.O.o.V o.V V V V C O.O.O.O.O.Z &XZ Z Z o.Z o.Z #.O.%.,.u.u.w.w.w.w.y.:.%.x B.h.4 2 p.8 e z z N Z V V V V o.O.o.V O.O.O.O.O.Z Z Z Z Z O.O.O.Z Z O.&XZ O.O.O.O.O.O.O.O.O.O.V Z Z *X&XJ.=X=X&X&X+.Z J.O.Z &XZ J.J.J.O.Z O.Z C Z Z &XO.O.O.O.O.O.O.O.O.O.O.O.+.Z O.Z Z &XZ Z &XJ.O.Z O.O.O.Z Z O.O.&X&X&XZ J.Z Z Z O.O.O.O.Z &X&XJ.&X&X&XO.&XO.&X&X&XO.Z &X=X&XO.O.O.O.&X&XZ Z &X&XZ J.Z J.O.&X*X&X#.5XxXzX3.hX8.iXaXe.6X4XZ ",
"r 8 4 3 4 y t x D.H.O.O.J.&X&XJ.O.O.&X&XJ.O.O.O.O.O.O.O.&XO.&XJ.J.&X&X&X&X&XO.O.Z O.Z Z Z Z Z Z Z Z o.O.Z Z O.Z Z Z O.Z Z Z O.&XJ.&X&XZ J.J.=XZ &X&XO.O.O.&XO.O.&XZ O.J.&XZ Z O.&X&XO.Z O.O.O.O.O.O.O.O.&XO.O.O.&XJ.J.J.&XZ J.J.O.Z J.&X&XZ &XO.&XZ O.O.O.O.J.&XO.Z O.O.O.O.Z O.Z J.Z O.&X&X&XO.J.O.Z &XJ.J.&XO.&X#.#.-.*.4.3.8.0.2.y.:.%.x l 8 4 s.3 8 r z x B &XC *XZ O.O.Z &X&X&XJ.J.J.=XJ.J.O.O.O.O.O.Z O.O.Z Z Z Z Z Z O.Z O.Z C =XJ.&XZ =X&X&X&XZ O.Z O.Z Z Z Z O.Z Z O.O.@.O.O.O.O.O.O.O.O.O.@.V V O.V Z Z V @.O.V O.O.O.o.o.O.o.V O.O.o.V Z o.O.o.O.o.O.Z V V O.Z Z Z Z o.Z O.Z O.O.Z Z Z Z Z Z Z Z O.Z O.o.O.Z o.O.o.O.@.V O.o.o.O.O.V Z Z Z O.Z O.Z #.V #.;.r.7.5.q.q.w.u.>.X.M t 0 4 p.p.8 w l x A V O.C Z Z O.O.O.o.Z Z Z Z O.O.J.Z J.J.=XJ.&X&XZ J.Z Z Z O.O.Z Z &XJ.J.&XJ.&X&XZ C O.o.V V Z C Z J.J.J.&XJ.J.J.J.K.&X=X&X&X*X=X+.C Z V Z Z O.Z O.V O.O.O.Z Z Z Z Z Z Z Z O.O.O.Z Z o.O.Z Z Z Z J.J.Z J.&XJ.&XJ.J.J.O.O.O.O.O.O.&XO.O.O.O.O.O.O.O.O.&X&XO.J.Z O.Z &XO.O.Z &X&XZ Z Z +.J.&XO.&X&X&X;X-.:.y.8.3.8.3.5.e.6X-.Z ",
"y 7 5 5 0 e y x B C O.O.Z O.V Z Z V C Z Z Z O.O.O.o.O.O.O.O.o.O.o.o.o.V o.o.o.o.o.o.o.o.V o.o.o.o.o.V o.V o.V n V o.o.V o.V V o.o.o.o.V V V V o.O.O.Z Z Z Z Z Z O.O.V Z Z V O.O.Z Z Z V V O.O.Z o.Z Z Z Z V Z Z o.O.O.o.o.O.O.o.o.O.O.o.O.O.o.O.Z V O.O.o.O.o.O.o.O.O.Z Z Z V Z O.O.O.O.O.V Z V O.o.o.O.Z Z &XO.V +.%.;.u.y.6.q.9.0.7.>.@.M k 0 5 5 5 0 e u x B C V o.Z V V V o.o.o.V o.o.o.V V V o.o.o.o.n  .o. .@.o.o. .V o.o. .o.o.o.V V  .o.n V V o.O.O.O.&XO.O.O.o.V Z o.o.o.O.o.o.o.o.Z V V Z V V V V V Z o.@.| n n b  .b m m V V V V V Z o.o.V V o.o.V V  . . .n  .o. . . .n  . . .n n n  .o. .n  .n  .n  . .V o. .o.o.o. .n b n b  . .b n b m b b b m ....-.,.,.7.w.w.w.7.7.>...B t e 6 5 5 q u u c v v O.Z V A Z V O.O. . . . . . . .n  .n b  .n n n n  . . . . . .n o.V o.V V o.o.o. . . . . . .n A @.V o.o.o.V V V o.V V Z V V V o.V o.o.V o.V o.o.o. .o.V o.o.V o.o. .o.o.V o. .o.V o.o.o.V V o.o.@.o.V V o.Z V o.O.Z Z Z Z o.O.Z o.Z O.O.Z V Z Z Z O.Z V C Z &XJ.J.&XJ.J.J.Z Z &XO.Z Z O.O.Z *X+.%.;.:.y.6.8.9.q.y.e.>.-.O.",
"e 4 2 3 8 e t c B C O.@.V o.Z Z O.@.O.O.Z o.O.o.V Z V o.o.o.o.V O.O.O.O.O.O.O.O.O.o.O.Z Z O.o.O.Z V Z Z Z Z Z Z O.Z V Z O.Z V Z O.O.O.O.O.O.O.Z V o.V Z V V Z J.O.o.Z Z Z Z O.o.Z o.O.O.O.O.o.V V O.V O.O.Z O.V O.o.o.Z O.O.o.O.Z Z o.Z O.V Z o.Z Z O.o.O.V O.O.O.O.o.O.o.O.o.O.V Z o.O.O.O.o.O.Z Z V o.V V o.O.O.#.$.;.r.y.6.q.0.q.y.=.+.M k 0 3 4 2 5 t l x B C A *XV O.Z O.O.O.O.O.O.O.O.o.O.Z O.O.O.Z Z O.O.Z Z Z V Z V o.Z V o.o.V  .n  .|  . .| b b b g g ] | | b | g | | b g ] | | | | ] | | | | | | | | | n  .|  .b n n  .| | ] ] ..g S | ] ] h ] h g g ] ] g g g g g ] ] ] ] g g ] ] g ] h g ] b g ] ] ] ] h h ] h h h b |  . . . .|  .| | |  .b ..g X.[ { } i.i.1.w.w.7.u.,.o.v z e e 5 6 q u c c v v ] g b | | b | |  .|  . . .b n b | |  .| b b n b b  . .n  . .b b  . .n n n n  .o.V V V o.V  .V S b n n | | n | b b n | n m b  .O.Z V V Z V V O.O.Z Z Z Z Z Z Z Z O.O.Z Z O.O.Z Z Z Z Z Z o.C C Z O.O.O.O.V Z V Z o.V V Z V C Z Z O.V V O.O.Z V Z O.o.@.O.V Z Z V o.o.V V Z J.=XZ &X=X&X*XO.o.Z %.;.>.y.q.q.q.5.7.u.>.$.Z ",
"u 7 5 5 5 u u x v B n o.A o.o.o. .o. . . .n b  .n  .n n  . . . .n  . .| n b n |  .n |  . . . . .S S n b |  . . .b  . . . .n n n n b b n b b n n b n n n n n n m o.V n V V o.V o.o.o. .o. .o.o. .o.n n V o.o.V n V O.V o.o. .V o.o.o.o.o.o.V o.o.o.V o.V  .V o.n  . .V n n o.o. .V V V o.o.Z V Z o.O.O.O.Z V o.V o.@.-.X.u.7.w.w.w.q.u.r. .N t 9 0 6 6 q u u v j S V n n  .n n  .| b |  .| | |  .n |  . .n  . . .b b b  .| | b | | ] | ..X.[ [ ] ] ] ] d [ ` [ ` ` d d h h ` d h h ` ` h h [ h ` ` [ ` ` d _ _ ` ` s ` ` _ ` s ` ` ` ` d d _ a ) _ _ _ _ _ _ _ _ ) ) ) ` _ _ _ ) s _ _ d ` s _ _ _ ) ) _ ` ` ` _ ` a _ d ` d ` d f s s _ a s ` d _ s s ` ` ` s ) ^ { } <.1.1.1.w.7.i.,.+.B u q q 1 6 q 1 p p f f a f d h ` ` d d h h h h [ h [ g ] h h ] [ h h h h h h d h h h h h f [ ] [ h h h [ [ h h h ] ] [ ] g h g g g g g [ h h g g b g g g m  . .b n b n | b | b b b b b S b b b ] | b n  . .S o. .n n  .b n  . . . .S S n n n n n V V V o.n o.o.@.V V o. .o.V n n V o.O.O.V Z o.o.o.n  . .n n  .V V O.%.,.r.y.7.q.9.7.y.t.>.%.Z ",
"u q q 6 q q p c j m ] b m | b b | | | | | ] g b | ] ] ] ] ] ] ] [ ] ] h [ h [ ] ` [ ` d ` d ` ` ` ` d d d d ` s d ` d d h h d [ ] [ h h ] ] [ [ h g h g b b g g ] b g g g | | ] ] b g | b b | g | b b g b  .b b b  .| b | b b ] g g b ] b ] b g g | ] | g ] ] | b ] g b g | | g b g b b b b b b S ..| b b  . .| | X.{ ,.i.7.w.w.7.7.7.,.@.A u 0 q 6 6 q i i j p j g ` [ [ h [ ` h [ h h [ h [ h [ [ ` ` d ` ` [ [ [ s [ [ ` ` ` ` _ ) ) ) ` ` ) ) ) ) ) ) ) ! ) ) ; : ~ ) : : ~ : ! : ! Q : ! : Q ~ Q Q Q W W : W Q ; W Q ; ; : ; ; W : Q Q Q ! Q ! W ; : W ; W ! ; ; ; : ; : ; W : ; ; ; ; : ; Q ; ; : W W ; W W W ; ; Q W ; Q ; ; ; ; W W W W Q ; : ! W W W ^ ^ Y / ( ( 1.1.1.i.i.&...v c u q 1 1 1   < < * = , > : Q ; : : : > > : ! : ! : : ! : ! : ! : : : ) : ) _ a s _ : : s s : _ _ ! : : : : ! : : > _ ! ! : : a : s s s d a d s d d f d d d d d ` d [ ` ` ` ` ` ` ` ` d d f d [ [ h f d d h d [ h ` ` h d h h [ ] ] | h g g b g b g | g b b b b b  .n n n n o. . .b | b n m S n n  .n n V  . ...] X.&.&.u.i.w.w.9.7.y.u.;.%.Z ",
"y q q 6 6 i i p j j d h d h ` ' d [ ` h [ [ ` ` ` ` _ _ _ ) a _ a _ a ` ) ) ) ) ) _ ! ! ! _ ) ! ! ! ! : : : : > : : s : s a a _ : s s _ s a f d h d f f d d h ` d [ [ d f h [ ` [ h [ [ [ h h [ h [ h [ h d h h h ' [ h [ [ h ` [ [ h [ ` h d [ ` [ ` d ` ` h ` ` ` h d ` ` [ d h h [ d h h f h [ [ h [ g h [ [ [ { { } <.i.w.w.w.7.u.,...A c q q 6 q 1   D < , f : _ _ s s s _ _ ) ) a _ ) ) ) ) s _ ) : ! ! ! ) ) a ) ! ! ! ! ^ ; W ~ ~ E R W R R R = % E P R I % I I % P P R R = P R % P P P P I P I P $ P P $ $ P $ P I % # $ % P P $ $ P P % $ P P $ P $ P P P $ $ $ $ L P P $ $ # H P P $ # % $ $ # L # P # I $ $ $ $ P % % # $ # $ % % $ I I $ $ L I P U Y Y T T T ( ( <.i.} X...v c u i 1 1     @ * * * % $ $ % P % % P % = % % R R o = R % P R R R = = R % % % = R = = = = R R R R R R % I ; % % R % I W = = = = = = = ; % = ; ; > > ; > : : : ; ! ! : : ! ! ! : : ! ! Q ! > > : ! : : : : : : s : _ _ ) a s : _ _ _ a d f a d d d d d [ d h ` s d d s [ d f d d ] h h h ] ] [ d ` ` ` ) [ d d [ [ { { { } 1.7.w.w.i.7.u.,.%.V ",
"k u q 1 1 D D < , , : ! > > ! Q Q Q Q W ; W W W W W E W R R R R I R = R I R I I R W R I % % % R E I I I P % % % R - & = - R = % R R = = R - % - = = - = ; ; ; W W : : ; : : Q : ! : ; Q Q : : Q : : : : Q : ! : > ! ! ! Q W : ! ! : : ! ! ! Q ! Q Q Q : ! : ; : W : : : Q : : ; > > : > ; ! : s : a : ) a : ^ ! ^ ^ ^ / ( ( 1.1.1.1.u.,. . .c u 1 q 1 1   D , < - > ; W ; W ; W W ; W = = W ; R I R % R % ; W I % I = U I I U I U % P P U L L L H J J P H H U o L L L # o H # o o H H . H o H H H F o H L F L F # F F H H F . o . H H H F L H . H H L H H F F . . . H . H o . H . . F . . F o . J F F F F H H F . . F . . F . . . . o F o . F F H o L H L F H H G Y K T T T ( <.i.} X. .m c i i 1 1 @ @ * + * O & O O o # # # H o o o o o o H H o o o o o o o o L o # # H o o o L o # H L o L P $ # # $ $ $ $ $ L L # # $ o o # # & # & # & & $ & & & % % % % % I $ I % P I % $ $ R = % P = % % & - > ; = = ; ; ; ; ; = = ; ; ; = > > - > > ! > ; > ; : > : : > : ! : ! : : : : : : : s s s s f a ) ` a ) ) ~ { / 1.( 1.1.1.7.i.,.,.X.V ",
"p D 1       @ * * * = P R E P P P P P P P P U U L I U P L L P L # L L H . L L H H H H F L . . L H . . # # # o # o o o o o & o o # o o H L o # # o O $ $ $ O O - P P % = = R $ P P I P $ % R P R I P P P R % R P $ R P % R R = R = = = % = R R = P R P P % P % L P $ L $ I $ % I % $ $ $ % = & % % - % = % % E E E Y Y T T ( ( ( 1.<.} &.n b c u i 1     @ @ * * & o o H P H H H o $ # # L L L H L H H L L . L L H H . L J L F F J L J G G F H G H J G H . F . F G F F X F F F . . G G F G G F G F F F F F F G . . . . F F . . . . . X X F F F . X F F F F F F G G F F F H G . H H o . F . . . . G F G . X F F . F X F . X F . F . . . . . F . . X . G F F F G G G K K T T T T / } { X. .m B c p < @ @ @ + + + X X X X G . . X F X . . . . G . F . F o . . . G F . . . . F F X X F . H F H F . . F . . . . H . . F . o . o X . . X . O . O X X O o X o o . . . H H F . L H H H . H o o o o o # # & # o o o o H H o o # # # # o & O & & $ # # % $ $ $ = P % = $ = = % % % = = = = = % R R R E ; Q W R R R U W U / T T ( ( 1.1.i.i.,.;.@.Z ",
"c i 1 1 D @ @ @ & & o H o o H o o L L H o L L J . F L L H L H H H L J F L H H H F G F . F H H . F L F o . . X o o . o # . X o H O # # o # . o # o O O O O o O O o o o # o O o o o o # o H o o o # o o o H O o O o H P o H o o o H o H H o H F o H P H H H H F F H L L . . L . . o O # O & # $ # # # $ U P H J J L Y U K T T ( 1.<.i.} ,.m m c c p i     @ * + + O o o F o H o H F F F F F H H G F H F F F F F F F F . G J G G F F F G G J F H J F L G X F G G G F . F F H . H H . . o F F o H . F F H . L . o H L L F H H o . o . H H H . . F L . # o . H o H H o # o o o o o # . . . L H o H H F F . F F . . . L . o . . . . . o H o o o o # . H H . . H H H F J K J Y K T / } } { X. .v v v c D p * @ * + O F O o o H H . F G o o o . o H F o o . . . . . o H . X . . . H . X . . . . . H F H F . F . . F F . F . . H F . . o o . X O . O X o o . . . . . H F . . . F . . . F . X . . X o o X X O O . o o . . F F . o . F # o O # o o O # . # o o o o H o F o O o O $ O # # P % $ o o o O o H # # # # L U P K Y T T ( ( <.<.i.} X.X.V ",
"c c p D @ @ + + + O . G X X G G F F G F F G G G F F G F F F F . F G G G F F F G . G . G F F G F F F . . X X X o X . X . . X . F X . . . F F X . . X X . H X X X G . X X . . X G F F . G G F G F F F . . . X . X . G F . G . X G . . . X G G F G G G G G G X G X X G G X X G . X X X . X X . X X X . . G G . G G G K K K K T T T <.} } %.n n v p p < < @ @ * O + o . X J F H G G F F F F F . F G F . . F F . F G F G G G G G G G F F . J J H F H o G J L L H U L H H H L P # P H o R $ L L $ $ I P U P P # # P P $ # $ P L I $ $ P $ $ L $ P L P P # $ P R P % $ $ % R $ P P P P I L L U P P L # P L o # # # # # # $ $ % I & I I % $ P $ $ P I P $ # $ $ $ P % P U U U Y ^ ^ { &.X.| X.O.C A c j v p , < , - - & & & & P o $ $ o o o # o P o o # H H H L # # H H H o H H H o X O . o o o # o L o . # H o o o H H o o . # . O . o # O o O . . o . X X o o . . o . F F F H . . F F J o . . X . . . . X . . X X . . X . . X X X . X X X X . . X F X . X . X o X X X . . . . X . X G X . . . . . . L . F H . F G G K K T T T T T } } &.X.X.V ",
"c p p D < @ * * O O o J F F H H # F F H . . L H J F H J H H J F H H F J F F H F U # o L L # o $ L L L # $ $ P P # & # # # # # o # o o o o o o o o $ O o o O o o . o o o o o o F P H H o o o o H o o o o o o o o o H o H J H o H F F H F G F H F H . H o G X o o . . # . . . # . . o o # . . o X X . o H o o H L H K U Y K K T / / { ,...n o.A c c p p f @ * & O O # O H # L L P L H L P L H P H L L L L L L L L L L U # # # # # L P # I U P P P R P $ W R W - - ; ; ; ; ; ; ; ; R R R R R W R W R ; W W W ; ; W : W ; W ; ; ; ; ; W ; W W : ; W W Q W W W W ! Q ; Q Q ; ; ; Q W ~ Q W W W W W = W W R W ; ; ; ; - W : ; > ; W a : ; ; : > ; ; ; ; ; W W W W ; W ^ ! ) { { { { ..%.O.:X=XN =XB Z j g j j , > , ! ; ; ; ; = > = R ; ; = ; = ; ; ; W W = = ; ; W P I % % I P P % = $ % = & % = P % % R = R = R R R = = = % % % % % # % - & & # $ $ & % $ % % # $ P o # P $ $ L $ # O $ $ $ $ % # # # # # # # # $ # L H L L L o F . O O X . o X . X . . . F o H . o X o X o o o . . o H H H . O X X F F H . G F F U K K T Y <.} } &.X.@.@.o.",
"m p j j < , , * E o o P H P H H L H L H P H P P I L % P P I I P % P L I I P % L P P $ % = % - - ; = W % = = = % R = = R = = % R = = = $ R P % % % % $ & $ $ $ $ o P P P o H H H H H H H H H L L H H o H H o H H o H o o H H o H o $ # P o H o o J J H H . o o o # # # L # $ $ # # # o O $ o $ P o o o H o # H U L J L Y T Y / } { { { @.Z o.A D.v c j < , , , , = = = = % P % I % % R % % = = R W I R R = I E R U I U I P U E P I I * ; W ; ! a a s ` a s ) _ ) s d d ` d ` _ ` s s h h h ` [ ` f h h [ ] ] [ ] h h g ] ] | | | g b ..[ h h ] ] ] ] g g g g b ] ] | ] b ] ] ] ] [ ` [ [ ` [ ' _ ! ) ) ! a d f f j d h j g | h j ..| ] | ] ] [ [ ] h h h [ g | h [ ....X.X...@.>X+.1X=X,XI.L.U.F.G.N B A m | g f [ f d h h d h ` ` d _ _ ` _ d d s ' ' ' ! > _ ) ) ^ Q W W W ; > , > > : > , s d a s s s s _ : a _ ! _ ) ) ) ! ) a : : : : , : > ; ; - = = R = R R = = R = = W = W = = - = = W R - = % = - % W R I % % % % % % W P = P L o # H J O O O o o O O o o o O P o O o o O o H H # L H H H F L L L J L H K Y Y <.^ / &.X.#.*X*XJ.",
"A v v v f , , , - - > = ; ; Q Q ; W W W ; : W W ~ ! Q ! Q Q ! Q ~ ~ ~ W ) W ~ W = = ; = > : : > s s d ` s [ d d s d s s _ d a : ! : Q : : ! : ! > > : : : ; = > ; = > ; > ; ; W = ; ; ; ; ; ; ; ; ; > > = ; Q R ; R = = R = > W R R R R R R R E R P E R = = = = - ; ; ; ; - ; W ; > = - = ; - = ; = ; W R = E R W E R ~ ^ { { { X.X.+.&XZ V =XB B A m v , f : > : : : W ) Q ) ! ! ! ! : ! ! ) : ) ! ! _ ! ) ) ! ) ! ^ ! ! ! ! ; ! : a a _ a d h g h g b n n o.V V V V V O.o.O.@.O.V V Z O.Z O.O.Z Z O.O.O.Z Z &XJ.J.=XJ.J.J.&XJ.&XJ.C O.=X&X=X&XJ.J.K.K.J.K.K.K.,XK.K.P.P.=X1X-X-X-X*X@.X...X.{ [ ] ..] j j v m B m +.N F.&XJ.H.&XJ.J.J.&XZ O.O.=X&X&X&X&X&X&X=X&XJ.=X=X,X1X1X<X9XqXwXW.W.!.!.qXP.Y.L.U.C =X&XH.O.Z V V o.V O.O.V V V o.o.V V V O.o. .@.@.o.X.| { [ [ ' [ h d s d d f h f h h m | | b b | | | ] g m | b b | | | | g g b g g ] ] h g g h [ [ [ s ` ` d [ d d ` [ h ' h h ' d f a s s _ s a a ! ! : ! ! ! > ! ! W > Q ! W W R R % R & % = - = ; ; = ; = - ; W = = ; ; = = % ; R = = I W % P E ~ I ^ E ^ ^ { ,.X.X.@.@.#.O.",
"U.U.F.C v m h f h d h d ` ` [ _ ` [ [ h [ [ h g [ ] g ] ..] ..] | ' { [ ` ' _ ' [ f f j g v A n B o.A Z Z J.Z J.Z Z O.@.o.O. .n @. . .| | n b | n b b g ] ] h [ h h h [ d [ d [ [ ` ` ` [ ` ` d d [ ` ` d s ` ` d d ` d s [ [ d _ ' ' a ! ' ) ) ~ ! ! s : s : ! f : s f f f d d d h h f ` s f d s d d _ _ ` ` ` ' ' [ [ [ { ..#.*X1X<XqXqX0X!.!.U.G.L.L.N C A n  .n b m  .o. .n | n n V n V  . . .@.n o...@. .X.X.{ [ ] [ [ ` h g v b m v H.L.L.P.P.Y.P.I.I.I.I.Q.Q.Q.I.Q.!.!.qXW.qXqX!.W.W.W.wXwX~.~.~.~.^.~.eXR.E.wXwXeXeXwXE.eX^.wXwXwX~.~.wXE.^.^.wX~.eX^.^.^.^.eX^.8X8XeXrXPXrXtXtX2X2X>X*X4X| | b n B v M Z.Y.!././.!.~./.HXeXwXeXwXwXwXwX~.W.~.9X~.9X9XwXqXwXwXwXHXHXHXPX8XHX8XOXOXOXR.OXOXOXOX^.W.wXwXqX!.!.W.W.qX!.W.!.rX~.~.~.wXwXrX9X0XqX9X2X0X2X2X>X;X$.X. ...g g v b B N B L.G.U.,XL.U.<X,XI.<X,X,X<X,X,X,X,XP.=X,X,X=XK.J.L.J.=X=X&XO.O.O.V O.&X&X&X&X&XZ &XZ C O.V O.o.O.o.V o.V n o.V n o.n n .. . . .n n | ..[ ] ` ` ' _ ! ' ! : a , s : , f f f a f f h _ h s d s s ` ` a s _ _ ! ) ) _ _ ) ) [ { { ..@.%.;X=X1X1X1X<X",
"U.U.U.P.L.L.G.H.Z Z V V o.O.V O.Z V Z Z Z Z C J.=XK.L.K.-X=X=X=X-X:X@.%.X.] ..] b v A B v C F.G.Y.I.Q.U.Q.Q.Q.0X0XQ.Q.<XQ.<X<XI.<X<X<X<X<X,XP.<X,X=X=XK.=X=X&X=XJ.J.Z J.&X&XZ Z J.Z J.J.J.J.J.&XZ Z V O.o.Z V V o.@.o.n n o. .@.o.n @.@. .] X.X.[ [ ' d h h j j g v v C C A Z C &XZ Z Z Z Z V Z V n o.o.o. .n o.O.O.O.=X&X-X1X1X1X0XQ.!.!.W.!./.!.!.Q.Y.!.!.I.0XU.I.I.U.I.<X<X<XI.0XI.Q.Q.0X0X0X0X0XQ.0X1X1X2X>X#.#.X.....| ..m m A x G.Z.Y.U././.E.^.~./.E.^.HX^.OXOXOXOXOX+X+X+X+X+X+X+X+XOXoX+XoXoX+X+XoXoX+XoXoXoXoXoXGXGXGXJXGXGXJXGXoXJX+XGX+XoX+X+X+X+XJX+XJXJX+XoXGXPXPXPXPXIXPXtXtX7X>X:X&XJ.L.G.G.Y.S.S.T.$X$X$X$X@X@XJXGXJXGXGXJXGXJXJXGXJXGXJXoXoXJXJXoX+XGXGXJXGXLXLXKXMX].MX'.'.@XoXoX+XJXOXOXOXOXJXOXoX+X+X+XOX+XJX+XoXJXGX+XPXJXHXHXPXPXtXtXtXtX7X2X*X#... .m B B M G.Y././.^.!.E.R.8XeX^.8X8XR.R.eX~.E.eXeXeXeXrXwXwX~.~.W.W.W.rX9X9XqX!.qX!.0XqX0XqX0XqXqXI.1X0X0X<X<X<X<X0XI.Q.I.I.I.I.I.I.0X<X<X1X<XP.1X1X-X;X@.X.X.[ [ [ [ g h g j h v v m A A C C Z V Z V o.o.o.V o.o.o. .o.V V o.o.o.O.o.V +.-X-X&X-X1X<XqX<XqXW.",
"^.^.^.eX~.E.wXwXQ.Q.<X0X<X0X0X0XQ.Q.Q.Q.Q.!.!.!.!.qXW.wXqXqXtXtX2XtX2X>X:X+.+. .A B M D.D.G.S././.$XE.$X+XJXOXHXJXHXHXHXJXHXHXHX8X8XeXeXwXwX^.wXwXwXwXwXwXwXwXwXwXW.~.9X9X9XW.W.qX9X!.qX!.0XqXQ.0X0X0X0X0X0X<XQ.I.0X<XQ.I.Q.<X<X<X1X2X1X>X#.%.X.X.S ..b j A M M D.G.Y.U.U.U.Q.Q.0X0XQ.Q.Q.I.I.I.Q.Q.0XI.Q.Q.Q.Q.0X0X9XW.eXrXeXHXHXHXJXOX+XOX+X+X+X#XJX$X^.$X~.eX^.OXOXOX^.eXHXHX8XHXR.OXOXHXHXeXHX8XHXrXrXtXtXtXyX2X7X#.%. .V C B D.C.Y./.T.$X$X$X$X$X#X[.].[.[.[.[.[.`.[.`.`.[.`.`.`.`.`.`.`.`.`.mX`.`. X`. X`. X`.`.ZX XZX`.`.SXmXZXZXmXmXmXZXmXSX`.SXSXSX`.SX XmXDXZXSXmXVXmXVXVXCXIXIXuXyXtX7X<XK.L.Y.Y.S.T.(.%X_.XX{.XX[..XSXSXSXSXmXmXmXmX`.`.SX`.`.`.`. X X`.`.mXSXSXNXSXmXSXmXmXmXmXmXZX XSXmXSXNX X X[.mX`.`.`.NXSX`.`.'.[.MX].].'.BXMXmXNXBXBXVXIXIXIXyXyX2X2X-XK.L.Y.Z.S.T.T.T.$X%X#X{.@XNX'.].NXBX'.MXMXMX@XMXMXKXKX'.MXKX'.'.KXKXKXGXKXKXGXGXPXoXJXJXPXJXOX+XOXoXoXR.JXoXJXJXJXOX^.HXHXOXHXOXOXeX8XHXeX8XeXeXrXtXtXtXtX2X>X>X%.@.b  .m v B x G.C.Y.U.Q.Y.!.Q.qXQ.0X0X0X0XI.I.qX0XQ.0X0X0X1X<X0X0X<XI.Q.9X9XrXrXeXHX8X8X8X8X",
"oX#XoXoX+X+XOXHXOXHXJXHXHXOXHXHXOXOX+X+X+XoX+X+XoXoXGXKXGXPXPXPXyXtXtX7X7X>X&X*XL.A.G.Y.T.T.T.%X%X#X#XXX`.mX{.mX`.`.mXNXMXBXMXNXMXMXMXMXLXKXKXGXKXGXKXoXoXKXoXoXGXGXGXGXoXoXJXGXJXJXJXJXJXJXJXJXJXJXJXJXPXHXHXJXOXHXHXHXOXOXHXHXPXPXtXtXtX2X2X>X>X-XO.-XL.B D.G.S.Y.T./.E.+X$X+X+XJXGXJX+XJXJXJXHXOXOXJXHX+XJX+X+XJXJXJXGXGXGXKXKX@X@X[.MX'.[.[.`.'.NX].'.#X@X#X#X@X].KX'.MX'.MX'.'.@X'.'.MXMXMXMXBXMXBXVXPXVXIXyXtXyX2X1XK.U.L.S.Y.T./.(.%X%X%X{.{.XX}..X.X.X}..X X X}. X.X X XSX X XmX X X XSX X XSX}.SX X X X X}.ZX X`.ZXZX`.}.}.`.SXZX}.ZX`.|. X}.}.}.}.}.}.|.}.ZX}.ZXZXAXZXFXFXFXCXCXuXuXyX7X2X=XF.Z.S.(.T.(.)._.XX{.{.SX XSX XSXDXSXZXmXZX XSX XmXmXZX X X X}.}.}.SXSXZXZX}.}.SX X}. XZXZX.X}.}.}.}.}.ZXZXmXZX}. XSXSX X XSXZX XZXSXSXZX XSXDXDXDXFXCXCXCXuXyXyX7X<XI.U.Y.Y.T.T.(.%X%XXX.X{.[.NXmXNXmXmXmXmXmX`.mXmXmXmXmXmXNXmXmX`.NXmXmXNXNXNXNXNXNX`.BX[.NXNX`.NX`.].'.`.mXmXNXNXNX`.mXNX'.MXLXMXMXMX'.KXMXLXMXLXVXPXPXPXIXyXtX7X2X;X=XJ.K.Z.G.Y.Y.T./.^.^.$X$XR.GXOXJXJXOXJX+X+XJX+XJXOXJXHXHXHXHXHXHXHXJXJXJXLXMX@X'.KXMXMX`.",
"[.mXmXmX].].NX'.].].NXNXNX'.].[.].[.].`.`.].[.`.NX[. XmXDXBXVXLXCXIXyXyX7X2X-X-XF.A.S.C.M.%X_._._.XX{.XXSXDX.XZXSXSXZXDXSXSXVXmXDXZXDXDXmXSXmXSXZXmXDXSXmXSX`. XmXmXmXmXmXmXmXNXZX`.mXmXmXmXNXmXNXNXmXNXNXNXNXNXNXNXBX].].NXMXBXNXLXIXIXuXtXyXyX2X1XO.-XG.D.A.S.T.(.%X$X$X.X{.].].].`.`.`.[.mXmXNX`.].mX`.`.`.`.`.`.NXNX`.[.`.SX`. X`.SX X X`..X.X X X X}. XZX}. X.X.XSX}.mX X X XmXSXSX`.`.SXSXSXDXSXDXFXFXCXCXnXIXyX7X7X=XL.D.C.S.M.%X(._.%XXXXXXXXX XXX.X X}..X}. XZX}. X X X}. XZX}.ZXSX}.`.SXSX}.}.SX XSX XZX XZXZX`.ZXZXZXSXZX}.SX`.mX X X X X X}.}. X|.ZX}. XZX`. XDXDXZXVXFXCXCXUXUXnXyX7XtX1XY.S.M.M.(.).)._._.{.XX}..X XSXmXZXSXZX XZXZXZXmXZXZXZXZXZX X}. X}.}.SXZXZXAXZXZX}.}.|.}.}.}.ZXZXmXSXSXSXSXZXmX}.ZXZXmXZX}.ZX}.}.ZXZX}.ZX}.ZXDXFXAXCXFXCXCXUXuXyXbX;X&XN A.m.T.(.).).XXXXXXXX.XZXZXZXZXZX}.SX}.ZX}.ZXSX}.ZXSXZXZXSX|.ZXSXZXZXZXDXZX}.ZXZXZXmXZXSXDXSXSX X}.ZXmXSXAXmXZXZXZX`.SXSXmXZX X XZXZXDXDXAXDXVXFXVXFXCXuXyXyX2X>XJ.C C S.A.S./.T.%X%X#X{.{..XmX`.mX`.mX`.mXmX`.BXMX].NX`.MXmX`.'.].].[.`.mXMXNXNXBXBXmXmXmX",
".X.X}.SX}.ZXZXZXZXmX XmXmXZX`. X X`. X[. X`.}. X`. X XDXAXAXFXCXCXCXCXuXyXyXtX1XU.S.S.T.M.z.).XX_.XX{.XX}.SX XSXAXSXDXZXAXSXAXZXZXAXZXDXDXZXSXSXmXDXSXDXmXDXDXmXSX XZXZXSXSX XmXSXmXmX XmXZXmXZXmXZXBXZXmXSXZXmXmX`.`.SXSX`.mXmXDXFXCXVXCXIXIXnX7X1X1X=XA./.T.(.T.%X%XXXXX{.{..X}.SXSX`.`.}.SXmX XSX X`.`. X`.[..X X}.|.}.|.}.ZXSXZX}.SX}.}.|.|.|.}.|.}. X}.}.ZX}. X X X}.}. X X}. X X}.ZXZXZXZXZXSXDXAXFXFXCXCXUXIXuXyX7X1XP.S.S.T.M.(.).)._.XXXX.X.X|.|.|.|. X|.|.}.}.}.}.}.}.}.}.}.}.}.}.}.}. X X}.}.}.|.|.SX}.`.SX`.ZXmXZX`.ZXmX`.SXZXZXZXZXmXSX`.`.mX`.mX`.SXSXmXmXSXBXDXSXFXCXCXUXUXUXlXuXyX7X0XY.S.m.l.M.z._._.XXXX|. X X XSXZXZXZXZX XZXZXZX}.ZX}.ZX XZXmXmX}.`.mXZX`.`.SXSXmXmXZXZX X XZXZXZX}.ZX}.SX}.}.ZXZXZXZXZX X}.`. XZXmX XmXmXZXAXAXAXFXFXCXUXUXlXuXuXyXtXU.Y.T.M.M.M.)._._._..XXX}.ZX}.ZXZXZXZXZXZXZXZX}.ZXZXZX}.ZXZXZX}.ZXZXZXZXZXZXZX}.ZXZXZXZXZXZXmX}.}.}.ZX}.ZXZXZXSXSX}.}.}.ZXZX}.ZXZX}.}.ZXSXAXSXFXFXCXFXCXCXUXIXnXyX7X2XP.Y.S.S.M.%X)._.{.{.XX{. X X XmXZXZXmXmXBXmXmXmXmXmXmXmXmX`.`.`. X X}. XZX}.ZXZX}.ZX}. X",
" X}.ZXSX}.ZX}.ZXZXZXZXZXZX}.}.}.ZX}.}.}.|.}.}.|.|.|.}.ZXAXAXFXCXCXCXCXnXnXyX>X-XY.S.M.(.z.z.).)._.XXXXXX}.}. X}.ZXZXSXSXSXZXZXZXZXZXZXDXZXSXZX}.}.}.ZXZX}.ZXZX}.}.}.}.}.}.|.}.ZXZXZX}.ZXZXZXAXZXZXZX}.ZXZXZXZX}.ZXZX}.ZX}.ZXZXZXAXFXFXCXCXCXnXuXnX2X>XL.Y.B.S.M.z.).)._.XXXXXX}.|.}.ZXZXZX XZX}.ZXZX}.}.ZX}.|. X}.SX}.}.}.SX}.}.ZX}.}.}. X}. X}.ZX[. X[.SX.X}.[.}..XSX}.ZX XZX}.ZXZXZX}.ZX}.ZXDXSX}.DXAXFXCXCXCXUXUXnXnX7X1XI.G.m.m.z.z.).)._.XX_.{.XX X[.[.[.[.[.[.].NX].'.].KX@X].'.'.'.'.'.'.'.].].@X].@X].@X'.@X'.'.'.'.'.MXKXMX'.MXMX'.'.MXMXMXMX@X'.KXMX'.@XGX'.@X@XLXLXLXVXIXCXUXUXlXlXlXnX7X=XZ.S.l.z.z.).z._._._.$X#XNX'.@XKX'.KXKXMXMXGXMX'.'.'.'.'.@XNXmXMXNXNX'.NXMX].].NXMXmX'.'.'.MXNXNXNX].MX].].'.`.'.].MX'.'.'.NXNX'.NX].].MX'.MXBXBXVXCXCXUXUXlXlXnX7X2XU.Y.b.l.z.z.).)._._.#X{.[. X].NXNXNXNXmXmXSXmXmXmXmXmXmXmXZXSX`.mX`.BXmXmXZXmXmXVX XBXZXZXZXZXZX|.SXZXmX X X XZXAXZXZXZXZXZXSX X XSX}. XDXSXAXDXFXFXCXCXUXUXuXnXyX2XtXP.Y.S.M.(.z._.)._.XXXX|.}.ZX|.AXZXZX}.}.|.}.ZX}.ZXZXZXAXZX}.}.}.}.ZXZX}.ZX}.ZX}.}.ZXZX}.",
"ZX}.}.ZXSX XZXSX}.}.ZXZXZX}. X}. X|..X.X X}.`. X X X X XFXFXFXCXUXUXlXlXnXyX7X-XY.C.m.l.z.z.z._._.{.{.{.[.].MX].'.NXNXNXNXNXmXBXBXNXNXmXmXmXmXmXDX XSXmXZXmX}.SXmXmXmX`.DXSXmXZXZXmXmXZXmXZXSXSXZXmXZXZXSXSXZX XZXZXZXZXDXZXZXZXFXFXFXCXCXUXlXlXyXtX2X<XS.S.M.z.z.)._._._.XX|.[.}. XmXSXZXZX}.ZXZXSXSXZX X}.`. X}..X X`.ZX`.`. X X X X X}. X`.`.`. XSX.X`. XNX`.NX`.`.`.NX`.NXmXNXNX`.NX'.].].NXNXSXVXDXCXFXUXUXUXlXlXnXyX2XU.S.m.M.f.z.).z._._.%X{.#XoX#X@X#XoX@XoXoXoXoXoXoX+XoX+X+XJX+XJXoXoXJXJXOXJXOXJXHXOXJXHXOXHXJX8X8X8XOXOXHXOX+XoX8X+XJXOXOXOXR.OXR.HXHXOXOXOXOXPXPXPXPXIXUXlXlXkXlXnXnX7XP./.m.m.f.f.f.z.z.T.%X$X$XHXOXOXOXJXJXHXOXJXJXHXJXJXJXHX+XJX+X+XOXOXOXJXJXJXJXOXJX+XJX+XJXJXHXHX+XJXJX+XJXJXHX+XJXJXR.JXoXoXoX+XoXJXoXJXJXJXPXPXPXIXCXlXlXlXlXkXnXnX7XU.Y.M.l.z.f.z.).)._.#X#X@X@X@X@XGX'.@X@XoX'.KXKXKXGXKX'.'.MXMX@X'.'.MXMXMXKXMX'.MX`.`.MXNXNXNX].NX'.mX'.`.BXBXMXMXMX].NX'.NXNX].`.NXBX[.`.BXDXDXVXCXFXCXUXUXlXlXnX7X>XK.C.m.M.l.).).)._.XXXX.X.XmX XSXmXmXZXmXZXZX}.ZXZXSX}.ZXZX}.}.`. XZXZX X`.mXZXZXSXZXmXZX",
"NXNXMXNX`.NXNXNX].`.MXmXmX'.mX].`.NX].[.].@X].].[.mXKX].BXLXVXCXUXUXlXlXlXbX7X2XY.S.l.l.z.z.z.).).#X$X$XJX+XJXGXJX+XJXJXGXGXGXGXGXKXKXMX'.oX'.KX@XNXMXMXMXmXMX'.MX'.'.NX].'.NXNXMXMXNX'.'.NXNXMXNXNXmXmXMX`.].].mX`.MXmX`.mXBXVXVXVXCXCXUXUXlXlXnXyX7XP.S.m.M.z.z.z.)._._.{.XX[.`.'.].MX`.MXMXNX'.].NX'.NXMX].].mX'.'.`.'.'.'.].'.'.].@X'.@X].@X'.@X@X@X'.@X@X@X@XoXoXoXoXGXGXJXoXoXJXJXoXGXGXGXGXGXPXLXIXIXIXlXlXlXkXnXyX2XU.S.m.l.l.z.z.).).%X%X+X$XOX^.^.^.E.wXwX~.~.wX~.W.~.~.W.W.W.9X9XwX9X!.qXqX!.!.!.qX!.E.W.9XE.wXwXR.E.rX9XqX!.0XqX!.qXW.!.9XE.W.wXwXE.9XwXwX~.~.wXrX9XtXyXnXlXkXlXkXkXcX7X1XS.m.l.l.f.f.z.M.T./././.rXW.qX9X9X9XqX!.qXW.9X9X9X9X9X9XqXW.W.W.!.W.!.!.W.9X9X9X9X9X9X9X9XW.wX9X9XwX9X9X9XwXwXW.wXE.9XW.W.W.W.9X~.W.wXW.E.8X8XrXIXyXuXlXlXkXlXkXyX7X,XY.m.l.l.l.z.z.).T.$X/.OX^.OXeXeXOX^.8X8XHX8X^.OXOXHXHXHXHXHXOXOXHXHXHX8XoXJXOXJXJXJXJXJXJXJXoXJXoX+XJXGX+XJXJXGXoXGXGXoXoXJXoX@XKXGXKXKXPXNXPXLXCXCXCXUXlXlXlXlXyX7XY.S.M.M.z.z.z.)._.{._.[.[.].@X'.MXMXNX].`.'.NXNXmXNXMX].`.].[.].NX].NX].NXNXNXNXNXNXNXNX",
"GXKXGXoXGXGXoXGXGXGXGXoXGXoXoXoX@X+X+X+XoX+X+X+XOXJXJXHXPXtXIXlXlXlXlXkXnXbX2X2XG.C.l.l.f.f.z.M.M.(./.$XR.E.wXwX~.9XwXwXwXwXE.eX8X8X8X8XHXHXHXR.8X8X8X8XR.8XR.oXJXHXHXOXOXJXOXJXOX+XJXJX+XGXJXoXJXJXGXGXJXGXGXGXGXJXGXGXoXGXLXLXLXCXCXUXUXlXlXlXnX7X2XK.S.m.l.l.f.z.z.(.%X#X$X+XoXOXJX+X+XoX+XGX+XJX+XoX+X+X+X+XoXoXR.+XOXOXOXOXJXHXOXOXOXHXJXOXR.R.^.HX8XE.E.8XeXR.eXR.eX^.^.^.eXeX8XE.R.E.eXeXE.R.8XtXyXuXlXlXkXlXkXnXbX>XL.A.c.c.f.f.f.l.M.T.T.~./.!.W.W.!.W.!.!.!.qX0X0XQ.Q.Q.!.0XQ.I.Q.<X0XQ.Q.<X0X0XI.I.Q.<X<X=X=X=X&X=X=XU.P.I.0X<XI.I.I.qX,X=XK.U.K.=X-XK.K.=XP.K.,X-X-X2X7XyXsXkXkXkXsXvX3X-XG.n.k.k.k.f.l.m.S.S.Y.Y.,XU.<X<X<XI.I.0X0XQ.I.I.I.0XQ.Q.Q.<X<X<X0X<X0X<X0X!.I.0X0XQ.0XQ.Q.I.Q.0X<XQ.Q.I.Q.0X0X0X<XQ.qX0X0X<X1X0X<X<X0X<XI.1X,X2X7X7XnXbXkXkXjXsXbX5X=XS.c.l.f.f.f.l.M.T././.~.W.~.rXqX~.9XwX9XW.9XW.W.W.~.wXqXwXwX~.wXwXwX8XwXW.wXwXwX~.8X~.~.~.~.wXwXwX~.wXwXwXE.E.8X8X~.wX8XwX8XR.8XwXE.wXR.8X8XPXtXyXyXlXlXkXlXlXkX7X7XL.S.c.l.f.z.z.z.(.%X%X+X+XOXoX+XJXJXJXoXGXGXJXJXJXJXJXJXJXJXoXoXoXoXoXJXoXoXGXoXGXoXoXGX",
"W.W.wXqX!.wX9X9XwXwXwXwXwX8XwXwX~.wX~.wX~.~.~.~.W.9XqXwXtXtX7XnXlXlXkXkXdXnX7X>XZ.m.c.f.d.f.k.M.T.Y.Y.!.P.U.1XU.I.<X<X<X<X0X0X0X0X0XqX9X0X0X!.!.qX!.W.W.qXqX9X9X9X9XqX9XW.W.wXwX~.9X~.W.wXwXW.wXwXwXwXwXwXwXwXwXE.E.~.wXE.wX9XwXtXtXuXnXlXkXkXkXdXbX>XU.C.m.l.l.f.z.z.(.T././.~.E.9XE.wXwX~.~.~.wXwXwXwXwXwX~.wX9X9X9XE.W.9X9X9XqXqX!.!.Q.!.qXqXqX!.Q.!.W.!.9XW.Q.Q.0XQ.0XQ.Q.0XQ.Q.<X0X0XQ.0X0X0X!.tXqXtXyXnXkXkXkXkXvX3X2XF.S.c.d.f.f.f.M.T.S./.U.U.P.P.P.1XP.K.K.P.K.K.K.K.K.K.K.K.P.,X=XK.K.=X=XJ.K.J.&XK.=X=X&X=X=XP.P.P.=XK.=X=XK.K.K.=X=X=X=XK.P.,XK.L.L.P.P.P.=X=X,X-X1X1X7XbXnXdXkXkXdXbXbX=XG.b.k.a.f.d.l.m.S.Y.L.G.1X=XJ.J.=X=X=XJ.K.K.&X=X=XK.K.=XK.=X=X=XJ.=XJ.K.K.=XK.=X=X=XK.=XK.K.K.=XK.=X=X=X,X=X=X=X=X=X=XK.P.K.=XP.K.,XK.K.L.2X,X2X2X7XbXdXkXjXjXjXbX5XJ.V.m.d.k.f.f.l.M.S.Y.Y.P.P.P.,X=XP.,X,X,X,X,X,X,X=X,X=XK.P.P.,XP.P.K.1XK.,XP.K.I.I.<XI.I.<X<X0X0X0X<XqX0X<XI.<X0XqXqXQ.Q.0XQ.Q.Q.0X0XQ.qX0X9XqXtXtXuXnXdXkXkXjXnXbX4XL.C.c.l.f.f.l.z.M.T./.W.W.W.W.W.W.wXwX9XE.W.9X8X~.W.wX~.wX~.wX~.~.~.~.~.9XwXW.wX~.wX~.wX",
"0X0XQ.0X0XQ.0XQ.Q.I.Q.0X<X0X0X0XQ.I.0XQ.I.I.Q.I.I.<XQ.I.2XtX7X7XkXkXkXkXdXvX5X;XZ.b.c.f.f.l.l.l.m.S.G.H.=XL.=XK.K.K.=X,X1X,XP.P.,X,X,XP.,XI.<X,X<X,XP.P.I.P.<X,X1XP.<XI.<XI.P.I.<X<XI.<X<X<X<X<X<X<X<X<X<X<X0XI.0X!.Q.qXQ.0X1X<X2XtXyXnXlXkXlXkXkX7X2XU.S.v.c.d.f.f.f.M.T.Y./.!.U.I.<X0X1XP.<X<XI.<XI.I.I.<X<XI.I.I.<XI.U.,XP.I.P.I.P.I.I.P.P.,X,X<X,XU.K.<X=XP.P.P.,XP.P.,XK.P.K.P.,X,X,XP.,XK.,X,X-X1X7X7XvXjXkXkXsXdXbX4XK.S.c.f.a.a.f.c.n.S.A.K.L.J.J.&Xo.&XJ.J.H.Z J.J.J.Z +.O.&XO.O.O.o.O.Z Z &XO.*XO.O.C C Z Z Z O.&XO.&XO.O.o.Z Z Z V Z V Z =X=XZ Z =X-XJ.J.=XO.J.&X*X&X-X6XcXvXjXjXgXhXcX6X1XA.b.k.a.k.d.k.k.C.Z.L.H.*XJ.Z V Z O.&X&X&XO.O.O.O.O.@.O.O.J.&X&XJ.&XJ.J.J.o.O.O.O.o.O.O.o.O.o.O.O.O.J.&XJ.J.O.O.&XO.O.&X&XJ.J.J.Z Z J.J.Z &XJ.-X4X5XbXvXkXkXkXjXbX5XZ z r 8 7 p.s.c.b.A.Z.G.J.J.H.O.J.K.J.J.J.J.&X=X=XJ.J.=X&XJ.=XJ.J.&X=X&X&X=XJ.J.J.J.K.,X=XK.K.K.K.K.K.J.K.,X,X,X,XK.K.P.P.,X,XL.U.,X,XU.,X-X,X<X2X7XyXnXdXkXkXdXvXbX4XL.C.c.d.d.f.f.l.M.T.Y.Q.I.I.I.I.<XI.I.<X<X<X<X<XI.<XI.0XQ.I.0XQ.<X<X<X0X<XI.<X<X0X<X<X0X",
"<X<X<X<X<X,X<X<X,XI.,X<X<X<X<X<X<XP.P.P.P.P.P.P.,X=XP.K.1X2X7XbXsXdXkXgXdXvX7X;XZ.b.h.s.a.d.k.m.S.Y.S.K.1XK.-X=XL.K.=X=XK.L.P.,X=X=XK.P.K.,X,X,X=X=X,X,X,XP.P.P.P.P.P.,X,XP.=XK.K.P.=X,X,X,X=X,XP.,XP.<X<X<X<X,X1XP.,X<XI.1X0X<XqX2X7XnXkXkXkXjXkXbX:XN A.j.d.k.f.f.m.m.S.Y.Y.I.Q.I.,X1X,XI.,X,X<X,XI.,X,XI.,X<X<XP.P.I.I.<X,X,XP.,X=XP.P.=X,X=XK.,X,X,XK.K.=X,X=X=XK.K.=X,X,XK.,X,X,XK.L.L.=X1XK.P.>X-X5X6XbXdXjXgXdXsXbX#.F.A.c.k.k.p.s.j.B.A.A.L.L.P.L.K.-X=X=X=X=XJ.K.=X=XJ.J.J.J.J.&X=X&X=X=XK.K.=XK.K.J.=X=X=X&X&XJ.Z J.Z H.J.J.=X=X=X=X=X-X=XZ Z H.J.&Xo.J.Z Z J.J.J.&X=X;X5XxXvXiXgXgXsXvX6XO.Z.b.h.s.a.g.k.m.V.D.H.H.O.H.J.=XK.J.K.K.=XK.K.K.J.J.J.=XK.=X=X&X&XK.&XJ.K.=XK.=XK.K.K.=X&X=X&XJ.K.&X=X&X=X=X=X=X=X&XK.=XK.=X=X=XJ.=X=X=XJ.*XO.@.:X5XzXpXfX0.0.iXzX5X=XV.r h.p.p.s.h.m.C.D.Y.=X=XK.=X=XK.K.K.=X=X=XK.J.K.K.=X=X=XK.P.=X,X=X,X,X,X,X1X<X,XP.=XK.&XK.=XK.K.K.=XK.=XK.=X=X=X=X=X=X=X=X,X=X=XK.K.-X,X=X1X-X5X3XsXbXkXgXdXdXbX4XG.N.c.k.d.k.l.m.m.S.Y.P.U.P.U.P.<X,X,X,X,X,XP.,X,X,X,X,X,X,X,X,X,X,XP.,XI.P.P.,XP.,X,XP.",
"Z o.O.O.O.O.Z o.O.Z Z Z Z Z o.O.J.Z &XO.Z Z Z Z O.Z +.O.*X;X5X3XvXjXjXgXdXsX3X-XZ.m.s.s.s.s.g.n.l A.D.Z C C O.C O.V O.o.Z V V Z O.O.O.o.O.Z V V Z O.O.Z O.J.o.O.Z Z &XZ O.O.O.O.Z Z Z Z V Z Z Z O.O.Z Z Z Z Z Z O.J.J.Z Z &X-X&X;X5X*.bXjXjXjXjXjXcX5XH.N.m.d.d.a.d.c.b.C.D.F.O.Z V Z Z &XV Z Z O.O.Z Z Z Z C Z O.Z o.V V V o.O.Z O.O.Z O.Z Z Z O.V V Z Z Z Z o.Z Z Z V O.Z Z Z O.o.O.O.Z V Z O.Z Z o.#.-.>.e.5.gXfXgXaXzX$.C z w 4 a.a.k.k.m.A.A.-XJ.V Z Z O.C O.O.O.O.O.O.o.O.Z Z J.Z &XZ Z Z V V Z O.&XZ Z Z o.Z Z J.L.-XJ.&X&X&XJ.&XZ Z Z Z O.O.O.&X&X&X-XO.O.O.O.&XJ.&X*X&X;X;.3XcXsXiXgXsXvX3XO.A.b.h.p.p.a.j.v.V.G.H.F.*X*XO.V Z Z V Z O.o.o.O.o.O.o.Z o.o.O.o.O.O.o.O.Z o.o.o.o.o.Z V O.O.Z Z Z Z Z O.O.O.Z O.O.O.O.o.O.O.&XZ Z Z O.O.Z &XJ.;X5X5XcXpX8.3.0.jXxX>.J.V.v.k.s.a.s.h.b.A.M B o.O.Z O.o.Z O.O.Z O.Z Z Z O.O.Z Z Z O.O.Z O.O.Z Z Z Z V o.Z S V Z O.O.O.O.o.Z V Z O.O.O.O.o.C o.C O.o.o.V o.Z A O.O.Z @.&X4X3XbXsXgXgXsXsXbX4XH.C.j.k.p.a.a.h.V.Z.x Z C Z Z Z O.O.O.O.o.Z o.O.J.J.&XJ.J.Z J.Z J.&XJ.J.Z Z &XO.J.O.Z O.",
"J.=XJ.&X=XJ.J.&X=X&X&XJ.J.&X&X&XK.K.=X&X=XJ.J.=XJ.L.-XK.-X>X5XcXvXjXfX0.sX4.6X&XZ.C.d.d.d.d.s.r V.z L.O.C *XH.=X&X&X&X=X&X=X&XJ.H.&X*X&X&X&X&X=XJ.&X&X&X&X&X=X=XJ.=XJ.J.&X&X=X&XK.=XJ.J.J.J.J.=X&XJ.O.&X=X=X=X&X*XL.K.&XK.J.&X=X;X4X5XzXsXgXkXdXiX3X7XL.B.r 4 2 p.g.8 b.V.G.L.=XH.=X&X=X=X=X-XK.=X=XJ.K.J.O.&X=XJ.=X=X=X=X&XJ.&X=X&X=X&X&XJ.=X&X=X&X&X&X&X=X&X&XJ.J.&X&X&X&XO.O.Z &XO.&X&X=XZ J.&XJ.*X-X5X7XzXaXhX9.0.pXcX5XC l x.g.s.a.s.x.n.Z.F.Z C =XZ &XO.O.O.O.O.Z Z Z &X&X&X&X&X&X&X&X*XJ.&X&X&XJ.&X&X&X&X=XJ.&X&Xo.&XZ J.&XJ.Z Z O.&XO.Z O.O.&X&XO.O.Z H.O.O.O.Z Z O.+.Z %.;.*.pX0.0.8.hXsXbX-XZ.b.s.p.g.s.x.r k G.J.N O.J.&X*XJ.&X=X&XO.=X&X&X=X&X=X&XJ.&X&X&X&X&X&X&XJ.&X&XJ.&X&X&X&X&X&X&X&XJ.J.J.Z H.O.&XO.O.O.O.O.O.O.O.J.&XO.O.Z O.*XJ.*X:X5XzXvXhXhXfXiXxX5XJ.V.9 7 p.p.g.r y x F.N Z Z C O.&XJ.O.Z O.&XZ J.&XJ.&X&X&XO.&XO.J.O.O.O.O.O.J.J.J.&X=X&X&XJ.J.O.&X&X&X&XJ.J.Z O.&X&X*X&XJ.&X=XK.&X=XK.-XZ O.J.>X=X7X3Xy.pX0.8.0.4.xX4XH.V.8 k.a.2 h.c.b.A.G.J.H.=XJ.J.O.O.O.&X=X=X=X=XK.=X&XK.K.*X=X=X&X=X&X=X=X*X&X=X=X=X=X=X",
"O.O.O.O.Z O.J.&XJ.J.&XO.O.O.O.O.Z O.O.O.&XO.O.O.Z C @.O.+.$.;.xXvXiXfXfXsXe.3X&XD.b.h.s.3 p.h.n.z Z.M &XF.+.&XO.J.O.O.O.&XZ J.&XJ.Z Z O.O.Z O.Z J.J.O.O.J.o.Z J.Z Z &X&XO.Z Z Z Z Z O.O.Z O.O.&X&X&XO.O.O.Z O.&XO.Z O.Z O.O.*XZ *X4X>.cXy.8.0.hX3.xX;.J.z r h.p.a.4 w t V.B C +.C J.O.Z O.o.O.O.Z V O.O.O.O.O.O.o.Z O.Z Z &XO.O.Z O.O.Z Z &XZ Z O.O.Z O.Z o.O.O.Z O.Z &XO.O.O.O.O.O.O.O.O.Z O.O.&XZ +.&X;.3XzXaXhXfX2.pXcX$.H.B.9 s.s.3 g.9 b.z Z.J.C J.Z O.O.O.O.O.&XO.J.&X&XO.O.Z Z O.&XJ.J.O.J.&XZ &X&XZ Z Z O.O.Z O.Z &X&X&XZ &XO.&XO.Z O.&XJ.O.O.O.&XO.O.O.&X&XZ J.J.O.+.O.:X5X6XzXiX5.fXfXvX:.*Xx b.h.2 2 p.8 t z x Z C O.J.J.J.J.Z Z O.O.Z Z Z Z Z O.O.O.O.O.O.O.O.O.&XZ J.O.O.J.O.O.Z O.Z Z &XO.&XO.O.+.O.Z &XZ O.J.O.&XO.O.Z &X&XO.O.Z O.J.+.5X5Xt.4.8.2.8.2.t.6XV A.r 7 2 2 7 9 v.A.N F.O.O.J.O.O.J.O.&XO.O.O.O.&X&XZ O.O.O.O.O.O.O.O.O.O.O.O.O.Z O.Z O.&XJ.&XO.O.O.O.J.&X&XZ O.O.O.O.O.O.Z Z O.&Xo.Z Z C Z Z #.O.-.>.e.aX0.fXgX4.r.:XF.l w 4 s.2 s.x.B.A.Z.Z C J.Z O.O.O.&XO.Z Z Z Z O.Z O.O.O.O.O.O.O.O.&XZ Z Z O.O.O.O.O.Z ",
"O.O.Z O.&XZ O.O.&XZ O.O.O.O.Z &XO.O.O.J.O.J.&X*XZ Z &XO.O.4X>.3XaXaXfXfXiXvX6X*XZ.B.g.s.s.2 8 y z A.N O.Z O.J.O.Z O.O.O.O.O.O.O.O.O.O.O.O.Z O.O.O.O.O.O.O.O.O.Z &XZ O.O.O.O.O.&XO.O.O.&X&XO.O.Z J.O.&XZ &XO.O.Z &XZ &XO.O.J.+.Z *X4X5XzXvXgXhXhXiXxX5XJ.V.v.7 2 2 4 x.b.A.D.C O.H.O.&XO.&XO.&XO.O.O.&XO.O.&XO.O.O.O.O.Z O.O.O.&X&XO.O.O.Z &XO.O.Z &XO.O.O.O.O.O.&XO.O.O.O.&XO.O.Z &XO.O.O.O.O.O.&X&X*XO.5X:.xXiXfX2.hXpXt.5XH.l j.h.2 2 g.j.k A.M &XN J.&XO.&XZ O.O.O.O.Z O.O.&XO.Z O.O.O.O.O.O.O.O.&XO.O.Z O.O.O.O.O.O.O.O.O.O.&XO.O.O.&XO.O.O.&XZ O.O.Z O.O.O.J.O.&XJ.O.J.&X+.#.5X=.pXiXhXhXhXzX*.-XZ.b.h.p.2 g.h.n.z M H.C O.&XO.O.O.O.&XO.O.O.O.Z &XO.O.O.O.O.O.Z O.O.O.O.&XZ O.O.&XO.&XO.O.O.O.J.O.Z O.O.O.O.O.O.O.O.O.O.Z O.O.O.O.Z O.&XZ &XO.+.-.;.t.aX0.0.9.3.r.>.Z x w 4 4 4 4 8 y z F.N J.Z J.J.O.Z &XO.O.O.O.O.&XO.O.O.O.O.O.O.J.O.O.O.Z O.O.O.O.O.O.O.J.O.O.O.O.O.O.O.O.O.&X&XZ O.O.O.O.O.O.O.O.O.O.O.O.O.Z #.*X$.*.zXaXiX8.hXpXxX$.C N.9 g.p.2 s.x.N.A.x +.C &XZ &XO.O.O.O.O.O.Z O.O.O.O.O.&XZ O.O.&XO.Z &XO.O.O.O.&XZ O.O.",
"O.O.O.O.O.O.O.O.O.O.O.O.O.O.O.O.O.O.O.O.Z &XO.O.J.C &X&X&X$.-.3XpXhXfX0.5.zX3X*XZ.b.h.s.s.2 h.r V.x N O.H.O.J.&X&XO.O.&XO.O.&XZ O.O.O.O.O.&XO.J.O.O.O.O.O.O.O.&XO.O.O.O.O.O.O.O.O.O.O.Z Z O.O.&XO.O.O.O.O.O.O.O.O.&XO.O.O.Z +.&X*X4X5XzXpXiXfXiXiXcX5XJ.V.w s.4 2 4 9 t z M C &XH.O.O.Z O.O.O.O.O.O.O.Z O.O.O.O.O.O.O.&XO.O.O.Z O.O.Z &XO.O.O.O.O.O.O.O.O.O.J.O.&XO.O.O.O.O.O.O.O.O.&XZ O.O.Z O.Z O.*X+.5X>.xX3.fXfXiX4.r.4XH.V.j.g.p.2 4 j.t A.M J.C *XJ.O.O.&XO.O.O.O.&XO.O.O.O.O.&XZ O.O.O.O.O.Z O.O.O.&X&XZ O.O.O.O.O.O.O.O.O.O.O.O.Z O.O.O.O.O.O.O.&XO.O.O.&XO.J.Z O.J.*XO.;X5X5XpXiXiX0.iXvX6X+.Z.b.g.p.2 g.g.n.V.M J.F.O.J.O.O.O.&XZ O.O.&XZ O.O.O.O.&XO.O.O.&XO.O.O.O.O.O.O.O.Z O.O.Z O.O.O.O.O.&XO.O.O.O.O.O.O.O.O.&XO.O.O.O.O.Z O.J.Z +.O.+.-.;.r.5.0.8.0.hXr.>.Z z r 7 4 3 7 h.y z F.F.J.Z J.&XO.&XZ O.O.&XO.O.Z O.O.O.O.O.O.O.O.O.O.O.&XO.O.Z &X&XO.O.O.O.O.O.O.O.O.O.O.O.Z O.O.O.&XO.O.O.O.O.O.Z &X&XZ J.Z *X+.-.3Xe.aXiXfXhXpXcX:XC N.x.g.2 s.4 w N.A.D.O.H.Z J.O.O.O.O.O.O.O.&XO.O.O.O.O.O.O.O.O.Z O.O.O.O.O.O.O.O.O.O.O.",
"O.O.O.O.O.O.Z O.O.O.O.&XO.O.O.O.O.O.O.O.J.J.O.O.Z O.O.&X*X;X;.3XpX5.fXfXiXzX:.+.x b.g.s.p.p.8 v.V.x N &XH.O.J.O.O.O.O.Z O.O.O.O.&XO.O.O.O.O.O.O.&XO.O.O.&XO.O.O.O.O.O.O.O.O.Z O.O.O.O.O.O.O.O.O.O.O.O.&XO.O.O.O.O.J.O.O.Z J.+.J.*X-.5XcXpXfXfXhX2.xX5XJ.V.r 7 s.2 g.j.b.A.M C O.C O.&XJ.O.O.Z &X&XZ O.Z O.O.O.&XO.O.O.O.O.O.Z O.O.O.O.O.O.O.O.O.O.O.O.O.O.O.O.O.O.O.Z &X&XZ O.Z O.O.O.O.O.O.&XO.J.Z *X*X;.6Xe.3.fX2.fX4.zX:XH.N.9 h.2 p.g.j.r A.D.&XN &X&XO.O.O.O.O.O.O.O.O.O.O.O.O.O.O.O.O.Z &XO.&XZ &XO.O.O.O.O.O.Z &XZ &XO.O.O.O.O.O.O.O.O.O.O.O.O.&XO.&XO.O.Z O.J.J.+.&X+.+.#.5X3XpXhXiX8.iXvX3XO.D.y g.2 p.2 j.v.V.D.Z N *XJ.O.O.O.O.O.O.O.O.O.O.O.O.Z Z O.O.O.&XZ O.O.Z O.O.O.O.O.Z O.O.O.O.O.O.O.O.O.O.O.Z &X&XO.O.O.O.O.O.O.O.O.O.O.J.J.+.O.+.$.>.t.5.0.0.8.3.t.;.Z V.r g.4 2 4 9 b.z F.N J.Z H.O.O.J.O.O.O.&XO.Z O.O.O.&XO.O.O.O.O.O.O.O.&X&XZ O.O.&XO.O.O.O.O.O.O.Z &XO.O.O.O.O.O.O.O.O.O.O.O.O.O.O.Z O.J.Z Z ;XO.-.6XzX4.8.fXhX4.xX4XH.B.x.s.2 p.4 9 k A.x O.C &XJ.O.J.O.&XO.O.O.O.O.O.O.O.O.Z O.O.O.O.O.O.O.O.O.O.Z O.O.O.O.",
"O.O.O.O.O.O.&XO.&XO.Z O.O.O.O.O.O.O.O.O.&XZ O.O.J.O.&XO.+.:X5X3XpXaX8.hX3.vX3X+.Z.b.8 s.p.2 7 v.l A.N O.Z O.J.O.O.O.O.O.O.O.O.O.Z O.O.O.O.O.O.O.Z O.O.O.Z O.O.O.O.O.O.O.&XZ O.&XO.O.O.O.&XO.O.O.O.O.O.O.Z &XO.O.O.&XO.O.O.J.+.&X*X$.>.xXvXfX8.hXiXr.5XJ.V.r s.p.2 7 w b.z M Z O.C &XO.&XO.O.J.Z O.O.O.&XO.O.O.Z O.O.O.O.O.O.&XO.O.O.O.O.Z &X&XZ Z &XO.O.O.O.O.O.O.O.O.O.O.O.O.&XO.O.O.O.O.O.O.O.J.J.+.*X;.3XcX3.8.8.hXpXr.-.N N.9 g.s.p.g.9 k x M &XC O.O.O.O.J.O.O.O.O.Z &XO.O.&XO.O.O.O.O.O.O.O.O.O.O.O.O.O.O.O.O.O.O.O.O.O.O.O.O.Z &XO.O.O.O.&XZ O.O.O.Z O.O.&XO.J.J.O.H.*XO.#.4X3Xe.iX8.hXhXy.*.+.Z.b.4 p.s.2 j.t k M Z M &XZ O.O.O.O.O.O.O.O.O.O.O.O.&XO.O.O.O.O.O.O.O.&XO.Z O.&XO.&XO.O.Z O.O.O.O.O.O.O.&XO.O.Z O.O.O.&XO.O.O.O.O.O.O.&XZ O.&X+.5X;.t.5.0.0.q.3.r.;.J.z n.4 s.4 s.8 b.V.F.N J.Z J.J.O.O.O.O.O.Z O.&XO.O.O.Z O.O.O.O.O.O.O.O.O.O.O.O.O.Z O.O.O.O.O.&XZ O.O.O.O.O.O.O.O.O.O.O.O.O.O.O.&XO.O.O.&XJ.Z ;X&X5X=.zXaXhXfXiX4.xX4XH.B.w g.p.2 g.x.k x M O.F.*XJ.Z O.O.Z O.O.O.O.O.O.O.Z &X&XO.O.O.O.&XO.O.O.O.O.&XO.O.O.O.",
"O.O.O.O.O.O.O.O.O.O.O.&XZ O.O.O.Z &XZ O.J.O.O.O.J.J.O.Z +.$.5X*.e.aXfXfX3.vX3XO.Z.l 9 4 4 p.7 v.V.x N &XH.O.Z O.Z &XO.Z O.O.O.O.Z O.O.O.O.O.O.O.O.O.Z &XO.O.O.O.O.O.&XZ &XZ O.O.Z O.O.O.O.O.O.O.O.Z O.O.O.O.&XZ O.&XO.Z O.J.O.O.+.:X;.zXaX8.8.3.iXr.;.C z v.g.p.2 g.w b.x D.C &XZ O.O.J.O.O.O.&XO.O.O.O.O.O.O.O.O.J.O.O.O.O.O.O.O.&XO.O.O.O.O.O.O.O.&XO.O.O.Z O.O.O.O.J.O.O.O.O.Z O.O.O.&XO.O.O.&XJ.+.*X-.6XzX3.fX0.hXpXr.4XC k j.g.s.p.2 9 k A.M &XC &XJ.O.&XJ.O.O.Z &XO.O.O.O.Z O.O.&XO.Z &XO.Z &XO.O.O.O.O.O.O.&XO.Z O.O.O.O.&XZ O.O.O.O.Z &XO.O.&XO.O.O.O.O.Z &XJ.Z O.J.*XO.;X5X>.e.fXiXfXhX4.3XO.x b.7 2 2 7 j.t z M Z F.Z Z O.O.O.Z Z O.O.O.O.O.O.O.O.O.Z &XO.O.O.Z &XO.O.&XO.O.O.O.O.O.&XO.O.O.O.O.O.O.Z O.O.O.O.O.O.&XO.O.O.O.O.O.O.J.Z +.&X+.-.5Xr.5.0.0.0.3.r.;.J.z w 7 s.p.s.8 v.z F.F.J.J.J.Z J.Z &XO.Z O.O.O.O.O.O.Z &XO.O.O.O.&XO.O.O.Z &XO.O.O.O.O.O.O.O.&XO.O.O.Z O.O.O.Z O.O.Z O.O.O.O.O.O.&XO.J.&XJ.Z ;X*X-.:.e.pX2.fXfXpXxX-.H.B.w h.2 2 4 w k x Z.O.C o.J.J.O.O.O.O.Z O.O.O.&XO.O.O.Z &XO.O.O.O.&XO.O.O.O.J.O.O.O.O.",
"O.O.O.O.O.O.O.O.&XO.Z O.&XO.O.O.&XO.&XO.O.&XO.&XJ.Z O.=X#.#.4XxXpX3.8.fXiXvX3X+.x l 8 2 4 s.9 r l A.N O.Z O.Z O.O.O.O.&XO.J.O.O.O.O.&XO.O.O.O.&X&XO.O.O.O.O.O.O.O.O.O.O.O.O.O.O.&XO.O.O.O.O.Z &XO.&X&XZ O.O.O.O.O.J.O.&XO.Z +.O.+.:X5Xe.4.fX8.3.5.r.5XJ.V.r 7 p.2 s.9 b.A.M C J.J.O.O.O.O.O.O.&XO.&XO.O.O.O.O.O.O.O.O.O.Z &X&XO.O.Z O.O.O.O.O.O.O.O.O.O.O.O.&XO.Z O.O.O.O.O.O.O.&XO.O.O.Z O.Z &XO.J.+.*X-.6Xt.4.fX8.8.4.t.$.J.k 9 7 4 p.g.9 N.x D.&XC O.J.O.Z &XO.O.O.O.O.O.O.O.&XO.O.O.O.O.O.O.O.O.O.O.O.O.O.&XO.Z &XO.O.&XO.O.O.O.O.O.&XZ O.O.&XO.Z O.O.O.Z O.&XO.J.J.O.J.+.O.#.-.3Xe.iXfXfX6.vX*.+.x b.j.2 2 4 7 r Z.x C J.Z J.&XO.O.O.O.O.O.O.O.O.O.O.&XO.O.O.O.O.O.O.O.O.O.O.O.O.O.O.O.O.O.O.O.O.O.O.O.O.O.O.O.Z &XO.O.Z O.O.O.O.O.O.O.J.Z +.J.+.-.>.t.5.9.q.2.3.r.;.J.V.v.g.4 2 g.j.b.V.F.F.J.J.J.&XZ J.O.O.&XO.O.O.O.O.O.O.O.O.O.O.O.Z O.&XZ O.O.O.O.O.O.O.O.O.O.O.O.O.O.&XO.O.O.&XO.O.&XO.O.O.O.O.O.O.O.Z &XZ J.*XO.-.6XxXaXiXfXfXaXr.$.C t w 7 3 s.4 w k Z.M &XN +.J.&XO.O.O.O.O.&X&XO.O.O.O.O.O.O.O.&XO.O.Z O.O.O.O.O.J.O.O.O.",
"O.O.O.Z O.O.O.O.O.O.O.O.O.O.O.O.&XZ O.O.O.J.O.O.&X&XZ &X;X$.-.xXvX5.8.gXhXe.:.;Xx t 7 3 4 2 8 w V.z F.O.C O.O.O.O.O.O.O.O.O.O.O.O.&X&XO.&XZ O.Z Z O.O.O.O.O.O.O.O.O.O.O.O.O.O.O.O.O.O.O.O.O.Z O.O.O.O.O.O.O.Z O.&XO.O.O.Z J.+.Z +.-.>.cX4.fX0.0.3.r.5XJ.V.r g.2 2 g.8 b.z D.C J.J.=XO.O.O.O.O.O.O.Z O.O.Z &XO.O.O.O.O.O.O.O.&XO.Z O.O.O.O.O.O.O.O.O.O.Z O.O.O.&X&XO.O.O.O.O.O.O.O.O.O.O.Z O.O.O.O.O.&X;X-.:.t.3.8.8.0.e.t.$.H.N.8 7 2 s.p.v.v.x Z.J.G.@.J.Z O.&XO.O.O.O.O.O.O.&XO.O.O.O.O.O.O.O.O.O.O.O.O.O.O.Z O.&XZ O.O.O.O.&XO.Z O.&XO.O.O.O.O.O.O.O.O.O.&XO.O.O.J.J.+.J.*XO.#.5X=.zXiXfXfX3.y.:.*Xx b.h.2 3 2 7 r Z.x C &XH.&X&XO.O.&XO.O.O.Z &XO.O.O.O.&XO.Z O.O.O.O.O.O.O.O.O.O.&XO.&XO.O.Z &X&XZ O.&XO.&XO.Z O.O.&XZ O.O.O.O.O.O.O.O.O.Z O.J.+.-.>.t.6.hX0.8.5.r.;.Z z n.h.4 3 g.j.t z F.F.J.J.J.&XO.O.O.O.O.&XZ O.O.O.Z O.O.O.&X&XO.O.O.O.O.O.O.O.O.O.O.O.O.O.O.O.Z O.O.&XO.O.&XO.O.Z O.O.O.O.O.O.O.&XO.O.J.Z Z *X+.$.6XzXaXhXfXiXaXxX-.C l w 4 3 s.4 w N.x D.Z F.O.&XO.&XO.O.O.O.O.&XO.O.O.O.O.O.O.O.Z &XZ O.O.O.O.O.O.O.O.O.O.",
"O.O.O.O.O.O.O.O.O.O.Z &XO.O.Z &X&XO.O.O.O.Z O.O.J.&XZ Z +.;X:Xr.y.hXfXfX3.vX:.+.x B.h.4 2 s.8 v.V.x F.&XH.O.Z O.&XO.O.O.O.O.O.O.O.O.Z O.O.O.O.O.O.O.&XO.O.O.Z &XO.O.Z &XZ &XO.O.O.&XZ O.O.O.&XO.O.O.O.O.O.O.&XO.&XO.O.Z &XZ +.O.+.5X-.t.pX8.8.hXaXr.;.C V.n.g.p.p.g.9 b.V.D.C Z Z O.O.O.O.&XO.O.O.O.O.O.O.O.&XZ O.O.O.O.O.O.Z O.&XO.O.O.&XZ O.O.O.O.O.&XO.O.O.Z O.O.O.O.O.O.O.O.O.O.&XO.O.&XO.O.&XZ *X$.$.:.cX5.fX8.hXpXxX:XC N.w 7 4 p.2 j.N.z M J.C &XZ O.&XJ.O.O.O.O.O.O.O.Z O.O.O.Z &XO.Z &XO.O.O.O.&XZ O.O.O.O.O.O.O.O.O.Z &XO.O.O.O.O.O.O.O.Z Z &XO.O.O.O.&XO.J.Z O.J.*XO.$.5X=.zX6.fXfX3.4.xXO.x y j.2 4 7 h.r x D.F.Z Z &XZ Z O.O.O.O.Z O.O.&XZ O.O.O.O.&XO.O.Z &XO.O.O.O.O.O.Z O.Z O.O.O.O.O.O.O.O.Z O.O.&XO.O.O.O.O.O.O.O.&XO.O.O.&XZ O.O.+.-.6Xe.aXfX8.0.5.r.;.C V.x.7 s.a.4 j.n.V.F.F.J.J.J.O.O.Z &XO.&XO.O.O.O.O.&XO.O.O.O.O.Z Z &XO.O.O.O.O.O.Z &XO.O.Z &XO.&XO.O.Z O.O.Z O.O.&XO.O.O.O.O.O.O.Z O.O.&XJ.Z ;X&X-.3XcXpXfXfX2.pXxX4XN C.w s.p.p.g.w k A.x &XC O.J.O.Z O.O.O.O.O.Z O.Z &XO.O.O.O.O.O.O.O.O.O.O.O.O.O.O.O.O.O.",
"Z O.O.O.O.O.&XO.O.O.Z &XO.O.O.O.O.Z &XO.O.O.O.O.&XO.Z &X;X$.4Xr.pXiX8.hXhXvX3X*Xx V.7 4 2 2 8 r z A.F.O.H.Z J.&XO.O.O.Z &XO.O.O.O.O.Z O.O.O.O.O.O.O.&XO.&XO.O.O.&XZ O.O.O.O.O.O.&XZ O.&XO.O.O.O.O.O.Z O.Z O.O.O.O.&XO.O.&XJ.O.&X*X-.>.e.4.2.0.9.3.r.;.C V.v.g.s.p.s.j.n.A.N F.&XZ &XO.Z &XO.O.O.&XO.O.O.&XZ O.O.O.O.O.&XO.Z &XO.O.O.O.O.O.O.O.O.O.O.O.O.O.O.O.O.O.O.O.&X&XZ O.O.O.O.O.O.&XO.J.J.J.J.O.>X;.=.zX3.8.0.8.4.r.$.C V.9 g.2 p.s.x.N.z M &XC Z J.J.O.O.O.O.O.O.O.O.Z &XO.O.O.O.O.O.O.O.O.&XZ O.O.&XO.O.O.O.O.O.O.O.&XO.O.O.Z O.O.O.&XO.O.&XO.O.O.O.O.Z O.O.O.&XO.J.+.&X#.;.*.y.5.9.9.3.4.r.O.x l h.2 2 4 9 y z D.C C J.O.&XO.O.O.&XO.O.O.O.O.O.O.O.O.O.&XO.O.O.O.O.Z &XZ &XO.O.O.O.O.O.O.O.O.O.O.Z &XO.O.O.O.O.O.O.O.O.Z O.O.Z Z O.&XC +.&X;X5X=.t.3.2.9.3.5.u.$.J.V.v.h.p.a.a.x.b.z D.F.Z J.Z O.&XO.O.Z O.O.O.O.O.O.O.O.O.Z O.O.O.O.O.O.O.&XO.&XO.O.O.&XZ O.O.O.O.O.O.O.Z &XO.O.O.O.O.O.Z O.O.Z O.O.O.&XZ Z J.;X&X5X>.r.iXhXfXfXpXcX4XH.V.r 7 2 3 8 9 r Z.D.J.N +.&XZ O.O.O.O.O.O.O.O.O.O.O.O.O.O.&XO.O.&XO.O.O.&XO.O.O.O.O.&X",
"&XO.O.O.&XO.Z O.&XZ O.O.O.O.O.O.O.O.O.O.O.O.O.O.J.&XZ O.+.#.4X3XvX3.fXhX0.y.3X*XZ.B.8 4 4 2 8 v.z Z.N O.H.Z J.J.O.O.O.O.O.O.O.O.O.O.&XO.O.O.O.O.&XZ O.O.Z O.O.O.O.O.&XZ O.O.Z O.O.O.O.O.O.O.O.O.O.O.&XO.&XO.O.O.Z &X&XO.&XZ +.O.*X-.5Xe.4.8.0.8.5.r.-.H.l v.4 s.p.s.w b.x M F.Z O.O.O.O.O.O.O.O.Z O.O.O.O.O.O.&XO.O.O.Z &XO.O.O.O.O.O.O.O.O.O.O.O.Z &XZ O.&XO.O.O.O.O.Z O.O.O.O.O.O.O.O.Z O.J.O.Z J.+.:X:X>.zX5.9.0.0.5.r.$.N z j.7 4 p.s.w b.x D.&XF.*XJ.O.O.O.O.O.O.O.&XO.O.O.O.O.O.O.Z &XO.O.O.O.O.O.O.Z O.&XO.&XZ O.Z O.O.O.O.O.&XO.&XO.Z O.O.O.O.O.O.O.O.&XO.&XO.Z Z J.+.O.#.;.:.y.0.0.0.5.y.:.@.x u j.4 2 2 9 r x M M Z J.&XO.O.O.O.O.Z &XO.O.O.O.O.O.O.O.O.O.O.O.Z O.O.O.O.O.O.O.O.J.O.O.&XO.O.O.O.O.O.O.&XZ O.O.O.O.O.O.&X&XO.&X&XO.&XZ *XO.*X4X=.r.5.8.0.0.3.r.-.H.k n.h.s.a.g.k.b.z F.F.O.J.&XO.&XO.O.&XO.&XZ O.O.Z O.O.O.&XO.O.O.O.O.&XO.Z O.Z O.O.O.O.O.O.&XO.O.&XZ O.O.O.O.O.O.O.O.O.&XO.Z &XO.O.O.&XO.O.J.;X&X-.6XcXiXhXfXiXaXxX4XF.z 9 7 2 2 7 x.N.x M &XF.O.J.&XO.&XO.O.Z O.Z &XO.O.&XO.O.O.Z O.O.O.O.O.O.Z O.O.O.O.O.Z ",
"O.O.O.O.O.O.O.O.O.O.O.O.O.O.O.Z &XO.Z &XO.&XO.O.Z O.O.&X*X$.-.3XvXiX8.8.iX4.3X+.x l 7 4 2 2 7 r V.A.F.O.H.&XZ Z Z O.O.O.O.O.O.O.O.&X&XO.O.Z &XO.O.O.O.O.O.O.&XO.O.O.O.O.O.O.&XO.O.O.O.O.O.&XO.O.O.O.O.O.O.O.O.O.J.&XO.O.&XJ.O.O.+.-.>.e.4.0.0.0.3.r.-.Z V.x.g.s.p.s.x.b.A.M F.O.Z O.O.O.O.O.O.O.O.O.O.O.O.Z O.O.O.O.O.O.O.O.O.O.O.O.O.O.O.O.O.O.O.&XO.O.O.O.&XO.O.O.O.O.O.O.&XO.O.O.O.O.O.O.O.J.&XJ.O.>X-.6XzX4.8.8.0.4.r.$.C l 9 7 s.p.4 x.B.x D.O.C Z J.O.O.&XO.Z Z &XO.O.O.O.O.&XO.O.O.O.O.O.O.O.O.&XO.&XZ O.O.O.O.O.&XO.Z O.O.O.O.O.Z O.O.O.O.O.O.&XO.O.O.O.O.&XO.O.&XJ.+.&X#.5X:.y.5.8.0.0.4.*.O.x y 9 2 2 7 9 r x x B *XH.O.O.Z &XO.O.O.O.O.J.O.O.&XO.&XZ O.Z O.O.&XO.O.O.O.O.O.O.O.O.O.O.O.Z O.O.Z O.O.O.O.O.O.O.J.O.O.O.J.&XO.J.J.O.&XJ.O.Z *X;.6Xt.5.0.2.0.3.:.-.J.N.n.g.a.a.g.x.b.V.F.N J.&XZ O.O.O.O.O.O.O.O.O.O.&XO.O.O.O.&XO.Z &XO.O.O.O.O.O.O.O.O.O.O.O.Z O.O.O.O.O.O.O.O.O.&XO.O.O.O.O.&XO.O.O.O.J.&XJ.Z *X&X:X6XzXpXfXfXfXaXzX4XH.V.9 8 p.2 7 x.b.A.M J.F.+.J.&XO.Z O.O.&XO.O.O.O.O.&XZ &XZ O.O.O.Z &XO.&XZ O.O.O.O.Z O.",
"O.O.&XO.O.Z Z &XO.O.O.O.O.O.O.&XO.O.O.O.O.Z O.O.O.O.O.J.*X$.4X*.pX3.fXhXiXe.3X+.D.k 8 4 2 2 7 v.z x F.Z Z O.J.&X&XO.O.O.O.O.&XZ O.O.Z O.O.O.O.O.O.O.Z &XO.O.Z O.&XO.O.O.O.O.O.O.Z &XO.O.O.Z O.O.Z &XO.O.O.O.O.&XO.J.&XZ &XJ.+.O.+.-.>.t.4.0.8.0.5.r.5XC V.w 4 2 p.s.w b.Z.M F.Z O.&XO.O.O.&XZ O.O.O.O.O.O.&XO.O.O.O.O.O.O.O.Z &XO.O.J.O.O.O.Z &XO.O.O.O.Z O.O.O.O.O.O.O.O.O.O.O.Z &XO.O.&XO.Z &XJ.J.@.$.-.=.zXiXfX2.0.4.*.-.N l 9 g.4 2 4 x.t V.D.&XN O.J.O.J.O.O.&XO.O.O.O.O.Z O.Z O.O.&XO.Z &XO.O.O.Z O.O.O.O.O.O.O.O.O.O.&XO.O.O.&XO.O.O.O.&XO.O.O.Z O.O.O.O.O.J.O.&XO.J.+.&X#.5X:.e.3.8.9.3.y.:.+.x t 8 2 2 4 j.9 x M M Z H.O.O.O.O.O.O.O.O.O.O.O.O.Z O.O.O.&XO.O.Z O.O.O.O.&XO.O.O.O.O.O.O.O.O.&XO.&XO.O.O.O.O.O.O.O.O.O.O.O.O.O.O.O.O.J.J.*X*X*X;.>.e.5.8.0.q.3.xX$.C b.r g.s.a.s.j.N.A.M F.O.O.O.O.O.O.O.O.O.O.O.O.O.O.O.O.O.O.Z O.O.O.O.O.O.Z &XO.O.&XZ O.&XO.O.O.O.O.O.O.&XO.Z O.Z O.O.O.&XO.O.O.O.O.&XO.Z Z J.#.+.4X>.xXaXhXfXfXpXcX4XN V.9 h.2 3 g.0 y x D.&XM O.&XO.O.O.O.O.O.O.O.O.&XZ O.O.O.O.O.O.O.O.O.O.O.O.O.O.O.O.&XO.",
"O.O.O.Z O.O.O.O.O.O.O.O.&XO.O.O.O.&XZ O.O.&XO.O.O.O.O.O.*X#.4X*.pXiXfXhX8.e.3X*XD.l h.s.s.s.8 x.z x F.Z J.J.Z Z O.O.O.&XO.O.&XZ O.O.&XO.J.O.O.O.O.Z &XO.O.O.O.O.Z O.&XO.O.Z &XO.O.O.O.Z O.&XO.O.O.O.&XZ O.O.O.Z J.Z &XO.&XJ.O.O.+.-.>.e.4.8.0.8.3.xX-.C B.w g.p.2 s.w b.A.D.F.Z O.O.&XO.O.O.O.&XO.O.O.&XO.O.&XO.Z O.O.O.&XZ O.O.O.O.Z O.&XO.O.O.O.O.O.&XO.O.O.O.Z O.O.O.O.O.&XO.O.O.O.O.O.O.J.Z &XJ.+.:X4X6XzX4.8.8.0.pXr.$.C l x.7 4 2 s.x.b.z M &XC +.&XO.&XJ.O.O.O.O.&XZ O.&XO.O.O.&XZ O.O.&XO.O.O.O.O.Z O.O.O.&XO.O.O.&XZ O.O.O.O.O.O.O.O.Z O.&XO.O.&XO.O.O.O.O.O.O.O.Z +.O.#.>.:.e.5.0.8.5.y.r.O.x b.h.p.s.7 8 x.x x F.J.Z O.O.O.Z O.O.O.Z O.O.O.&XO.O.&XO.Z O.O.&XO.O.&XZ Z O.O.&XO.O.Z O.O.&XO.Z O.O.O.O.O.O.O.O.&XO.O.O.&XO.O.Z &XO.O.Z +.O.#.-.:.zX5.0.8.0.iX*.-.C N.v.g.p.a.g.j.N.Z.F.F.O.O.O.O.&XO.O.Z O.O.O.O.Z O.O.O.O.&XO.&XZ O.O.O.&XO.O.O.O.O.O.O.Z &XO.O.&XO.O.O.O.O.O.O.&XO.O.O.O.&XO.O.O.O.Z &XZ J.Z +.+.:X=.xXiXiXfXiXaXzX5XH.z v.8 2 p.4 x.r x D.&XH.O.&XO.O.O.Z O.O.O.&XZ O.O.O.O.O.Z &XO.O.O.O.Z O.O.O.O.&XO.O.O.",
"O.O.O.&XO.&XO.O.O.O.O.O.Z O.Z &XO.O.O.O.O.Z O.O.Z &Xo.Z +.;X5X*.e.iXhXfXiXpX*.;XD.t 8 4 2 2 8 w z A.F.&XH.&XJ.J.O.O.O.O.O.O.O.O.O.O.Z O.O.O.O.O.O.O.O.O.O.O.O.O.&XO.O.O.O.O.O.O.O.O.O.&XO.Z O.O.O.O.O.O.&XO.O.O.O.Z &X&XZ J.+.O.+.;.5Xe.pX8.0.8.5.r.5XH.l v.g.g.p.s.w t x F.F.&XO.O.O.O.O.O.O.Z O.O.O.Z &XO.Z O.&XO.O.O.O.O.O.O.O.O.&XO.Z O.O.&XO.O.O.Z O.&XZ O.&XO.&XO.O.Z Z O.O.O.O.O.O.O.J.&X&XJ.O.;X4X=.zXaXfXfX0.pXxX$.C l w 4 p.2 h.x.B.A.x J.C O.J.O.Z &XO.O.O.O.O.O.O.O.O.O.O.Z O.O.O.O.O.O.O.O.O.O.&XO.O.Z O.O.O.O.O.O.Z &XO.O.O.O.O.O.O.Z O.O.Z O.Z &XO.&XO.O.O.O.+.O.$.;.*.vX0.0.8.0.6.=.O.Z.y g.2 d.2 j.v.z D.F.A &XO.O.O.&XZ &XO.&XO.O.O.Z O.O.O.O.&XO.O.O.O.O.O.O.O.O.O.O.O.O.&XO.O.O.O.O.O.O.O.O.O.O.Z &XZ O.O.O.Z &XO.&XO.O.O.J.+.O.+.-.6Xe.3.8.2.q.5.:.$.N C.x.g.a.p.g.8 b.Z.F.F.&XO.O.O.Z &X&X&XO.O.O.O.&XO.O.O.O.O.O.O.O.O.O.O.Z O.O.O.O.O.O.&XO.O.O.O.Z O.O.Z &XO.&XO.Z O.O.O.Z O.O.O.O.O.O.&XO.J.J.;X&X4X5XxXiXiXfXiXaXt.-.H.z w 7 2 2 7 9 k z M &XF.O.O.O.O.&X&XO.O.O.O.O.O.O.O.O.O.O.O.O.O.O.&XO.O.O.Z &XO.O.O.O.",
"O.O.O.O.O.Z O.O.Z &XO.O.O.O.O.O.O.O.O.O.O.O.O.O.J.O.&XZ O.:X4Xr.y.iXfXhXhXpX3X;XD.l 8 4 4 p.j.w z x N Z J.O.J.O.O.Z Z O.O.O.O.&XO.O.O.O.O.O.O.O.O.O.O.O.&XO.O.O.O.O.O.O.O.O.O.O.O.O.O.O.O.O.O.O.O.Z O.O.O.O.O.O.&XZ &XZ J.J.*X+.+.$.>.cXpX0.0.hXaXxX-.Z l r 4 s.s.s.0 t x M F.J.O.Z Z O.O.O.O.O.O.O.Z O.O.O.O.O.O.O.O.O.O.O.Z O.O.O.O.O.O.O.O.O.O.O.Z O.O.O.&XO.Z &XZ O.O.&XZ &XO.O.O.O.O.O.Z &XJ.J.+.:X4X=.zX3.fXfX0.4.xX:XN l x.4 2 p.g.x.B.A.D.J.C &XO.O.O.Z O.O.O.Z O.O.O.O.O.O.O.O.O.O.Z O.&XO.O.O.&XO.Z O.O.O.O.O.O.O.O.O.&XZ O.O.O.O.O.O.O.O.O.O.O.O.O.O.O.O.O.O.O.O.+.O.#.>.*.y.0.0.9.5.y.=.O.Z.r h.a.s.p.j.v.V.D.F.F.&XZ O.O.O.O.O.O.&XO.O.O.O.O.O.O.Z O.O.O.&XO.O.O.O.O.O.O.Z O.O.&XZ O.O.O.&XZ &X&XZ O.O.O.Z O.O.O.O.J.O.Z &XJ.O.&XJ.+.O.#.-.3Xe.6.8.hX3.aXxX$.N B.j.h.a.a.h.9 t Z.N F.O.O.O.&X&X&XZ O.O.O.&X&XO.&XZ &XZ O.Z O.O.O.O.Z O.O.O.O.O.O.O.O.O.O.O.O.O.O.O.O.O.O.O.O.O.O.O.&XZ O.O.O.O.O.O.&XZ &XZ #.O.:X6XxXaXiXfXgX5.e.-.C V.9 8 p.2 7 9 N.x x O.F.+.O.O.O.O.&XO.&XZ O.O.O.O.O.Z O.O.O.&XO.O.&XO.O.Z O.O.O.Z O.O.",
"O.O.O.O.O.O.O.O.O.O.&XZ O.O.&XO.O.&XZ O.O.O.O.&XZ J.+.&X+.#.5Xr.e.iXfXiXfXvX*.*XZ.k 8 2 2 3 j.w V.A.N Z C O.Z O.O.&XO.O.&XO.O.Z O.O.O.O.O.O.O.&XZ O.O.O.Z O.O.O.O.O.Z &XO.O.Z &X&XZ O.O.O.O.O.O.&XO.O.&XZ &XO.O.&XZ &XO.Z Z *XO.*X-.5Xe.aX8.0.hXiXr.-.C B.v.s.4 4 s.w b.A.F.F.Z O.&XO.&XO.Z &XO.O.O.&XO.O.O.Z &XO.O.Z &XO.O.&XO.O.O.O.O.O.&XZ O.O.O.&XO.O.O.O.O.O.O.O.O.O.O.O.O.O.O.O.O.O.O.J.J.&XJ.O.;X4X6XvXaX8.3.hXaX*.4XN C.x.7 s.p.4 j.l A.Z.J.H.O.O.O.O.&XO.O.O.&XO.O.O.&XZ O.O.O.O.O.&XO.Z O.O.O.O.O.&XO.O.Z &XO.&XZ O.O.O.O.O.O.O.&XZ O.O.O.&XO.O.Z &XO.O.O.O.O.O.O.+.O.#.5X3Xe.0.0.8.5.y.:.O.A.b.g.3 4 p.j.v.N.D.J.N O.O.Z O.O.O.O.O.Z O.O.O.O.O.O.O.&XO.O.O.Z O.O.O.O.O.O.O.&XO.O.O.O.O.O.O.O.O.O.O.O.&XO.O.&XO.O.O.O.O.&XZ &XZ Z &XZ O.*X#.-.6XcX5.8.fXiX6.*.$.N N.x.p.p.p.h.x.b.A.M N O.O.O.&XZ O.&XO.O.O.O.Z O.O.O.O.O.O.&XO.O.O.O.&XO.O.O.&XZ O.O.O.O.Z &XO.O.Z &XO.Z &XO.O.O.O.O.O.O.O.O.&XZ O.&X&XZ &XZ *X&X:X6Xr.iXiXfXiXaXzX-.H.z r 7 p.s.7 j.t z M J.H.O.&XO.O.O.Z O.O.O.O.O.O.O.O.&XO.O.O.Z O.O.O.O.O.&XO.O.O.&XO.O.",
"&XZ O.O.O.O.O.O.O.O.O.O.O.Z &XO.O.O.O.O.O.O.O.O.J.O.O.O.*X;X4XxXpXaXgXfXiXvXxX;XZ.k j.4 2 2 7 x.z x N O.H.O.&XO.O.O.O.O.O.O.&XO.O.O.O.O.O.&XO.O.Z &XO.O.O.O.O.O.O.O.O.O.Z &XO.O.O.O.&XO.O.&XO.O.O.O.Z &XO.O.O.O.&XZ &XJ.&XJ.%.&X-X=.;.zXiXfX2.fX5.xX-.Z t v.4 s.s.g.x.b.Z.M H.J.Z &XZ Z O.&XO.O.O.O.Z &XO.O.O.O.O.O.O.O.O.O.Z O.O.O.O.O.O.J.O.O.O.Z O.O.O.O.O.O.O.Z O.O.O.O.O.O.O.O.O.O.O.Z Z J.&XJ.*X:X;.=.zXpXfX2.hXpXxX:XF.B.x.7 2 2 g.w B.A.D.Z C O.O.&XO.O.O.O.O.O.O.O.O.O.O.Z O.O.O.O.O.O.O.O.O.&XO.O.Z &XO.O.O.O.O.O.O.O.O.O.O.O.O.O.Z O.Z O.O.&XZ O.O.O.O.Z J.O.&X&X+.J.#.5X*.4.3.0.9.5.y.:.O.x t s.s.s.a.h.b.N.D.J.D.*XJ.Z O.O.O.Z O.O.O.O.O.&XO.O.O.O.O.O.&XZ O.&XZ O.&XO.O.O.O.&XO.O.Z O.O.O.&XO.O.O.O.O.O.O.Z O.O.O.O.O.Z O.O.O.J.&X&XO.+.-.3Xe.5.8.8.0.5.r.;XF.k x.s.p.a.g.c.t Z.F.H.O.J.O.Z O.&XZ O.O.O.O.O.O.O.O.O.J.O.O.O.O.Z O.O.O.O.O.&XZ O.O.O.O.&XO.O.O.O.O.O.O.O.O.O.O.O.Z &XO.O.O.O.Z O.O.O.O.J.J.#.J.$.5Xe.iXfXfXfXpXe.4XZ B.w 8 2 p.7 w t A.x O.C &XJ.O.O.Z O.O.O.O.O.O.O.O.O.O.O.O.Z &XO.O.O.O.O.O.O.O.O.O.&XZ ",
"O.O.O.Z &XO.O.O.&XO.O.O.O.&XZ O.O.O.O.O.O.O.O.O.&XO.O.&X;X;X4X3XzX5.8.2.iXpX*.+.D.N.9 4 p.4 h.r l x N Z N O.Z &XO.O.&XZ &XO.O.O.O.O.O.O.O.Z O.O.O.O.O.O.O.O.O.O.J.O.O.O.O.O.O.O.Z &XO.O.Z O.O.O.&XO.O.O.O.O.O.O.Z &XJ.Z &XZ &X&X*X%.5Xe.pX2.fX2.3.xX-.J.l w s.p.4 g.j.t A.M F.J.O.O.O.&XO.O.O.O.O.O.O.O.O.O.Z &XO.O.Z &X&XO.&XO.O.O.O.O.O.O.O.O.O.&XO.O.Z &XO.&X&XO.&XZ O.O.O.O.O.O.O.O.O.&X&XJ.O.J.O.:X:X3XpXpX8.fX2.pXcX:XH.l j.g.p.p.s.9 l x x J.J.O.O.&XO.O.O.O.Z &XO.O.O.O.O.&X&XO.O.O.O.O.&XO.O.O.O.O.O.O.O.O.Z &XO.O.O.O.O.O.Z &X&XO.&XO.&XO.O.O.O.O.O.O.O.O.J.O.J.&X+.Z :X;.*.y.0.0.8.3.y.:.O.x b.s.p.s.s.h.t C.D.H.F.&XZ J.O.O.O.&X&XO.&XO.O.Z O.O.O.O.O.O.O.O.O.O.O.O.Z O.O.O.O.Z O.&XO.&XO.O.Z O.O.O.O.O.O.O.&XO.&XO.O.O.&XO.O.O.Z &X*X+.*X5X6Xe.iX0.0.3.5.:.:XN N.x.s.a.s.g.x.B.Z.N F.O.Z O.J.O.O.O.O.O.Z &XO.O.O.O.O.O.O.O.O.O.&XO.O.O.O.Z O.O.O.&XO.O.Z O.Z &X&XO.O.O.&XZ O.O.O.O.O.O.O.&XO.&XO.O.O.O.J.J.#.J.-.3X3XpX8.fXfXaXzX5XC B.x.8 2 2 4 9 b.x M &XC O.J.O.O.O.&XZ O.O.O.O.O.&XO.O.&XZ O.O.O.O.&XO.O.O.O.O.O.O.O.O.",
"O.Z O.&XO.O.Z &XZ O.O.O.O.O.O.O.O.O.J.O.&XO.O.O.O.O.+.O.-X;X$.3XvXaXfXfXhXpXxX;XZ.k j.4 2 3 7 v.l x N Z C &XJ.O.O.O.O.O.Z O.O.Z O.&XO.O.O.J.O.O.O.O.&XO.O.&XO.O.O.O.O.O.O.O.O.O.O.O.&XO.O.&XO.O.O.O.O.O.O.Z &XO.&XJ.&XS J.J.%.&X*X5X=.zXaX8.2.fX3.r.-.C l x.g.p.p.g.x.b.Z.D.F.J.&XO.O.Z O.O.Z O.O.O.O.O.O.O.Z O.O.Z O.O.O.O.O.O.Z &XO.O.O.O.O.O.&XO.&XZ O.O.&XO.O.O.O.O.O.O.Z &X&XO.O.O.O.O.J.Z Z J.&X:X4X6XzX6.fXfX3.pXxX#.H.l j.g.p.p.s.x.N.A.M J.H.O.Z &XO.O.O.O.Z O.O.O.O.O.O.&XZ O.O.O.J.O.Z O.O.O.O.O.O.O.&XO.Z &XO.O.O.O.O.Z O.O.O.O.O.O.O.O.&XZ O.O.Z O.O.O.J.O.J.&X+.O.;X5Xr.4.0.8.8.0.y.:.Z x y s.s.s.p.h.b.V.D.J.F.O.&XO.Z O.O.&XZ O.O.O.O.O.O.O.O.O.O.O.O.O.O.O.O.&XO.O.O.O.O.&XZ O.O.O.O.O.O.O.&XO.O.O.O.O.Z &XZ O.O.O.&XZ O.Z J.J.*X+.;X-.3Xe.iX8.0.3.5.*.;XN t w s.p.p.g.j.N.D.M C O.J.O.J.O.O.O.O.O.O.Z O.O.Z O.O.O.O.O.O.O.&XZ O.O.O.&XO.O.O.O.O.O.O.O.O.O.&XZ O.O.O.O.O.O.O.O.O.O.O.Z &XO.&XZ O.&XH.Z +.&X;.5XcXpX8.fXfXiXzX5XZ V.x.h.2 2 4 9 b.x Z.&XN &XJ.O.&XO.O.O.O.O.Z &XO.Z &XO.O.O.O.O.Z &XZ O.O.J.O.O.O.O.O.O.",
"O.&XO.O.O.O.O.O.O.O.&XO.O.O.O.O.O.O.O.O.Z O.O.O.&XO.J.H.+.%.-.3XpXaX8.iXhXpX3X;XD.t 8 4 p.4 h.w V.x F.J.C &XJ.O.&XZ O.O.O.O.&XO.O.Z O.O.O.O.O.O.O.O.O.O.O.Z O.O.O.O.O.O.O.O.O.O.O.O.Z O.O.Z O.O.Z &XO.O.O.O.O.O.&X&XJ.P.J.Z -XJ.&X;.5XzX5.fXfX2.5.r.5XC t w g.s.s.7 9 b.Z.M N Z &XO.O.Z O.O.&XO.Z O.O.O.O.O.&XO.O.&XO.O.O.O.O.O.O.O.O.O.O.O.O.O.O.O.O.O.O.O.Z O.O.O.O.O.O.O.O.O.Z O.O.O.O.O.J.&XO.J.O.$.4X6XzXaXfX8.hX4.xX:XH.B.9 4 2 p.7 w b.A.M J.H.O.Z &XO.O.O.O.&XO.O.O.Z &XO.O.O.O.O.O.O.O.O.O.&XZ Z O.O.O.O.O.O.O.O.O.Z &XO.&XO.O.Z O.O.O.O.O.O.O.&XO.O.&XO.O.J.O.&X&X+.O.$.5Xr.4.3.8.9.5.e.5XJ.A.b.s.p.2 p.j.n.V.D.J.Z O.O.O.&XO.Z O.O.O.O.Z &XO.O.O.Z &XZ &XO.O.&XZ O.O.O.O.O.O.O.O.O.O.O.&XZ O.O.O.O.O.Z &XO.O.O.O.O.O.O.O.O.O.O.&X&XZ &XO.;X-.6Xe.5.8.8.hX5.*.;XN b.x.4 2 p.8 j.t x D.F.O.Z &X&XO.Z &XO.&XO.O.O.O.&XO.O.O.O.O.O.O.O.O.&XZ O.O.Z O.O.O.O.&XZ O.O.O.O.O.O.O.O.O.&XZ O.O.O.O.O.O.O.O.O.O.O.&X&XJ.#.&X%.3X*.4.fXfXfXpXzX4XC B.r h.p.2 7 j.t z M O.C O.J.O.O.O.O.O.O.O.O.O.O.O.O.O.O.O.O.O.O.O.O.O.O.O.O.O.O.O.&XZ ",
"O.O.&XO.O.Z &XO.O.O.O.O.O.O.O.O.O.O.O.&XZ O.O.O.&XO.&XJ.+.$.$.3Xe.3.8.8.3.pX3X#.M B.9 4 2 2 8 v.z x F.J.F.O.J.Z O.O.O.O.O.&XO.O.&XO.Z &XO.O.O.O.O.O.&XZ O.&XO.O.O.O.&XO.O.O.Z &XO.Z O.O.O.O.O.O.&X&XJ.O.O.O.O.O.Z &XO.Z &X&X-XZ *X-.>.t.y.fX0.0.5.*.5XH.B.j.7 4 2 7 9 N.A.D.H.Z Z Z Z O.O.O.O.O.&XO.O.O.O.&XO.O.O.O.&XO.Z O.O.O.Z &XO.O.O.O.&XO.O.O.Z &XO.O.O.O.&XO.O.Z O.J.O.O.Z &XO.O.O.O.Z &XO.J.*X;X4X6XzXaXfX8.0.4.r.4XF.V.x.h.p.a.7 x.l Z.D.Z C +.O.O.O.O.O.O.O.O.O.O.O.O.Z O.O.O.O.O.O.O.Z &XO.O.&XO.O.O.O.&XZ O.O.O.O.O.O.O.J.O.&XO.O.O.O.O.O.O.Z O.O.O.O.O.J.&XJ.&X+.*X;X>.xXy.0.0.8.5.e.>.J.x y s.p.s.4 j.b.l G.Z C &XO.O.Z O.O.&XO.O.O.O.O.Z O.O.O.O.O.O.O.O.O.O.O.O.O.O.O.O.O.O.O.O.O.O.O.O.O.&XZ O.O.O.O.O.O.O.O.O.O.O.O.O.O.O.&XJ.*X+.;X-.6Xe.iX8.8.3.aX:.:XF.b.x.7 p.2 h.x.t x F.F.O.J.O.Z &XO.O.Z O.O.&XZ O.O.O.O.O.O.O.&XO.O.O.O.O.O.J.&XO.O.O.O.O.O.O.O.O.O.O.O.Z O.O.O.O.O.O.&XZ O.O.O.&XO.O.O.&X&XJ.#.&X$.5XxXpX3.fXiXaXzX4XH.V.x.8 p.2 p.9 t z x O.C &XJ.Z &XO.Z &XO.J.O.O.O.O.O.O.O.O.O.&XO.O.O.O.Z &XO.O.&XZ O.O.",
"O.O.Z O.O.O.O.O.Z &X&XZ O.O.O.&XO.O.O.O.O.O.O.O.O.&XJ.J.*X:X-.*.pX5.fXfXhXy.xX;XD.l 8 4 p.4 8 w k A.N J.C &XJ.&X&XZ O.O.O.O.O.Z O.O.O.O.O.O.O.O.O.O.O.O.O.Z O.O.Z &XO.O.Z O.O.O.O.&XO.O.O.O.O.O.J.,XO.O.O.O.O.O.&XZ O.O.&XZ %.&X*X4X>.e.5.8.8.0.3.xX-.J.l v.7 2 2 g.j.t x D.H.Z Z Z J.&XO.O.O.&XO.O.Z &XO.O.O.O.O.O.Z O.&XO.O.O.O.O.O.O.O.O.Z O.Z O.O.O.O.O.O.O.Z O.O.&XO.O.O.O.O.O.O.O.O.O.J.J.O.J.O.$.-.=.e.aXfX0.8.pXxX#.F.l 9 7 3 3 4 e t x x Z C O.O.J.O.O.O.Z &XO.O.O.O.O.&XO.O.&XO.O.O.O.O.O.O.Z O.O.O.O.O.O.O.O.Z O.O.O.O.O.O.O.O.O.O.O.O.O.O.O.&XO.O.&XO.O.J.Z Z &X+.&X+.>.*.4.0.0.9.3.e.>.Z A.b.s.3 4 g.j.w Z.x C J.A O.O.&XO.O.O.O.O.O.&XO.&XZ O.O.O.O.O.O.&XO.O.Z O.O.O.Z &XO.Z &XO.O.O.O.O.O.Z &XO.O.O.O.&XO.&XZ O.O.O.O.O.&XO.Z O.*XO.*X5X:.vXaXfX0.iXaX3X;XH.b.x.4 p.p.7 w B.M M C O.J.O.J.&XO.O.&XO.O.O.&XO.O.O.O.O.O.Z O.O.O.O.O.O.O.O.O.O.O.O.&XZ O.O.O.O.&XO.O.&XZ &XZ &X&XO.O.O.O.O.O.Z O.O.Z J.Z J.+.&X4X6XxXaX8.8.fXaXzX5XJ.V.w 8 s.p.s.w t A.D.O.C O.J.O.Z O.O.O.O.O.O.O.O.Z &XZ O.O.O.Z &XO.O.O.O.O.&XZ O.O.O.&X",
"&XZ O.O.O.O.O.O.O.O.O.O.O.O.O.Z O.O.O.O.O.O.O.&XO.O.&XJ.*X$.:X*.zX3.8.fX0.4.:.#.M l 9 4 2 2 7 v.N.x N J.N &XZ J.O.O.O.O.O.Z O.&XO.O.O.O.O.O.O.O.&XZ Z &XO.O.O.O.O.O.&XO.&XO.O.O.O.O.&XZ O.O.Z &X&XS O.O.O.Z &XO.O.O.O.Z &XZ %.O.*X5X5Xe.5.8.8.3.3.3X-.H.B.x.7 s.2 g.x.t x D.H.J.Z Z J.&XO.O.O.O.O.Z O.O.O.&XO.O.&XZ O.O.O.O.O.O.O.O.&XO.&XO.Z O.&XO.O.O.O.O.O.&XO.O.O.O.O.O.O.O.O.O.O.O.O.O.J.O.O.J.+.#.$.3XzX5.fXhX0.aXr.$.H.l 9 7 s.2 7 w k x M Z C O.Z &XO.O.O.&X&XO.O.O.O.O.O.O.O.Z O.Z &XO.O.O.O.&XO.O.O.O.Z O.O.O.&XO.O.O.O.O.O.O.O.O.O.O.&XO.O.O.O.O.O.O.O.Z J.Z J.&X+.&X#.6Xr.y.0.0.8.5.y.>.C x v.7 2 a.2 j.r A.N C J.C O.O.O.O.O.O.O.O.O.Z O.O.&XO.O.O.O.O.O.Z O.O.&XO.O.O.Z O.&XO.Z O.O.Z &XO.O.&XZ O.O.O.O.Z O.O.&XO.Z &XO.&XZ O.O.J.&X&X;X-.6XzXiX8.8.iXaX3X:XF.N.9 4 2 2 8 9 N.M M F.O.J.&XO.&XO.O.O.O.O.O.O.O.O.O.O.O.O.&XO.O.O.O.O.O.O.O.O.O.O.O.O.O.O.O.O.Z &XZ O.O.O.O.O.O.&XO.O.O.O.O.&XZ O.O.O.J.O.J.*XO.:X3XxXaX8.8.0.5.e.5XZ B.w 7 2 a.p.9 t A.x &XH.O.J.O.O.O.O.O.O.O.O.O.O.&XO.&XO.O.O.O.O.O.&XO.O.O.O.O.O.O.O.O.",
"O.O.O.&XZ O.O.O.O.O.O.&XZ O.O.O.O.O.&XZ &XO.O.Z O.O.J.H.+.:X:X3XvX5.fXhXhXpXxX#.D.l 9 4 2 2 7 r k A.F.J.H.O.J.O.O.O.O.O.O.&XO.O.Z O.O.Z &XO.O.O.O.O.O.O.O.O.O.O.O.O.Z O.O.O.O.O.Z &XO.O.O.O.O.O.O.O.O.O.O.&XZ O.O.O.&XO.&XJ.&XL.*X5X6Xt.aX8.fX0.aX3X;.C l x.7 p.s.g.j.k A.M C &XZ J.O.&XO.O.O.O.O.&XO.O.O.Z O.O.O.O.O.O.O.&XZ O.O.O.O.O.Z O.&XO.O.O.O.O.O.O.O.Z &XO.O.O.O.O.O.O.O.O.&XO.O.O.O.J.O.J.&X#.-.3XzX4.fX0.hXy.r.:XF.z 9 4 s.p.g.x.t z x J.C O.Z &X&XO.O.O.Z O.O.O.O.J.O.O.O.O.O.O.O.O.&XO.O.O.O.&XZ O.&XO.O.O.O.O.O.&XO.O.O.O.O.&XZ O.Z O.O.O.O.O.O.Z +.Z H.*XJ.O.+.*X#.5Xr.4.2.8.8.5.y.>.Z z t 7 p.4 g.j.r x M Z H.H.O.O.O.O.O.O.&XZ O.O.O.O.O.O.&XZ O.J.O.O.O.O.O.O.O.O.&XO.O.O.&XO.O.O.O.O.O.O.O.O.&XZ O.O.O.O.O.O.O.O.O.O.O.O.J.O.+.+.*X-.:.e.iXfXhXiX3.*.;XH.t 9 4 2 2 8 9 t x D.F.O.J.O.J.O.O.O.O.Z &XO.O.O.O.&X&XZ O.O.Z &XO.O.O.O.O.O.O.O.&XZ O.O.O.O.O.&XO.O.O.O.O.O.O.O.Z O.O.O.O.O.O.O.O.O.O.J.O.&X*XO.:X5Xr.aX3.8.hX3.e.5XC V.r 7 s.2 4 j.b.x D.O.N O.J.&XO.O.O.O.O.O.O.O.O.O.O.Z O.O.O.O.Z O.O.O.O.O.O.O.O.O.O.O.",
"O.O.O.O.O.O.O.Z &XO.O.O.O.O.O.O.O.O.O.O.O.O.O.O.O.J.O.Z *X:X:X*.zX5.hXfX0.pXr.*XD.l 4 s.4 s.7 r N.A.N J.F.O.J.O.O.O.O.O.O.O.O.O.&XO.O.O.O.O.O.O.O.O.Z &XO.O.Z O.O.&XZ O.O.Z O.O.O.O.O.O.O.O.O.O.O.O.&XO.O.&XO.O.O.&XJ.O.J.J.-XO.+.4X6Xt.5.0.fXiX3.3X4XH.l w g.p.a.g.w b.A.M C Z Z Z J.J.O.&XO.O.Z O.O.O.O.O.O.O.O.O.Z &XO.O.O.O.O.O.Z O.O.O.O.O.O.&XO.O.&XO.Z &XO.O.O.Z O.O.O.&XO.O.O.O.O.O.J.O.O.J.+.;X4X6Xy.4.fXfXfXpXxX$.H.l 8 h.2 2 2 r N.V.M Z C &X&XO.O.&X&XO.O.O.O.O.O.O.O.O.&XO.&XZ O.O.O.O.&XO.O.&XZ O.&XO.O.O.O.O.O.Z O.O.O.O.O.O.O.O.O.&XO.O.Z O.O.&XJ.O.J.O.O.&X&X*X#.6Xr.6.3.0.9.5.y.;.Z z b.g.a.p.2 9 r A.Z.C J.C &XO.O.O.O.&XZ O.O.&XO.O.O.O.O.O.O.O.O.O.O.O.O.&XZ O.O.&XO.O.O.O.O.O.Z O.Z O.O.O.O.O.Z O.O.&XO.Z O.O.O.O.Z &XO.J.*X&X*X;.3XzXiXfXfXaXiX:.$.F.k w 4 p.2 h.x.t Z.N C O.&XZ O.&XO.O.O.O.O.O.O.O.O.Z O.O.O.O.O.O.O.O.O.O.O.O.O.O.O.O.Z &XO.O.O.O.O.O.O.O.O.Z O.O.&XO.O.Z O.O.O.O.O.O.J.&XO.Z #.J.:X3XxX3.3.hX8.5.e.;.Z z w 8 2 2 s.w N.V.x +.N &X&XO.&XO.O.O.Z O.O.O.O.O.O.O.O.O.O.O.O.&XO.O.O.O.O.O.O.O.Z &X",
"&XO.&XZ O.O.O.O.O.O.O.O.&XZ O.O.O.O.O.O.O.Z &XO.O.J.&XZ +.:X:X*.vX5.fXfX3.pXr.;XM l w 2 2 4 4 r l A.F.J.F.*XJ.O.O.O.&XO.O.O.&XZ O.O.O.O.&XZ O.O.O.O.O.O.O.O.&XO.O.O.O.&XO.&XO.O.O.O.O.O.O.O.&XZ O.O.Z O.O.O.O.O.O.&XO.&XJ.J.@.J.;X5X6XxXaX0.8.fX6.3X4XH.l x.g.2 2 7 w b.x F.H.&XJ.J.J.J.O.O.Z O.O.&XO.O.O.O.O.&XZ &XO.O.O.O.O.O.O.O.&XO.O.O.O.O.O.Z O.O.O.O.O.O.O.O.O.&XO.O.O.Z O.O.O.O.O.O.O.J.O.&X+.;X4X>.vXaXfXfXiXpXr.:XH.V.8 h.4 2 7 j.k Z.x Z C O.O.O.&XZ Z O.O.O.O.O.O.O.&XO.Z O.O.O.O.O.O.Z O.O.O.O.O.O.O.O.&XZ O.O.O.O.O.O.&XO.Z &X&XZ O.O.O.Z &XO.O.O.J.O.J.&XO.&X+.*X:X>.r.5.0.0.0.6.y.>.V x y 7 s.3 p.j.r A.D.Z O.H.&XZ O.O.O.O.O.O.O.O.O.Z &XO.O.O.O.O.O.O.O.&XO.O.O.O.O.Z O.O.O.O.O.O.&XO.&XO.O.O.O.O.&XO.O.O.O.O.O.O.O.O.O.O.J.O.*X&X#.4X3XzX4.fX8.iXaX3X$.F.B.x.s.p.2 7 w b.Z.M H.&X&XJ.&X&XO.&XO.O.O.O.O.O.O.O.O.O.J.O.O.O.O.O.O.O.Z &XO.&XZ O.O.O.O.O.O.O.Z &XO.O.&XO.O.O.Z O.O.&XO.O.O.O.O.O.J.O.Z J.#.J.:X=.cX4.0.hXfXaXzX5XZ z w 8 4 p.s.x.N.A.Z.O.F.&X&XZ O.O.O.O.&XO.O.O.O.Z &XZ O.&XO.O.O.Z O.O.O.O.O.O.O.O.O.O.",
"O.O.O.O.O.&XO.&XO.O.O.O.O.O.O.O.Z &XO.&XO.&X&XZ O.&XO.Z *X$.:X3Xy.iX8.0.iXpX:.*XM V.h.2 s.4 4 n.l A.F.Z N &XJ.O.Z &XZ O.Z &XO.O.O.O.O.O.O.O.O.O.O.O.O.O.O.O.&XZ O.O.O.O.O.O.O.O.&XO.O.&XO.O.O.O.&XZ O.O.O.&XO.O.O.&X&XZ &XJ.@.J.*X5X5Xe.3.hX8.iX5.3X4XJ.N.w g.2 s.g.x.t A.M J.O.Z J.J.&XO.&XZ O.O.&X&XZ &XZ O.Z O.&XO.O.O.O.O.Z O.O.&XZ O.O.Z O.O.O.O.O.O.Z O.O.O.O.O.O.O.O.O.O.O.O.O.O.O.O.O.J.Z J.*X;X:X:.zX5.fXfX3.aXr.:XF.l j.h.p.2 g.8 t z M Z N O.&XO.O.Z O.O.O.&XO.O.O.O.O.O.O.O.O.O.O.O.&XZ O.O.Z O.O.O.O.O.O.O.&XO.O.O.Z &XZ O.O.O.O.O.O.O.O.&XO.O.O.O.O.O.J.Z O.&X*X+.#.>.r.4.3.9.9.5.y.;.Z z r g.2 s.p.v.r x D.Z Z C &XO.O.O.O.O.&XZ O.O.O.&XO.O.O.O.O.O.O.O.O.Z O.O.Z O.O.O.O.O.O.O.O.&XO.O.O.O.O.O.O.&XZ O.O.O.&XO.&XO.O.O.O.O.J.J.*XJ.#.4X6Xe.5.fXhX3.aX3X:XF.B.w s.2 2 7 x.b.Z.M N O.J.Z O.O.O.O.O.O.O.O.O.O.O.O.O.O.O.O.Z &X&XO.O.&XZ O.O.O.&XO.O.O.O.O.O.O.O.O.O.O.&XO.&XZ O.O.&XO.&XZ O.O.J.O.J.&X&XJ.*X&X;X3XxXpXfX3.8.3.e.-.J.V.x.7 3 p.2 j.r x x #.F.O.J.O.O.O.O.O.O.&XO.O.O.&XZ &XO.O.O.O.O.O.O.O.O.Z &XO.O.O.O.O.",
"O.O.O.O.O.Z O.O.O.&XZ O.O.O.&XO.O.O.O.Z O.O.O.O.O.O.O.J.*X;X:XxXvX5.8.gX3.pXcX#.F.l x.4 s.3 g.r B.x F.J.H.&XJ.O.O.O.O.O.O.O.O.O.O.O.&XZ O.O.O.&XJ.O.O.O.O.O.O.O.O.O.O.O.Z &XO.&XO.O.O.Z O.O.O.O.O.O.O.&XO.Z O.O.O.&X&XZ J.J.-XO.*X4X6Xt.5.fX8.fXaX:.5XH.k w g.p.p.j.x.b.x M C &XJ.J.&XZ O.&XZ O.O.O.O.O.O.O.O.O.O.O.O.O.O.O.O.&XO.O.O.O.O.O.&XO.O.O.O.&XO.O.O.Z O.O.O.O.&XO.Z O.O.O.&XZ O.O.J.O.&XZ *X;X-.:.vXaXfXfXiX4.r.;XH.V.j.7 p.2 g.9 k A.D.Z C &XZ &XZ &XO.O.O.O.Z &XO.O.O.O.Z &XO.O.O.O.O.O.O.O.&XO.O.O.O.O.O.O.O.Z O.&XO.O.O.O.O.O.O.&XO.O.O.O.O.O.O.O.&XO.J.O.O.J.O.*X$.6Xr.4.8.8.8.5.e.-.Z A.n.7 2 2 2 9 j.x D.F.Z H.O.Z &XO.O.O.O.O.O.O.O.O.O.Z &XO.&XO.O.O.O.O.O.O.O.O.&XO.O.O.O.J.O.Z O.O.O.O.O.&XO.O.O.O.O.O.O.O.O.Z O.&XO.O.J.O.*XO.#.-.3XzX4.fXhX3.aX3X:XB l x.7 p.4 7 w l Z.N C &XZ &XO.O.O.&XO.O.O.O.O.&XZ O.O.O.O.O.O.O.Z O.O.O.O.O.O.O.O.O.O.O.O.&XZ &XO.O.O.O.O.O.O.O.O.O.O.O.O.O.O.O.O.O.O.Z J.J.;X&X#.5XcXy.hXfXhX5.vX5XC z x.j.s.p.4 j.N.z A.+.F.O.J.O.Z &XO.O.O.Z O.O.O.O.O.O.O.O.Z &XO.O.O.O.O.&XZ O.O.O.O.O.",
"O.Z &XO.O.O.O.O.O.O.O.O.O.O.Z O.O.O.O.O.O.O.O.O.J.O.Z J.*X;X4X*.vXaX2.fX3.4.xX;XD.l w 2 4 2 4 x.l z F.O.H.O.J.O.O.O.O.Z &XO.O.O.O.O.O.&XZ O.O.O.O.O.O.O.O.&XO.O.O.&XO.O.O.O.O.Z O.&XO.O.O.O.O.O.O.O.O.Z O.O.O.O.O.&XZ &XJ.J.*XJ.*X5X6Xe.pX8.2.iXaXr.4XC k x.4 p.a.7 w b.A.N H.O.C J.&XZ &XO.O.O.O.O.O.Z O.O.O.O.O.O.O.O.O.O.O.Z O.O.&XO.O.O.O.O.O.O.Z &XO.O.O.&XZ &XO.O.O.O.O.&XO.O.O.O.&XZ J.J.O.J.+.>X$.*.e.aX8.fXiXpXr.:XH.V.9 g.s.4 g.9 k x D.&XF.O.J.O.O.O.O.&XO.O.O.O.O.O.Z O.O.O.O.O.O.O.O.O.O.O.O.O.O.O.O.Z &XO.O.O.O.O.O.O.O.O.O.O.O.Z O.Z &XO.O.O.O.O.Z O.J.O.O.&X*X+.:X6Xr.4.0.0.8.5.y.;.Z V.r 7 p.p.g.9 v.x M H.Z H.O.O.O.O.O.O.O.O.O.O.&XO.O.O.&XZ Z O.O.O.Z &XO.O.O.&XO.O.O.O.O.O.O.&XZ O.O.O.O.Z O.O.O.O.O.O.O.O.&XZ O.O.O.O.J.J.O.&X:X-.=.zXpX8.fXiXaX*.:XF.k x.p.2 2 h.9 k x D.N O.J.J.&XJ.O.O.O.O.O.O.O.O.O.&XO.O.O.O.O.O.O.O.O.O.O.O.O.Z &XO.O.O.O.Z O.O.&XO.O.O.O.O.O.O.O.&XZ O.O.O.O.O.O.O.O.O.J.J.-X%.%.3Xt.4.8.8.8.3.y.-.C A.w 7 4 2 7 9 k x M Z N &X&XO.O.O.&XO.O.O.O.&XO.O.O.O.O.O.O.O.O.O.O.O.O.O.&XO.Z &X&XZ ",
"O.&XZ O.O.O.Z &XO.O.O.O.O.O.&XO.O.O.Z O.O.O.O.O.J.Z Z J.*X#.4X*.zXjXfX3.jXpX:.:XF.k w s.2 2 x.w B.Z.F.Z H.O.O.O.&XO.O.O.O.O.O.O.O.O.O.O.O.O.Z O.O.O.O.O.O.Z O.&XO.Z O.O.O.O.O.O.O.Z O.&XZ &XO.O.O.O.O.O.O.O.O.O.O.&X&XO.J.J.+.J.+.5X5Xe.3.fXfXfX5.3X4XC l x.s.p.4 7 x.b.A.M C O.Z J.&XJ.Z &XZ O.O.O.O.&XO.&XO.O.O.O.&XO.O.O.O.&XO.O.O.O.O.O.O.O.O.O.O.O.O.O.O.O.O.O.&XZ O.O.O.O.O.O.O.O.O.O.&XZ O.J.*X;X4X=.vX4.fX8.fXpXt.;XC l j.7 2 p.s.r N.A.D.O.N +.&XO.O.O.O.O.O.Z O.&XZ O.&XO.O.O.O.O.Z &XO.O.O.O.O.O.O.O.O.&XZ O.O.O.O.Z &XO.O.O.Z O.O.O.O.&XZ O.O.O.O.O.&XO.J.O.Z &X*XO.$.>.r.4.0.8.8.4.e.;.J.A.r k.2 2 2 c.r z F.H.B -XZ O.O.O.O.O.O.&X&XZ Z O.O.O.O.O.O.O.O.O.O.O.O.&XO.O.O.O.O.O.O.O.O.O.O.O.O.&XO.O.O.Z &XO.Z &XO.O.O.O.O.O.O.O.O.&X&X&X;X5X6XzXsX8.hXjXaX*.4XL.B.w 4 p.2 j.j.N.Z.M C O.V Z O.Z O.Z O.O.O.O.O.O.O.O.O.O.O.O.O.&XO.O.O.Z &XO.O.O.O.O.O.O.O.O.O.O.Z O.Z &XO.O.O.O.O.Z &XO.O.&XO.O.O.O.&XZ J.J.+.O.*X=.zXy.8.8.0.iXy.-.J.A.e 7 3 3 7 9 t z x Z H.+.&XO.O.O.O.O.O.O.O.Z O.O.O.O.Z O.O.O.&XZ &XO.O.Z O.O.O.O.O.O.",
"O.O.O.O.O.Z O.O.O.O.O.O.O.O.&XO.O.O.&XO.O.O.O.J.Z &XZ C *X#.4X3Xe.iXfXfX8.4.6X:XM l 9 s.2 2 7 w B.x F.Z H.O.&XO.Z O.&XO.O.O.O.&XO.&XO.O.O.O.O.O.O.O.O.O.O.Z O.O.&XZ O.O.O.O.O.O.O.O.O.O.&XO.&XZ O.O.O.O.O.O.O.O.O.&XZ &X&XJ.*XO.;X5X6Xr.aXiX8.iXaX:.4XJ.N.w s.2 p.g.w b.Z.N C O.Z J.J.&XO.&XZ O.O.O.O.O.O.Z O.O.Z &X&XZ O.Z O.O.&XZ Z &XO.O.O.O.O.O.O.O.Z &XO.O.O.O.O.O.&XO.O.Z &XO.O.Z O.O.Z J.O.&X*X;X4X6XvXaXfXfXfXpXr.:XC l w g.s.2 s.9 k A.x J.N &X&XO.O.O.&XZ O.Z O.O.O.O.O.O.O.O.O.O.Z O.O.O.O.O.J.O.O.O.O.O.O.O.O.O.O.&XO.O.Z O.&XO.O.O.O.O.O.O.O.O.J.O.J.O.J.J.O.&XO.&X$.6Xr.5.0.8.8.5.e.4XZ z r 7 s.2 g.8 t z M Z N &XO.O.O.O.Z O.O.O.O.O.O.O.O.O.&XO.O.O.O.&XO.O.O.Z O.O.O.O.O.O.O.O.&XZ &XO.O.O.O.O.O.&XO.O.O.&XO.O.Z O.O.O.O.O.J.Z +.O.#.5X=.cXiX2.8.iXaX3X;XF.N.w 4 p.2 7 x.N.Z.N C O.O.O.&XJ.Z &XO.O.O.O.O.O.O.O.&XO.&XZ O.O.&XO.&XZ O.O.Z O.O.O.O.&X&XO.&XZ O.O.O.&XO.O.O.O.O.O.O.O.O.Z O.Z &XO.O.Z J.J.+.+.%.5XzXy.fX8.hXaXy.4XC V.x.8 s.3 s.9 k x Z.H.N O.J.O.O.O.O.Z O.O.O.O.Z &XO.O.&XO.&XO.O.O.Z O.O.&XZ &XO.O.O.O.",
"O.O.O.O.O.&XO.O.O.J.O.O.O.O.Z O.O.O.O.O.O.O.O.Z J.+.Z J.*X;X4X:.zX3.fXiXhX3.3X:XM l j.s.3 4 7 v.l z N Z H.O.&XO.O.O.O.O.O.O.O.Z O.Z O.O.&XZ O.&XO.O.O.O.O.&XO.O.O.O.O.O.&XZ O.O.O.O.O.O.Z O.O.O.O.&XZ O.O.O.O.O.O.J.&XO.&X&XO.&X+.5X5Xe.5.hXfXfXaXxX4XH.l w s.a.2 g.w b.A.M C &XJ.H.J.Z O.&XO.O.O.O.O.O.O.O.O.O.O.O.O.O.O.&XO.O.O.O.O.O.O.O.O.O.J.O.O.O.O.O.O.O.O.O.O.O.Z O.O.&XZ O.O.&X&XO.J.&XO.Z O.:X4X>.e.iXfX8.iXpXzX:XH.l x.s.s.2 p.9 b.x D.Z F.O.&XO.O.O.O.O.O.&XO.O.O.O.O.&XZ O.O.O.&XO.O.O.Z &XO.O.O.O.O.O.O.O.&XZ O.O.O.O.&XO.O.O.O.O.O.O.O.O.O.O.O.O.O.O.J.O.O.&X*X*X:X=.t.5.0.8.8.5.e.5XH.A.r g.p.2 g.8 N.z F.Z F.O.Z O.&XO.&XZ O.O.O.O.O.O.O.O.Z O.&XZ O.O.O.O.O.O.O.O.Z &XZ &XO.O.O.O.O.O.O.Z &XO.O.Z O.O.O.Z O.O.&XO.O.O.O.O.J.Z &XO.;X5X6XzXpXfXfXiXiX3X4XF.N.w 4 2 2 7 j.k Z.D.N O.O.Z &XZ &XO.&XO.O.O.O.O.&XZ Z O.O.O.Z O.O.O.O.O.O.O.&XO.O.O.O.O.Z O.O.O.O.O.O.Z O.O.O.&XZ O.O.O.O.O.O.O.O.O.O.Z J.&X-X%.*X3XzXe.fX8.3.aXe.-.C A.v.7 s.3 s.j.t A.x H.Z O.J.O.&XZ O.&XO.O.Z &XO.O.O.O.O.O.O.O.Z &XO.O.O.O.O.O.O.O.&XZ ",
"&XO.O.Z O.O.O.O.O.O.O.O.O.O.O.O.O.Z O.O.O.O.O.O.J.*XZ J.&X;X4X6XzXhXhXhXhXaX3X:XF.B.h.4 2 3 g.w k A.N Z C O.O.O.O.O.O.O.O.O.O.Z O.O.O.&XZ &XO.O.O.O.O.O.O.O.O.O.O.O.O.O.O.O.O.O.O.Z O.O.&XO.O.&XZ &XO.O.O.O.O.O.O.Z &XO.&XZ *XJ.;X4X6Xt.aX8.fXfX3.xX4XC B.j.s.2 4 7 w t x D.H.O.J.J.O.J.O.O.O.O.O.O.O.O.&XO.O.O.O.O.&XZ O.O.&XZ Z O.O.&XZ O.O.O.O.O.O.O.Z &XO.O.O.O.O.O.O.O.O.O.&XZ O.O.O.O.&XZ &XO.*X;X4X>.e.aXgX3.8.pXxX4XC l 9 s.s.2 4 x.N.x D.J.H.O.O.O.O.&XO.O.O.O.O.Z O.O.&XO.O.&XO.&XO.O.Z O.O.O.O.O.O.O.O.O.&XZ O.Z O.O.O.O.&XO.&XO.O.O.&XO.O.O.O.O.Z O.&XJ.Z &XJ.&X*X&X$.>.xX5.8.0.8.4.t.-.J.A.r g.p.a.7 9 b.z D.Z F.O.Z O.O.O.O.O.&XO.O.O.&XO.O.O.O.O.O.Z O.O.O.&XO.O.Z O.O.O.O.O.O.O.O.O.O.O.O.O.O.O.O.O.O.O.O.O.O.O.O.&XZ O.&XO.J.J.O.+.#.5X6XcXpXfXfXiXaX3X:XC B.e s.2 4 7 w t x N C O.&XH.O.&XO.&XO.O.&XO.O.O.Z O.O.O.&XO.O.O.O.O.O.O.Z &XO.O.O.O.&XZ O.O.&XO.O.Z &XO.O.O.O.O.O.O.O.Z O.O.O.O.O.&XO.J.&XZ *X;X*X6Xe.vX8.8.aXiXy.4XH.A.r 7 a.a.g.j.N.A.x H.H.O.&XO.O.O.O.O.O.O.O.Z O.Z &XO.O.O.O.&XZ O.O.&XO.O.O.O.O.&XZ O.",
"O.O.O.&XO.O.O.O.Z &XO.O.O.O.O.&XO.&X&XO.O.Z &XZ J.&XZ J.*X#.5X6XzXiX8.fXiXpX3X:XN B.w 7 a.p.8 w k x M Z C O.O.O.O.O.O.O.O.O.&XO.O.O.O.Z O.O.O.Z Z O.O.O.O.Z &XO.O.O.O.O.O.O.O.O.O.&XO.O.Z O.O.O.O.O.O.O.O.O.O.O.O.J.&XO.&XH.*XZ *X;.5XzXaX0.fXiX3.3X4XJ.B.j.7 p.2 g.x.B.Z.N H.O.Z Z J.O.O.&XO.O.Z &XO.O.Z O.O.O.O.O.O.O.O.O.O.O.&XO.O.O.O.O.O.O.Z &XO.O.O.O.O.O.O.Z &XO.O.&XZ O.O.O.O.O.O.O.J.J.Z &XO.;X:X6XzXpX8.hXhXpXxX:XC B.x.s.2 p.s.x.k A.x J.F.+.J.O.O.O.O.O.O.O.O.&XO.O.Z O.O.O.O.O.O.O.&XO.O.O.O.O.O.&XO.O.O.O.O.&XO.O.&XO.Z O.Z O.O.O.Z O.O.O.O.O.&XO.O.J.J.O.Z &XO.*X:X3Xt.5.0.8.0.3.e.-.Z z v.g.p.2 g.8 b.z F.Z F.O.&XO.O.O.O.O.Z O.O.O.Z O.O.O.O.O.O.&XO.O.O.Z O.O.&XO.O.O.O.O.O.&XO.O.O.O.O.O.O.O.&XZ J.O.O.O.O.O.O.O.O.O.O.O.&XZ O.O.;X-.6XcXiXfXfXiXaX3X-.C B.w 4 2 s.g.w t x F.C O.J.J.O.O.O.O.O.O.Z O.O.O.&XO.O.O.O.O.&XO.O.O.Z O.O.O.O.O.O.O.O.O.O.O.Z O.O.O.O.O.O.O.O.&XO.O.O.&XO.O.O.O.O.Z O.J.J.Z *X;X+.5Xe.vXfXfX0.aXe.4XC A.w h.4 p.7 9 N.V.x J.C O.&XO.O.O.O.O.O.O.O.&XO.O.O.O.O.O.O.O.O.O.O.Z O.O.O.O.O.O.O.O.",
"O.O.O.O.O.O.O.O.O.O.&XZ O.&XO.Z Z &XZ O.O.&X&XZ J.&XO.J.*X;X$.6XzXaX8.fXfXaX3X$.N B.h.4 2 3 w w k z N J.C O.O.O.Z &X&XO.O.O.O.O.O.O.O.O.O.O.O.&X&XO.O.&XO.&X&XZ O.O.O.J.Z &XO.O.O.O.O.Z O.O.Z O.O.O.O.O.O.&XO.O.O.J.&XO.J.J.%.O.;X;.5Xt.4.hXfX0.aX3X4XH.l j.7 p.2 s.x.t A.M C &XJ.J.J.J.O.O.O.O.O.O.O.O.O.O.O.O.O.O.O.O.O.O.O.&XO.O.O.O.O.O.O.O.O.&XO.O.O.O.O.O.O.&XZ O.O.O.O.O.O.O.O.O.O.O.J.&X&XJ.*X;X4X3Xe.aXfXhXhXpXxX4XC V.x.4 p.p.s.x.b.x M J.F.O.J.O.O.O.Z &XO.O.O.O.O.Z O.O.Z O.&XZ O.Z O.O.O.O.O.O.O.Z O.O.O.O.O.&X&XZ O.O.O.O.O.O.O.O.O.O.Z &XO.O.O.O.O.J.O.O.Z &X+.&X$.>.t.5.0.0.8.4.e.-.J.z w g.s.p.g.9 n.z G.C F.+.O.O.&XO.&XO.Z O.&XO.Z O.O.O.O.O.O.O.&XZ O.O.O.O.O.O.O.O.O.O.O.Z O.O.Z &XZ &XO.O.O.O.O.O.O.O.O.O.Z O.O.O.Z O.Z J.&XZ *X4X>.e.aXfXfXhXaX*.-.H.B.w 4 2 2 7 e t x M C *XH.Z O.J.&XO.&XZ O.O.O.O.O.O.O.O.O.Z O.Z O.O.&XO.O.O.&XO.&XZ O.O.O.O.O.O.O.O.O.O.O.O.O.Z O.&XO.O.O.O.O.O.O.O.O.Z &XJ.*X*X;X=.zXy.fX8.0.sXy.-.C A.w 7 a.3 4 9 b.A.D.Z C &X&XO.O.O.O.O.O.O.O.O.O.O.O.O.O.&XO.O.O.Z O.O.O.O.O.O.O.O.O.&X",
"Z O.O.O.Z &XO.O.O.&XO.O.O.Z O.O.O.O.O.O.O.O.O.O.J.O.Z Z *X#.-.>.zXaXfXfXiXaX3X#.N B.x.7 4 a.4 w l V.N &XF.O.O.&XO.O.Z O.O.O.&XO.Z O.O.O.&XO.O.O.O.O.O.Z O.O.O.O.O.O.O.O.O.O.O.O.O.O.O.&XO.O.&XO.O.O.&XO.O.Z O.O.O.Z &XO.J.H.*XO.;X4X6XzX5.0.fXiXiX*.4XH.B.9 7 p.4 h.w b.x F.C &XZ H.&XZ O.O.O.O.O.J.O.O.O.O.O.O.Z &XO.O.&XZ O.O.O.O.O.O.&XZ O.&XO.Z O.O.O.O.O.&XO.Z &XO.O.O.O.O.O.O.O.O.O.O.Z &XO.J.*X;X:X=.zX4.fXhXhXaXxX:XC V.w 4 4 s.g.w b.A.D.J.C &XJ.O.O.O.O.O.O.O.O.O.O.&XO.O.&XO.O.O.O.&XO.O.O.O.&XZ O.O.O.O.O.O.O.O.O.O.O.O.Z &XO.O.&XZ O.O.O.O.O.O.O.O.O.J.&XO.J.&X+.+.4X3Xt.4.0.9.0.5.e.5XJ.A.w 4 s.p.g.8 n.z F.Z D.O.O.O.O.O.Z O.&XO.O.O.&XO.O.O.O.O.Z &XO.O.O.O.O.O.O.O.O.O.&XZ O.O.O.O.O.O.O.O.O.O.O.O.O.O.&XO.O.O.&XO.O.O.O.&XJ.&XO.&X#.5X5XzXaXhXhX0.iX*.$.C l w 4 2 4 4 w t x F.F.J.Z J.O.O.O.Z O.O.Z &XO.O.O.O.O.O.O.&XO.&XO.O.O.O.O.O.Z O.O.O.Z &XO.O.O.&XO.O.O.O.&XZ O.O.O.O.Z &XO.&XZ O.O.O.O.&XO.J.*X*X#.5Xe.pXhXfX0.5.e.5XH.A.r s.p.2 s.j.k z Z.H.C O.J.O.O.O.O.O.&XO.O.O.O.O.O.&XO.Z O.O.O.O.&XO.O.O.O.J.O.O.O.O.",
"&XO.O.O.O.O.O.O.O.O.O.O.O.O.O.O.O.O.O.O.O.O.O.O.J.+.Z H.*X#.-.6XzXaX8.fXiX5.xX$.M V.x.4 4 a.8 w B.A.N Z L.Z Z J.O.O.O.O.O.&XZ O.&XO.O.O.O.O.O.O.O.O.O.O.&XO.O.O.O.O.O.O.&XZ O.O.&XO.O.O.O.O.Z &XO.O.O.Z O.&XO.O.O.Z O.Z &XJ.O.O.+.-.6XcXaX0.8.iX5.:.-.H.b.x.7 s.p.8 x.t Z.D.C &XJ.J.J.O.O.O.O.O.O.O.&XZ O.O.Z &XO.O.O.O.O.O.O.O.O.O.O.&X&XO.O.O.O.O.O.&XZ O.O.Z O.O.O.O.O.Z &XO.O.O.O.O.O.O.J.J.J.O.*X;X4X3Xe.pX8.hXhXaXr.$.Z z w 4 4 2 7 w t x Z.J.H.O.J.Z O.O.Z &XO.O.&XO.O.O.O.O.O.Z &XO.O.O.O.Z O.O.O.O.O.O.Z O.O.O.O.O.&XO.O.&XO.O.O.O.O.O.&XO.O.O.O.Z &XO.O.O.O.O.Z O.+.+.-.6XcX5.0.0.9.5.t.-.C A.w s.3 a.g.j.b.V.D.Z F.O.O.O.O.O.O.O.O.O.O.O.O.O.O.O.O.J.O.&XO.O.O.O.Z O.O.Z O.O.O.O.O.O.O.O.Z O.O.O.&XO.Z O.O.O.Z O.&XZ O.O.O.O.O.O.&XZ *XO.+.;.6XxXaXfXhXiXaXxX:XC B.c.7 4 2 4 w t Z.D.C O.J.J.&X&XO.&XO.O.O.O.Z &XO.O.O.O.O.O.Z &X&XZ O.O.O.O.O.O.&XZ O.O.Z O.O.O.&XZ O.O.O.O.O.O.O.O.O.O.&XO.O.O.O.O.&XJ.O.J.*X&X:X>.zXvX2.fXhX3.y.-.C z r 7 s.2 s.9 v.A.M C C O.Z &XO.O.O.O.Z O.&XZ O.&XO.Z O.&XO.O.&XO.O.O.O.O.O.O.O.O.O.O.",
"O.O.O.O.O.O.J.O.O.O.&XZ &XZ O.O.&XO.O.O.O.O.O.O.J.O.Z J.*X#.4X>.e.3.8.fX3.aX3X$.N b.x.7 4 2 4 w B.A.M C J.Z Z O.O.O.Z &XO.O.O.O.O.O.O.O.O.O.O.O.O.O.Z O.Z O.O.O.O.O.O.O.O.O.O.O.Z O.O.O.O.O.O.O.Z &X&XO.O.Z O.O.O.J.&XJ.O.H.;XO.+.-.5Xt.5.0.fX0.5.xX-.C l x.4 p.2 s.w t x D.H.&XJ.J.&XO.O.O.O.O.O.O.O.O.&XO.O.O.O.O.O.&XO.O.Z O.O.O.O.Z O.O.Z &XO.O.O.O.O.O.O.O.O.&XO.O.O.O.O.O.&XZ &XO.O.O.&XZ O.J.*X;X$.3Xe.pX8.8.8.4.r.5XC k e 8 3 3 s.0 t x x Z C +.J.&XO.O.O.O.O.O.Z O.O.O.O.O.O.O.O.O.O.O.O.&XO.O.Z &XO.&X&XO.O.O.O.O.Z O.O.Z O.O.O.O.O.O.Z O.O.&XO.O.O.O.O.J.O.O.Z O.+.+.%.>.t.5.0.8.2.4.t.-.A V.w k.p.p.s.j.b.A.F.J.N O.O.O.&XZ &XZ O.O.Z &XO.O.O.O.O.O.O.O.O.O.O.O.&XO.O.&XO.O.Z &X&XO.O.O.&XO.&XO.O.O.&XO.O.O.O.O.O.O.O.O.Z &XO.O.J.J.+.+.@.;.5Xe.aXfXhXhXsXxX4XH.B.v.7 4 4 4 w t A.B N O.J.J.o.Z O.Z &XO.O.O.O.O.O.O.O.O.O.O.O.O.O.O.O.O.O.O.O.O.O.O.O.O.&XO.O.O.O.O.O.O.O.O.O.O.Z &XO.O.O.Z &XZ O.O.&XZ O.J.+.*X:X6XxX5.3.gXhX3.zX4XZ z w h.2 2 7 9 r A.G.Z C &X&XO.O.&XZ O.O.O.O.O.O.O.O.O.O.Z O.O.O.O.O.O.O.O.O.O.Z &XO.O.",
"O.O.O.O.O.O.Z O.O.O.O.O.O.O.O.O.O.O.O.&XO.O.O.O.&XO.Z J.*X#.4X:.e.5.fXfXhXaX3X:XF.B.x.8 2 p.s.x.N.Z.N C J.Z Z O.O.Z O.O.&XZ O.O.O.O.O.O.O.O.J.O.O.O.&XO.O.O.O.O.O.O.O.Z O.O.O.&XO.O.O.O.O.O.O.O.O.O.&XO.O.O.O.O.O.Z &XZ &XJ.+.O.+.-.6XzX5.0.0.0.y.3X5XC B.j.4 p.p.8 x.t A.M C &X&XJ.&XO.O.O.O.O.O.O.O.O.Z O.O.O.O.O.O.Z O.O.&XO.O.O.O.O.O.O.O.O.O.O.Z O.O.O.O.O.O.O.O.Z O.O.&XO.O.&XZ O.O.O.O.J.J.Z +.;X-.6Xe.aX8.hX0.6.r.$.Z z x.h.4 2 s.w N.x M J.H.O.J.O.O.O.O.O.O.Z O.O.O.O.Z O.O.O.O.O.O.Z &XO.&XZ O.O.&XO.O.&XO.O.O.O.Z O.Z O.O.O.O.O.O.O.O.O.O.Z &XO.O.Z O.J.O.O.Z J.+.+.-.6Xt.5.2.8.hXaXcX-.H.A.w s.p.p.4 j.b.V.F.J.F.O.O.O.O.O.O.O.O.O.O.&XO.O.O.O.O.O.O.O.O.O.O.O.O.Z &XO.&XZ O.O.&XO.Z O.O.O.Z O.O.Z O.O.O.O.O.O.O.O.O.O.&XZ O.O.J.&XO.O.;X-.6Xt.aXhXfXaXaX3X4XH.B.w 4 2 4 4 x.b.A.N N O.J.J.-XZ O.Z O.O.Z &XO.O.O.&XO.O.O.O.O.O.&XO.Z &X&XO.O.O.O.&XO.O.&XZ O.O.O.O.O.O.O.O.O.Z O.O.O.O.O.O.O.O.O.O.J.J.O.J.#.&X:X5Xr.4.0.fX8.aXe.-.Z z r h.s.s.7 9 y z F.H.C &XH.O.O.O.O.O.O.O.O.O.Z O.O.O.O.O.O.O.O.O.O.O.Z O.O.O.&XZ O.O.",
"O.O.&XZ O.O.&XO.O.O.O.O.O.O.O.O.O.O.O.Z Z &XO.O.&X+.Z J.*X;X-.6Xe.aX0.fXiX5.xX$.F.B.8 4 2 3 4 w B.x N H.Z &XH.O.O.&XO.O.O.O.O.O.O.&XZ O.O.O.O.O.O.O.O.O.O.O.O.O.O.O.O.&X&XO.O.Z O.O.O.&XZ O.O.O.O.O.Z O.O.O.O.O.O.O.J.&XO.J.*X+.*X-.5XzXjX8.8.0.jXxX4XH.B.j.7 2 4 h.x.t Z.D.N &XZ Z O.O.O.&XO.O.O.O.O.O.O.O.&XO.O.J.O.O.O.O.O.O.O.&XZ O.O.O.O.Z O.O.&XO.&XZ O.&XO.O.O.&XO.O.O.Z O.O.O.O.O.O.J.O.J.J.*X;X4X6XzXaX8.3.0.pXxX:XC l 9 4 p.p.7 j.t A.Z.&XF.O.J.&XZ O.&XO.O.&XO.O.O.O.&XO.O.O.O.O.O.&XO.O.O.O.O.O.Z O.O.Z O.O.O.O.&XO.&XO.O.O.&XZ O.O.O.O.&XO.O.O.O.&XZ O.O.O.Z J.*X+.:X=.t.5.8.8.0.4.zX-.C z v.4 s.p.g.j.y V.D.Z F.&XO.O.O.O.O.O.O.O.O.Z O.O.&XZ O.O.O.O.&XZ O.O.&XO.O.O.O.O.O.O.Z O.&XO.O.O.O.O.&XO.O.O.O.&XZ O.O.&XO.O.O.O.O.O.Z &X+.&X*X5X>.xXiXfXfXhXaXxX-.Z B.w 7 4 4 s.w b.A.M N &XH.Z O.O.O.J.O.O.O.O.O.O.O.O.Z &XO.O.O.O.Z O.O.O.Z O.O.O.O.O.O.O.O.O.O.O.O.&XJ.O.O.O.O.&XO.O.O.O.O.&XO.O.O.O.&XZ O.J.+.J.:X=.t.4.iXfX8.jXe.5X&Xz w g.2 2 2 9 b.z M J.C Z Z &XO.O.O.&XO.Z O.&X&XO.O.Z &XO.O.O.O.O.Z &X&XO.O.O.O.O.O.O.",
"O.O.&XZ O.O.&XZ O.O.O.O.O.O.&XO.O.O.O.O.O.O.O.O.J.&XJ.J.&X#.-.6XzXaX2.iXhX5.xX#.F.l w 8 2 2 4 h.k x F.H.Z O.Z J.O.O.O.O.O.O.Z &XO.O.O.&XO.O.&XO.O.O.O.O.O.O.&XO.O.O.&XO.O.O.O.O.&XZ O.O.O.&XO.O.O.O.O.O.O.Z O.O.O.O.O.J.&XZ +.&X*X$.6Xe.pXiXfXfXiXr.-.N B.9 4 p.p.4 x.t A.M F.O.Z &XO.O.&XO.O.O.O.O.&XZ &XZ O.O.O.O.O.&XZ O.O.&XO.O.O.O.Z &XO.&XO.O.O.O.O.O.O.Z O.O.O.O.Z O.O.O.O.O.O.O.Z &XO.J.&XZ -X#.-.>.zXaXfX8.8.5.r.-.C l v.g.2 2 2 j.b.A.x &XC &X&XO.O.&XO.O.O.O.O.O.O.O.O.&XO.O.O.Z O.O.O.Z O.O.O.O.O.O.O.Z O.O.O.O.O.O.O.O.O.O.&XO.O.O.O.O.O.O.O.O.O.O.O.Z &XJ.J.O.*X+.#.3Xt.5.hXhX0.aXe.-.J.V.w g.a.3 k.h.b.z F.J.F.&XZ &XO.O.O.O.O.O.&XO.O.O.&XO.O.O.O.O.O.O.O.O.O.O.O.O.O.O.O.J.O.O.O.O.O.O.O.O.&XO.O.O.O.&XZ O.O.&XO.O.O.Z O.O.&XJ.&X+.*X-.6XcXpXfXhXfXaXxX5XH.l v.4 4 2 8 w t A.N F.O.J.Z &XO.O.O.O.O.O.O.&XZ O.Z O.O.O.O.O.&XO.O.O.O.&XZ O.O.&XZ O.O.O.&XO.O.O.O.&XZ O.O.&XO.O.Z O.O.&XO.O.O.O.O.&XJ.O.Z *X&X:X6XxX5.hXfXfXaXzX4XJ.V.r 8 4 3 7 8 r A.A.*XN O.J.&XO.O.Z &XO.O.&XZ O.&XO.O.O.Z &XO.Z &XO.O.O.O.&XZ O.O.O.O.",
"O.O.O.O.O.O.O.O.O.O.&XZ Z &XZ O.&XO.O.O.O.O.&XO.O.&XZ J.*X;X-.6XzX4.fXfXhX4.xX:XD.l w 4 p.4 g.x.l A.D.H.H.O.C &XO.&XO.O.Z O.O.O.&XO.O.O.O.Z O.O.O.Z &XO.&XZ Z O.&XO.Z O.O.&XZ O.O.O.O.O.O.Z O.O.O.Z &XO.&XO.&XZ &XO.&XJ.&X&X+.J.*X$.5Xt.iXfXfXiXaXr.-.H.N.x.g.p.4 s.j.l x D.F.*XJ.O.O.O.O.J.O.O.O.O.O.O.O.O.O.O.O.O.O.O.O.O.O.Z O.O.O.O.O.O.O.O.O.O.O.O.O.&XO.O.O.O.O.O.&XO.&XO.O.O.O.O.O.O.J.O.O.J.*X#.-.>.zX5.8.8.0.4.*.-.C l 9 7 p.2 7 j.k x x &XC &XO.J.O.O.O.O.Z &XO.O.O.O.O.Z O.&XO.&XO.O.&XO.&XZ O.O.O.O.O.&X&XO.O.O.O.O.O.O.O.O.Z O.Z &XO.O.O.O.O.O.O.O.&XO.*X&XH.&X#.+.:X6XzX5.hXhX0.5.r.$.H.V.x.g.p.p.7 j.b.z G.Z C &XZ O.Z &X&XZ &XO.O.O.Z O.O.O.O.O.O.O.O.O.Z &XO.O.O.O.O.O.O.O.O.O.O.O.O.O.O.O.Z O.O.O.O.O.O.O.O.Z O.O.&XO.O.O.J.Z +.O.*X-.5Xt.aXfX8.iXiX3X5XH.V.w 4 2 4 4 w t x M N O.&XO.O.O.O.O.&XZ O.O.O.O.O.O.O.O.O.&XO.Z O.O.O.O.O.O.O.O.O.O.O.O.O.Z O.O.O.O.O.O.O.O.O.O.O.&X&XZ Z O.O.O.O.O.Z J.O.J.+.&X$.6XcX5.iXhXfX3.zX;.Z z r 7 p.4 7 9 r z A.&XC Z J.O.Z O.O.O.O.O.O.O.O.O.O.O.O.&XZ O.O.O.O.O.O.O.O.O.O.O.O.O.",
"O.&XO.O.O.Z O.O.O.O.O.O.O.O.&XO.Z O.O.O.O.O.O.O.&X&XO.Z *X;X-.>.e.aX2.fXiX6.3X:XF.l w s.4 2 7 w l x F.C J.O.Z J.O.Z O.&X&XO.O.O.Z O.O.O.&XZ O.O.O.&X&XO.O.O.O.O.O.O.O.O.O.O.O.O.O.Z O.&X&XZ O.O.O.&X&XO.O.O.O.O.Z &XO.Z J.J.+.*X*X-.5Xe.4.fXfXfXaX3X-.H.N.j.7 2 4 s.x.b.x F.N &X&XO.O.O.J.J.O.O.O.O.O.O.O.O.O.O.O.O.O.O.O.O.O.O.&XO.O.O.O.O.O.O.Z &X&XO.O.O.O.&XO.O.O.O.Z &XZ O.&XO.O.O.O.O.J.J.O.J.*X;X-.6Xe.3.8.fX0.4.*.-.C B.j.7 p.p.g.j.N.A.Z.J.H.&XZ &XO.O.O.O.Z O.O.O.O.O.O.O.O.O.O.O.&XO.O.O.O.O.O.O.Z &XO.O.&XO.O.Z &XO.O.O.O.O.O.O.O.O.O.O.O.&XZ O.O.Z Z &XO.Z J.Z ;X*X:X6XzXaXhXfX8.3.r.4XZ V.x.g.s.p.g.j.b.z N &XH.O.Z O.O.O.&XZ O.O.Z O.O.O.O.O.Z O.O.&XO.O.&XO.&XZ Z &XO.O.O.O.O.O.Z &X&XO.&XO.O.O.O.&XO.O.O.Z O.O.O.Z O.O.O.O.J.Z O.O.+.5X6XzXaXhXhXfX3.3X4XC B.w 4 4 2 8 w t A.F.N O.&XJ.&XO.O.O.O.O.O.O.O.Z O.&XO.O.O.Z O.O.O.O.O.Z &XO.O.O.O.O.O.O.Z O.&XO.O.Z O.O.O.O.O.O.O.O.O.O.O.O.&XO.Z &X&XJ.Z J.*X&X$.5XxXaXhX2.8.5.y.5XZ z w 8 2 2 s.9 r x Z.*XF.-XJ.J.&XO.O.O.O.O.O.O.Z O.O.O.O.O.O.O.O.O.&XO.O.O.O.O.O.O.J.O.",
"O.Z O.O.&XO.O.&XO.O.O.O.O.O.O.O.O.O.O.O.O.O.O.O.O.O.Z J.O.;X4X=.zXiXiXfXhXaX3X:XN B.x.4 2 2 4 8 l A.N H.C &XZ O.O.O.O.O.O.O.O.O.O.O.&XZ O.O.O.O.O.O.Z O.O.O.O.O.O.Z Z &XO.O.O.O.O.&XO.O.O.O.O.O.O.O.Z O.O.O.O.O.&XZ &XH.&X&X*X&X*X-.6Xe.iXiXfX2.3.3X4XJ.V.9 s.4 p.8 x.t A.N N O.O.O.Z O.O.O.O.O.O.O.O.O.O.O.&XO.O.O.O.O.O.O.&XO.Z O.O.O.O.O.&XZ O.O.Z O.O.O.O.O.Z &XO.O.O.O.O.O.Z O.O.O.O.O.J.O.O.Z *X+.5X>.e.aX8.0.3.5.r.$.C V.j.7 2 p.g.9 b.x M &XC &X&XO.O.O.O.O.&XO.O.O.J.O.O.O.O.O.Z &XZ O.O.O.O.O.O.O.O.O.O.O.Z O.O.O.O.O.O.O.Z &XO.&XO.O.O.O.O.O.&XO.O.&XZ J.O.Z J.&X+.+.$.6Xt.aX0.2.8.4.cX:XH.V.9 g.s.p.g.9 v.z F.Z F.O.O.O.O.O.O.O.O.O.&XO.O.Z O.O.&XO.O.Z O.O.Z O.O.O.O.O.O.O.O.O.O.O.O.O.Z O.O.O.Z &XO.Z O.O.O.O.O.&XO.&XZ O.O.O.J.Z O.*X+.5X5XxXaXfXhXhX5.xX-.J.l n.4 4 4 4 w y x M F.O.Z J.O.O.&XO.O.O.O.O.O.&XO.O.J.O.O.O.O.O.O.O.O.O.O.O.Z O.O.&XO.O.&XO.Z O.O.&XO.O.O.O.&XZ O.O.O.O.O.O.Z O.O.O.Z J.&XZ #.J.:X3XxX5.iX8.8.aXy.5XZ z r 7 2 2 4 8 r A.x O.B Z &XO.O.O.O.O.O.O.Z &X&XO.O.Z O.O.O.O.&XO.Z O.O.O.O.O.O.O.O.O.",
"O.O.O.&XO.O.O.O.O.J.O.O.O.O.O.&XO.O.O.O.O.O.O.O.J.Z Z O.+.#.4X3Xe.pX2.fXiXaXxX:XF.z 9 4 2 2 4 x.k Z.F.J.C &XZ &XO.&XZ O.O.O.O.Z O.O.O.O.O.O.O.O.O.O.O.O.O.O.&XZ O.O.O.O.O.Z &XO.O.O.&XO.O.O.O.O.Z &XO.O.O.O.O.O.&XO.O.Z J.J.*X&X*X-.>.cXaXhXhXhX5.3X4XN B.x.4 2 2 7 9 b.A.C N Z O.O.Z &XO.O.Z &XJ.O.O.O.O.&XO.O.O.O.O.O.Z O.O.O.&XO.O.O.Z &XO.O.O.O.O.O.O.O.O.O.O.O.O.O.O.&XO.O.Z O.O.O.O.O.J.O.J.Z +.;X5X>.e.aX8.8.2.aXr.$.C N.j.h.p.p.7 r N.A.A.J.C O.J.&XO.O.O.O.O.O.O.Z O.O.O.O.Z &XO.O.O.O.Z O.O.O.O.Z O.O.O.O.&XO.O.O.O.O.O.O.O.O.Z O.O.O.O.O.O.O.O.O.O.O.&XZ &XO.J.O.#.+.:X=.t.aXhXiXfXaXr.:XJ.V.x.7 a.3 7 j.N.V.N V H.*XZ O.O.&XO.O.O.O.O.O.O.&XO.O.O.O.O.O.O.&XO.O.&XO.Z &XO.O.O.O.&XO.O.O.O.O.O.O.O.O.O.O.O.&X&XO.O.O.O.O.O.O.Z &X&XJ.*XO.+.-.5Xe.4.fX8.hXhX*.5XC V.9 4 4 2 4 w t A.M H.O.Z Z O.&XO.O.O.O.Z O.O.O.&XO.O.O.O.O.&XO.O.&XO.O.&XZ &XO.O.O.O.O.O.O.&XO.O.Z O.O.Z &XO.O.O.Z O.O.O.O.O.O.&XZ &XJ.O.J.+.&X;X6XxX5.hX3.8.aXy.;.&XA.v.j.p.p.s.9 v.z Z.O.N O.&XO.O.O.O.O.&XO.O.Z Z O.O.&XO.O.O.O.Z O.O.&XZ &XO.O.Z &XO.O.",
"O.O.O.Z O.O.O.O.O.O.O.O.O.O.O.Z &XZ O.&XO.O.O.O.&XZ Z O.+.+.$.6XzX5.fXfXhXaXxX:XH.l w 7 s.2 9 x.t z D.H.C &XZ &XO.O.O.O.O.O.O.O.O.O.O.J.O.O.O.O.O.O.O.O.O.O.O.O.&XO.O.O.O.O.O.O.&XO.Z O.O.O.O.O.O.O.O.O.O.O.O.O.Z O.O.&X&XZ *X&X*X4X5Xe.4.fXfXfX5.3X5XN V.x.7 2 4 7 9 t x H.B C O.O.Z Z O.O.&XZ O.O.O.O.O.O.O.Z O.&XZ O.&XO.O.O.Z O.O.O.O.O.O.O.O.O.O.O.O.Z &XZ O.O.O.&XO.O.Z O.&XO.O.&XO.O.O.J.J.Z +.+.5X>.e.iX8.hX8.4.3X4XC N.x.g.p.p.g.j.N.Z.x J.C &XJ.Z O.O.&XO.O.O.O.&XO.O.O.O.O.O.O.O.O.O.&XO.O.O.O.&XO.O.O.O.Z O.O.O.O.O.O.&XZ O.&XO.O.O.O.O.O.O.O.O.O.O.O.J.O.&X&XO.+.O.4X3XcXaXhXfXhXaXxX:XH.V.x.4 s.p.g.j.b.A.M Z M &XZ O.O.Z O.O.O.O.O.O.O.O.O.O.O.O.O.O.O.Z O.O.O.O.O.O.O.O.O.O.Z O.O.O.O.O.O.O.O.O.O.O.O.Z O.O.O.O.O.O.&XO.O.Z &XJ.*XZ *X4X>.xX4.hX8.iXaXxX;.Z l r 4 2 2 4 w b.A.F.N O.H.Z O.O.O.O.O.O.&XO.&XO.Z O.O.O.O.O.O.O.Z O.O.O.O.O.O.O.O.O.O.&XO.O.O.O.O.&XO.O.O.O.O.O.O.&XZ O.O.O.O.O.O.O.Z J.O.J.*X&X$.6XxX5.iXfX8.3.e.5X&XV.x.h.2 2 s.j.k A.x O.C O.&XO.O.O.O.O.O.O.O.&X&XO.O.O.O.O.O.&XO.O.O.O.O.O.O.O.O.O.O.O.",
"O.O.O.O.O.O.Z &XO.O.O.O.O.O.O.O.O.O.O.Z O.O.O.O.O.Z J.&X+.#.:X6XzXaXfXhXiXaX3X-.F.V.w 4 2 2 0 9 k z N Z C O.Z &X&XZ O.O.O.O.O.O.O.O.O.O.O.O.O.Z O.O.O.O.O.O.O.O.O.O.O.Z O.O.O.&XO.O.O.O.O.O.O.Z O.O.O.O.O.O.O.&XO.O.O.O.J.J.+.J.*X-.6Xe.aXfXfX8.5.xX5XN V.x.7 p.2 h.9 b.A.J.N J.&XO.Z O.&XO.O.&XO.O.O.O.Z O.O.O.O.O.O.O.O.O.O.O.O.O.O.O.O.O.O.O.O.O.J.O.O.&XO.O.O.O.O.Z O.O.&XO.O.O.O.O.O.O.J.O.J.J.*X*X5X>.e.3.8.0.hXy.r.:XC N.9 g.p.p.7 j.r A.M &XC &XO.J.O.O.Z O.O.O.O.O.O.O.O.O.O.O.Z &XO.O.O.O.O.&X&XO.&XZ O.O.O.O.O.O.O.O.O.O.O.O.O.&XO.O.O.O.O.O.O.&XO.O.O.O.O.O.J.&X+.+.4X6XcXaX2.fXhX6.xX4XJ.V.w 4 s.2 4 9 r x F.&XN O.O.&XO.O.O.O.O.Z Z &XO.O.O.O.O.O.O.O.O.O.O.O.Z &XO.O.&XO.&XO.Z O.O.O.Z &XO.O.O.O.O.O.O.O.O.O.Z &XO.O.O.O.Z O.J.Z *XO.*X4X6XzXpXiXhXfX3.xX-.J.z r 8 4 2 4 w y x M H.Z Z Z O.&XO.O.O.O.&XZ O.O.O.O.O.O.O.O.O.O.O.O.O.O.O.O.O.O.O.O.O.Z O.O.Z O.O.O.O.O.O.O.Z &XO.O.&XO.O.O.O.O.O.O.O.J.Z J.+.&X$.6XcX4.hXfXfX3.e.;.C z r j.p.2 2 8 b.V.M Z N O.J.O.Z &X&XO.O.O.O.O.O.O.O.O.O.O.O.Z O.O.Z O.O.O.O.O.O.O.O.O.",
"J.O.O.O.O.O.O.O.O.O.O.&XZ O.O.O.O.&XO.O.O.&XO.O.&XZ Z &X+.+.:X3XzXaX8.hXiX3.xX$.C z w s.2 2 7 r l z F.Z H.O.&XZ O.O.O.O.O.O.O.O.O.O.O.O.O.O.O.&XO.O.O.J.O.O.O.O.O.O.O.&XO.O.O.Z O.O.Z &XO.O.O.&XO.O.O.O.&XZ O.O.O.O.&XZ &XZ +.&X;X-.5Xe.4.0.hXfX5.3X;.F.l w 7 s.p.8 9 t A.H.N H.O.Z J.J.O.O.O.&XO.O.O.O.&XO.O.Z &XO.O.O.O.&XZ O.O.&XO.Z &XO.O.O.O.O.O.O.O.O.O.O.&XZ O.O.O.O.O.O.O.Z &XO.O.O.O.J.Z &X+.*X>.6Xe.iXfX0.hXaXr.:XC V.j.g.p.p.p.j.N.A.A.&XC &XJ.&XO.O.O.&XO.O.Z &XO.&XZ O.O.O.O.O.O.O.O.O.O.O.Z O.O.O.&XZ O.O.O.O.O.O.O.O.O.O.O.Z O.O.O.O.O.O.O.O.O.O.O.O.O.&XZ +.O.&X:X6XcXaXhXfXfXaXxX:XC V.w g.s.2 7 j.b.A.N &XF.&XZ O.O.O.O.O.O.&XO.O.O.O.O.O.O.O.Z O.O.O.O.O.O.O.O.O.O.O.Z O.&XO.O.O.O.O.O.O.O.O.J.O.O.O.O.O.O.O.O.Z &XO.O.O.J.Z +.O.O.;.5XxXaX2.fXfX2.r.5XZ z r s.2 2 s.x.t z N N O.&XZ O.O.O.&XO.O.O.O.O.O.Z &XO.O.O.O.Z &XO.O.Z &XO.O.O.O.&XZ O.O.O.&XO.O.O.Z &XO.O.O.O.O.O.O.O.O.&XZ O.O.O.&XJ.J.Z J.+.*X:X5XcX5.iX8.fXaXzX5XO.V.r 8 3 2 4 9 t z Z.Z F.O.J.O.O.O.Z O.O.O.O.O.O.O.O.&XZ O.O.O.O.O.O.&X&XO.O.Z &XO.O.O.",
"O.Z O.O.O.O.O.O.O.O.O.O.O.&XO.O.&XO.Z &XZ J.J.J.*X&XH.O.*X*X:X:.zXaXfXiXhXaXxX:XF.V.x.s.4 2 4 w b.V.M Z N &XZ &X&XO.O.O.O.O.O.O.O.O.O.&XO.O.O.O.O.Z O.O.O.O.O.O.O.O.O.O.O.O.O.O.O.O.O.Z O.O.O.Z O.O.&XO.O.O.O.O.O.&XO.O.&XJ.*XZ +.;.5XcX6.iX8.8.pXxX-.D.V.w 8 s.2 j.j.n.x H.F.H.&XZ Z J.Z O.O.O.&XO.&XO.O.O.O.O.O.&XO.&X&XO.&XO.J.O.&XZ &XZ &X&XO.O.O.O.O.O.O.O.&XZ &X&XJ.Z Z &XO.O.O.O.O.O.O.O.J.J.*X*X;.6XzXiXfX8.iXsX3X:XH.B.w s.s.2 s.x.B.x Z.O.H.O.J.Z &XO.Z O.J.O.Z O.O.&XO.O.O.O.O.O.O.O.O.O.O.O.O.O.O.O.O.O.O.O.O.O.O.O.&XO.O.O.O.O.&X&XO.O.&XO.O.O.O.O.Z J.&XO.O.&X+.O.:X3XxX3.fXfXiXaXcX:XH.z x.7 s.3 s.j.B.V.F.H.F.O.&XO.O.O.Z O.O.O.O.O.O.O.O.&XO.O.&XO.O.O.O.O.O.O.O.O.O.O.O.O.&XZ &XO.O.O.O.Z &XO.O.O.O.O.O.O.O.O.Z O.J.&XO.Z &XZ *XZ *X5X;.t.pXjX0.hXiXxX4XJ.V.w 7 2 3 g.8 y A.M F.O.O.J.O.O.&XZ O.O.O.J.&XO.O.O.O.O.Z O.O.O.O.O.O.O.O.O.O.O.O.Z O.&XO.O.O.O.O.O.O.O.O.O.O.O.O.O.O.O.O.O.O.O.O.O.J.O.O.&X#.J.$.6Xr.pXhXfXfXaXzX5XO.A.w 8 4 2 s.9 y V.M J.F.Z &XZ &XO.O.O.O.O.&X&X&XZ Z &XO.&XO.&XO.O.O.O.O.+.Z Z O.O.O.O.",
"O.&XO.O.O.&X&XO.O.O.O.&X&XO.O.O.O.O.&XO.O.O.O.O.O.Z Z +.+.*X$.*.zX5.fXfX8.aXr.4XH.z x.7 s.3 4 w k x N Z C O.Z O.O.O.O.O.O.O.O.O.O.O.O.Z Z &X&XO.&XO.&XZ O.O.O.O.O.O.O.O.O.O.O.O.&XO.&XO.O.O.O.O.O.O.O.O.Z O.O.O.O.J.O.O.O.J.&XZ *X-.6Xe.3.iXfXhXpXt.>.F.z w 8 2 p.4 w t x N C H.&XO.J.J.J.J.O.O.O.O.O.O.O.O.O.O.O.O.O.O.O.O.O.O.O.O.O.&XO.O.O.O.O.O.O.O.O.O.O.O.O.O.O.O.O.&XO.&XJ.O.O.O.O.O.O.O.O.O.*X;X6X5Xe.3.fX8.iXpXr.$.F.B.w 4 a.2 s.x.B.A.x &XH.+.J.&X&XO.&XJ.O.&X&X&X&XO.&XZ &XJ.O.&XJ.O.&XZ O.J.&XO.J.&XO.&XZ &XJ.Z &X&XZ J.&XJ.J.&XZ J.&XO.J.Z O.Z O.O.O.O.O.O.&X+.;X&X$.3XxXaXhX2.fXpXzX:XC A.v.g.s.a.g.j.t z N J.H.O.J.Z O.&X&X&XO.O.&X&XJ.O.J.O.O.&XO.O.O.O.&XZ O.O.J.O.O.O.O.O.O.O.O.O.O.O.O.&XZ O.O.O.O.O.O.O.O.O.&XO.J.Z O.O.O.Z O.&X*X5X5XzXpX8.hXhXiXxX;.Z z r 8 4 4 7 w t z N F.&XO.H.&XO.O.&XO.O.O.O.O.O.O.O.O.O.&XO.&XO.O.O.O.O.O.O.Z &XO.&XO.O.O.O.O.O.O.O.O.O.O.Z O.O.O.O.O.O.O.O.O.O.O.O.&XO.&XJ.O.&X4X>.t.5.0.0.8.4.zX5X&Xz v.j.3 2 2 9 y A.x J.H.&XO.&X&XZ O.&XO.O.Z O.O.O.Z O.O.O.O.O.O.O.O.O.O.O.&XJ.Z &X&XZ ",
"O.O.Z J.O.Z O.O.O.O.O.Z J.&XZ J.O.O.O.O.&XO.&XO.&XZ J.Z *X+.:X6XxXaXfXfXhX5.t.$.H.x w 7 4 p.4 r k z F.H.C Z J.J.O.&XO.O.O.O.O.O.O.O.O.O.O.O.O.O.O.O.O.O.O.O.Z &XO.O.O.O.O.O.O.O.O.O.O.O.O.O.O.O.O.O.O.O.O.O.O.O.O.Z &XO.&XJ.+.O.;X4X5Xt.aXfX2.fXy.r.5XM V.x.s.p.s.h.w b.x H.C C O.O.O.J.&XJ.O.&X&XZ Z O.O.&XO.&XO.O.O.O.O.O.O.O.O.O.O.O.&XO.O.O.Z O.Z J.&XJ.O.&XO.O.O.O.O.O.O.O.J.Z &XO.O.J.&XZ J.J.*X*X5X=.e.aXfX8.fX6.xX-.F.V.x.s.a.p.s.w b.A.Z.J.C &XZ Z &XO.O.&X&XO.O.O.O.O.O.O.O.Z O.O.O.O.O.O.O.O.O.O.O.O.O.&X&X&XO.&XO.&XJ.&XZ &X&XZ &X&X&X&XO.&XO.&X&X&XO.O.O.O.Z *X*X*X:X6XzX4.fXfXfXaXzX:XH.z x.4 2 2 s.9 t V.F.C N *XZ J.O.O.O.O.Z O.J.J.&XJ.J.J.&XJ.&XO.&XZ O.O.O.O.O.O.O.O.O.O.O.O.Z O.O.O.O.O.O.O.O.O.Z &XO.O.O.O.&XO.Z &XO.O.J.Z O.&X#.$.5XxXiXfXhXhX3.r.-.Z z w 4 4 2 4 v.b.z D.N &XO.Z O.O.Z O.&XO.O.O.O.O.O.O.O.O.O.O.O.O.Z O.&XO.O.O.O.O.O.O.O.O.Z &XO.O.O.O.O.O.O.O.O.O.O.O.O.O.O.O.O.O.O.&XZ O.O.&X*X&X>X6XcX4.fXhXfXiXzX6XO.z r 7 2 2 s.9 y V.M J.C +.Z O.O.Z Z O.O.O.Z O.O.&X&XO.&XO.O.O.Z O.J.J.J.J.Z &XO.O.O.O.",
"&X&XO.&X&X&XO.O.O.O.Z O.O.O.O.O.O.Z O.O.Z J.J.Z O.J.J.Z *X*X:X3XxXsXiXfXhXaXxX:XF.z x.4 4 2 7 w b.V.N C H.O.&XO.O.Z O.O.O.O.O.O.O.Z &XO.O.O.O.O.O.O.O.O.O.O.O.O.O.O.Z O.O.O.Z O.O.O.O.O.O.O.O.O.O.O.&XZ O.O.O.O.O.&XO.Z O.J.+.&X*X;.;.e.5.hXfXhX4.xX5XF.V.v.s.p.a.g.8 b.A.H.N C &XO.O.Z O.O.O.Z O.O.O.O.O.O.O.O.&XO.&XO.J.O.O.O.O.J.O.&XZ &XO.&X&X&X&XO.O.Z &XZ O.Z Z Z O.J.&XZ &X&XO.O.O.O.O.O.Z J.*X;X5X=.e.3.fXfX3.aXxX#.N b.w s.p.p.s.v.B.Z.M &XC +.O.O.&XO.&XO.J.O.&XZ &XZ &XJ.O.&X&XO.O.&XO.O.O.O.O.O.O.O.&XO.&XO.&XO.&X&XO.O.O.O.O.O.Z Z Z Z Z O.O.O.Z O.&XO.O.Z J.&X*X&X$.6XcXaXiXfX3.5.e.$.J.V.x.g.s.2 7 x.b.x H.Z F.&X&XJ.&XO.Z O.O.O.O.O.O.O.O.O.&X&XZ O.O.O.O.O.O.O.O.O.O.O.&XO.Z &XO.&XO.O.O.O.O.O.&XO.O.O.O.O.O.&XO.O.Z O.O.O.O.Z O.&X+.4X5XzXpXiX8.iXfXxX5XJ.V.n.s.2 2 4 j.b.z M C O.J.Z O.&XO.&XO.O.O.O.O.O.&XZ &XO.O.O.O.&XO.&XO.O.O.O.O.O.O.O.O.O.O.O.Z O.O.O.O.O.O.O.O.O.O.O.O.O.Z O.O.O.J.Z O.O.O.Z *XJ.%.6Xr.pXhX3.8.aXe.5XO.Z.r 8 s.2 2 9 v.V.Z.&XH.J.H.&X&XO.&XO.O.&X&X&X&XJ.Z O.O.J.Z J.O.O.O.O.O.O.&XZ O.O.O.O.",
"O.O.O.O.O.O.O.O.J.J.O.O.&XO.&X&X&XO.&XO.O.O.O.O.&X&XJ.Z &X;X:X6Xe.5.8.2.9.3.r.4XF.l x.7 4 2 2 x.N.V.F.J.H.&XJ.&XO.O.&XZ &XO.O.O.&XO.O.O.O.&XO.O.O.O.O.O.O.Z O.O.O.O.O.O.O.O.O.O.Z &XO.O.O.O.O.O.O.O.O.O.O.O.O.O.O.O.O.O.O.Z &X&X;X4X6XcX3.2.8.8.aXr.;.N k 0 0 4 2 4 w B.Z.B C =X&X&X&X&XO.O.O.O.Z J.J.Z Z Z J.J.O.&X&XO.&XO.O.O.&XO.O.O.O.&XO.O.O.O.O.O.O.O.O.O.O.O.O.O.O.O.O.O.O.O.O.O.O.O.&XO.&XJ.O.;X4X6Xe.5.0.0.3.4.xX$.F.b.x.4 4 2 4 e t x x O.F.+.J.Z Z O.O.O.&XJ.O.O.O.O.O.O.O.O.O.O.O.O.&XO.Z Z Z Z O.&XO.O.O.O.O.O.&XO.O.O.&XO.J.&XJ.&XO.&XO.&XO.O.O.o.o.Z O.O.Z +.#.+.$.=.t.4.0.hXfXaXzX4XZ z e 4 3 2 7 e y z N J.F.O.Z Z J.&XO.&XO.O.&X&X&X&XJ.&X&XJ.O.O.&XO.O.O.O.O.O.O.O.O.O.O.O.Z O.Z O.O.O.O.O.O.Z O.O.O.O.O.O.O.O.&XZ &XO.O.&XJ.O.Z O.4X>.t.aX0.8.iX2.xX-.Z z r 8 4 2 7 9 y A.M H.Z Z &XO.Z O.&XZ O.O.O.O.O.O.Z O.O.O.O.O.O.O.Z O.O.O.O.O.O.O.O.O.O.O.Z O.O.O.O.Z O.O.O.O.Z O.O.O.O.O.O.&XO.O.Z O.O.&XO.+.&X4X6XcXaXhXhXfXpXzX5XZ x w 8 s.2 2 w y z x C Z C Z O.O.O.Z &XO.O.O.O.O.O.&X&X&X&X&X&XO.O.Z Z O.O.O.O.O.O.O.O.",
"Z O.O.C V O.O.O.O.Z @.O.O.o.V V o.Z O.O.O.V O.o.O.O.Z V +.;X%.=.e.5.8.8.fXpXxX4XF.V.x.g.4 p.4 9 k z B Z C o.Z O.O.O.Z &XO.O.O.O.O.O.O.O.O.O.O.J.O.O.O.O.O.&XO.O.O.O.O.O.O.O.O.O.O.O.O.O.O.O.O.O.O.O.O.O.O.O.O.O.O.O.O.O.O.Z +.Z +.-.5XcX5.iX8.0.iXr.4XJ.z y 4 4 5 5 e t x B M Z C Z J.Z Z Z @.O.O.O.O.O.O.O.O.O.Z Z Z Z O.Z Z Z O.O.O.o.O.O.o.O.O.Z Z Z Z &XO.O.O.Z Z Z Z Z Z Z O.Z Z Z O.Z O.O.O.Z @.%.-.*.y.5.8.8.0.4.r.:XG.V.x.4 s.2 4 e t x x C H.Z J.&XO.=XJ.&X&XJ.J.&XO.=X&XJ.&XK.J.J.J.J.J.Z J.J.J.J.&XJ.&XJ.=XJ.&X&XJ.J.K.J.J.J.J.J.J.J.J.J.J.J.&XL.&X&XJ.J.O.J.J.&X*X&X4X3Xt.5.0.8.2.6.t.:XH.V.x.g.p.3 4 0 k k M Z F.+.Z Z O.O.O.O.O.O.o.O.V O.o.Z o.Z O.O.O.O.O.O.O.O.O.O.O.O.O.O.O.&XO.O.O.O.O.O.O.O.O.O.O.O.O.O.O.O.O.O.O.Z Z O.J.Z O.Z +.-.5Xe.aX8.fX0.iXzX-.J.z r s.2 3 4 x.b.A.x H.Z Z &XZ Z &XJ.O.O.O.&XO.O.O.&XO.O.Z O.O.O.Z Z O.O.O.O.O.O.O.O.Z O.O.O.O.O.O.O.O.O.O.O.O.O.O.O.O.O.O.O.Z O.O.&XO.O.O.Z O.Z %.>.t.4.9.0.9.5.u.>.Z z r 9 3 2 2 0 y z M V C V Z Z &XZ J.&X&XZ Z Z O.o.o.Z O.O.O.o.O.Z Z Z Z O.O.O.O.O.O.O.",
"O.Z J.Z Z Z &X&XZ O.&XO.O.Z Z Z O.O.&X&XO.O.O.O.O.O.J.Z O.;X4X6Xr.5.0.8.hX4.r.-.C x r 5 4 3 7 9 k z M J.N J.J.&XO.O.O.&XO.O.O.O.O.,X&XO.O.O.O.&XO.O.&XO.O.O.&XZ O.O.O.O.O.O.O.O.O.O.O.O.O.O.O.O.O.O.O.O.O.O.O.O.O.O.O.O.O.Z O.&X;X-.6Xt.5.hX0.0.4.*.-.A A.9 4 4 4 w 8 t z N N Z O.J.J.&XO.O.Z J.O.O.&X&XO.O.&XO.O.&X&X&XO.&X&XO.O.O.O.O.O.O.O.O.O.Z Z Z Z O.Z &XO.O.O.O.O.O.O.O.Z O.Z Z J.J.&XO.O.Z +.$.%.:.e.5.8.0.0.y.r.%.N k w 4 4 s.w r z x N O.A @.Z V V V o.V o.o.o.o.o.o. .o.o.o.o.o.o.@.o.o.O.o.o.o.o.V o.o.o.o.o.o.o.o.o.o.o.o.V  .V  .S Z V o.V o.o.o.O.o.V Z Z o.@.o.%.=.r.5.8.8.8.5.r.$.J.V.w 9 4 3 0 9 k z M Z F.*XJ.&XO.O.O.O.O.&XJ.J.J.J.J.J.J.J.&XO.O.O.O.&XO.O.O.O.O.O.O.O.O.O.O.O.O.O.O.O.O.O.O.O.O.O.O.Z Z J.O.Z Z O.O.O.&XZ *X&X+.-.>.t.aX0.0.3.6.r.;.O.z w 4 s.3 4 9 t V.M Z J.H.&XZ &X&XJ.&XO.O.Z O.O.O.Z O.&X&XO.&XO.O.Z O.&XO.O.O.&XO.O.&XO.O.O.O.O.O.O.O.O.O.O.O.O.O.O.O.O.O.O.O.O.&XO.O.&XO.&X#.Z %.6Xr.4.8.8.8.3.e.>.O.z e 0 3 3 s.x.v.V.Z.&XH.J.J.Z O.&XZ &XO.Z J.J.&Xo.&Xo.O.Z Z Z Z Z Z Z Z O.O.O.Z O.O.O.",
"&X*XJ.=X=XZ &XZ J.J.K.J.&XK.J.K.=X=XJ.J.&X&X=XJ.J.&XK.J.*X;X4X6Xt.5.9.3.2.6.t.%.V z 0 0 5 3 4 r b.V.D.H.H.*XJ.Z Z Z o.Z Z Z O.Z Z S Z Z Z Z o.Z Z Z Z Z o.Z O.Z O.Z O.V O.Z Z O.Z Z O.Z Z O.V O.Z Z O.Z Z O.V O.O.O.Z Z O.Z O.=X@.-.>.e.5.3.q.9.6.r.-.A y r 7 2 p.s.8 t A.F.G.J.*X&XJ.Z &X=XK.J.J.=XJ.J.&X&XJ.J.J.J.J.J.&XJ.J.=X&X&X&X=XO.&X&X=X&X&X=XJ.&XJ.Z &X=XJ.J.J.J.&X&X=X&X=X&X&X&XJ.&XJ.+.&X*X>X-.3Xy.5.8.8.q.y.u.%.A k e 5 3 2 5 w t x M Z N O.J.Z &X&XJ.J.J.J.&X&XJ.&XZ J.Z Z &XO.J.J.Z O.O.Z O.J.Z &X&XZ &XZ Z O.&XO.O.O.o.O.O.O.O.O.Z J.&X&X&XO.O.J.O.O.O.Z J.&X#.O.-.>.t.6.3.8.0.5.y.%.m c e 0 5 5 5 8 t z M A N O.V Z O.O.Z O.Z Z Z O.&XO.&XZ &XO.Z Z O.Z Z Z Z O.O.O.O.V O.O.O.O.o.O.O.O.O.Z O.O.O.O.O.O.Z Z Z Z &X&XJ.=X&X&X&XJ.O.&X+.-.;.t.6.2.9.0.3.u.;.V z y 0 7 4 5 0 y z B A C H.&X&XH.o.J.&XO.Z Z Z O.O.Z Z O.Z Z Z O.O.&XZ Z Z O.Z Z Z O.O.O.O.O.O.O.O.O.O.O.O.O.O.O.O.O.O.O.O.O.O.Z Z Z O.Z O.Z +.Z 4X6Xt.aX0.0.8.5.u.;.O.x y 0 4 3 4 5 y z x Z C O.Z O.Z o.O.V V =X&X&X&XK.J.=X&X&X&X&X&X&X&X&X=XJ.&XO.&XJ.&X&X",
"V V Z o.V V V V O.O.O.V o.o.o.o.n V o.V  .V V V V o.V A +.X.-.:.e.q.9.q.q.q.r.-.A c w 5 4 4 5 q u z v A A o.V V V o.o.o.o.o.o.o.V o.o.o.o.o.V o.o.o.o.o.o.o.o.o.o.o.V o.V o.o.V o.o.o.o.V o.o.o.o.o.o.o.o.o.V o. .V o.o.o.m @.o.@.,.,.u.6.q.q.q.q.=.-.A l u 5 5 5 5 e k x B B V V V  .o.o.V o.V V V Z Z V O.o.O.V Z o.O.o.o.V o.V o.o.o.o.o.o.o.o.V V V O.O.O.o.o.O.O.O.O.@.o.o.O.o.V V o.V V @.@.V o.%.;.r.u.q.9.w.2.y.,.-.B z y 5 5 6 6 u u c B n B @.V o.V o.V V V V o.o.o.o.o.O.V o.o.o.V o.o.o.n o.o.o.o.n  .o. . .o. . . .n V V o.o.V V V V o.V n A V o.o.o.n o.V V  .X.@.,.,.i.7.7.w.w.7.u.-.A c e 5 5 3 0 q u c v n v  .n n n n n V o. . .o.o.n V  .o. . . . .o.V  .V n S V n n V V n V  .o.n o. .o. .V  .V o.n o.n n A V V V V  .V V A %.n ..,.;.u.7.w.q.6.6.t.-.Z k t 5 5 3 5 e z x c m n B @.@.m o. .V o.V V n V o.n n V o.n n V  .n  . .n V n  .o. . .o. . . .o. . . . .o. . .o. . .n o. .o. . .n n  . .V n @.o.-.,.u.y.2.q.q.5.t.;.o.x y 8 4 6 5 0 u c c  .v  .n n V o.o.n V o.o.V o.o.O.o.O.o.O.o.O.O.V o.V Z V o.o.V V Z ",
"O.O.@.o.o.V Z V o.o.o.O.o.Z O.o.o.o.o.o.o.o.V V V @.o.C @.%.X.>.t.6.q.q.6.y.t.-.H.V.x.8 5 5 0 e u z v A B o.V O.Z O.Z O.O.Z Z Z O.O.Z Z Z Z O.Z O.Z Z J.Z O.O.Z O.O.O.O.O.O.O.O.O.O.Z Z O.O.Z O.Z O.Z Z Z O.O.O.O.Z O.Z O.V O.@.%.,.>.u.7.q.7.w.5.=.-.C z e 0 5 5 q e u c v B V V A Z O.Z Z V Z &XJ.Z J.O.O.&X&X&X&XO.&XO.O.O.Z Z Z O.Z O.O.Z Z O.O.O.Z Z V o.O.O.V V V Z V O.V V V V V o.Z V O.o.V ..-.,.u.u.7.q.9.w.e.t.%.H.z w 5 5 5 0 q c c v  .m | b | | g | b b b b | b b | [ S ] ] g g S h ] g g h ] g g g g g g g g g h ] ] h S ] ] ] ] h S ] g ] h g h g g g g g ] X.] &.i.u.7.w.w.w.7.u.-.B x e 8 6 6 5 q u u c n A  .n n n o.o.n o. .V V o.o.V o.V o.o.V V V o.V V V o.o.o.O.o.@.o.o.o.O.o.o.o.o.o.o.o.o.o.o.o.o.o.V o.o.V o.o.o.V V @.O.@.-.>.u.y.q.w.q.6.u.-.Z V.u e 5 3 q 0 u z c B A A Z +.C Z O.o.o.@.o.o.o.@.o.o.o.o.o.o.o.O.o.o.o.O.V o.V o.V V V V o.V V V o.o.o.o.o.o.o.o.V o.V V o.o.V Z V Z C V Z @.o.,.u.i.7.w.w.q.5.t.;.@.c u 0 5 5 5 e u k c B N O.Z Z Z V O.O.Z V V V V V n V o.o.o.o. .o.o.V o.V o.o.o.o.o.o.",
"| n  .n n  . .m | ] |  . .| | | b n | b b | b b m | g g X.{ ,.} i.1.w.1.7.7.u.,.A x u q 6 6 q 1 i i j m v [ b ] ] b g b g b g b | g g g b | b ] S b b b b g g | ] | ] ] ] ] ] ] ] | | ] ] ] | ] | ] ..g ] ] | b g b ] g ..b ....{ ,.} 7.7.w.1.w.7.,.-.m c r 0 5 6 6 q u c v v b m v V n n V o.V V n n V n V V n V V V V V V V V V o.o.o.o.o.o.V V Z V o.o.o.n  . . .|  .n n  . .n |  . .b  .| | | | { { } ,.i.w.w.w.w.e.,.X.A c u q 6 6 6 1 i p p d j [ d ` ` h d h h [ [ [ [ [ ) ] [ S [ ` ` h [ [ ` [ ` ` [ ` [ d d ` ` [ d [ ` d d [ d ` ` ` ` ` ` ` [ d d ` ` ` ' h d ` { ' } } 1.1.1.w.w.7.=.&.m x u e q 6 q 1 i p j f j [ f h d h h h h h h g ] h h ] g h b b g g g b g g S | b | ] b b | b S b b b b b | g b b b g b b m | | | | | | b b X.] X.} ,.i.w.1.w.7.w.i.,.V x i q q 6 6 1 i p j m g g b ] b b | ] | S b | b S g ] b b S | | ] g ] ] ] [ g ] [ h h ] [ h ] [ h ] h h h h h h S h [ h h g h g m g ] ] [ | { ] &.} i.7.w.w.w.7.i.,.o.v u q 6 6 6 q i p p h j g b g g b |  .n m b b  .| | b b b b b | b b b n b n n n  . . .",
"h ] h [ ] ] ] [ ] [ ` ` [ [ ` [ g [ ] h ] g g g [ [ [ [ [ { } } i.w.w.w.7.7.,.X.m c u q q 6 q 1 i p j h f ` d ` ` _ d _ ` ` ` ` _ ` ` ` _ ` _ _ ) _ _ ` ` ` _ ` s ` h s s d d d d f d d d d s d s d d d d d s d ` d d d _ d ' ) { } } i.1.w.w.7.7.,.%.m c u q 6 6 q 1 i p j j ] h h h ] h g g h g g g ] ] ] ] ] ] [ ] g g g b g b | | b g b b g b g | ] | [ ] ] [ ] ] [ [ [ ] [ [ h h [ ` [ [ [ ` ` { { } <.i.1.w.1.1.7.,.X.m c u q q 1 1 1 D < , : > ! : ; : Q : ; : ! ! W Q ! W : W W Q Q Q Q W ! Q Q W W W Q W W W W W ; W Q ; W W ; ; ; ; ; ; ; ; W > ; > ; Q ; Q W Q ~ ~ W ^ / i.1.1.1.1.u.,.,.m c u u 1 q 1 1 D < j s , ! : f s : s : : f a a _ a ) a a s s _ ` _ _ _ d s a ) ) a s s s _ _ s _ s ) s a _ a _ d s _ _ s : ` _ a ` d a s : _ ` ' } <.i.1.w.w.7.7.,.X.V x k e 6 q 6 1 i p j j f f _ ' s ) ) ) ` _ ` ) s _ d d ) ` _ ) _ ) a ) a a _ ) _ _ s s _ s s s _ ! _ ! ) _ ) _ : ) a _ s _ : a a s f a d ` s ' { } } i.i.1.w.1.7.=.,.V x t e q 6 1 1 i D p f f f f f d f ` f d ` [ ` h d h d d [ [ ` [ ` h h g ] ] h g [ h g ",
") ) _ _ ) ) ! ) : ! ) ! Q ) : ! ! : : ! ! : : ! ! ; ! ! ^ ^ / <.1.1.1.1.1.i.r.X.m c u i 6 1 1   @ D , , > : ! : ! : ; : : : : ! : ! : : : : : : Q : Q : : ! : : W W Q = W : W ; ; Q Q W Q Q Q Q Q Q Q Q Q Q Q Q Q Q Q Q Q ; W ^ Y / / T 1.( 1.1.i.u.X.n c y q q 1 1 1   < < , , d a s _ d a a f d d d s a _ s s d d [ d d [ ` ` ` d [ d d ` d [ ' ` ` ` ) ) ` ' _ s s _ ) ) a ) s ' ! : ' ! ! ~ ) ! ^ ^ / 1.( ( 1.<.7.i.u.X.m x u u 1 1 1 @ @ @ * = % $ % P R = I $ $ P P P P I L % I P P P P % P # P P P # R H = $ o R P # P P P P $ $ $ I P $ $ $ $ $ $ % $ $ P # P % o E U J T T T ( ( 1.1.<.,.&.b c c i i 1 1     * * * - = = = = = = = ; R I W R W W = ; = = = ; ; = ; ; = Q W W : Q Q : W ! Q Q Q W ; : ; W ; : Q W Q : : ; ; ; ; Q Q ! ! ^ ^ E Y <.T 1.( 1.1.1.,.X.m c c q q 1 1 1   @ < , > > > ! Q Q ! W W Q ; ; ; W W ; ; W W ; W W W W W W W W R W R = R = R = = R R = R R R W = I R = = ; ; ; = = ; : ! ! Q ~ ^ / / <.( 1.1.7.i.} ,.n c c u 1 i 1 1   @ < - , ; > : : > > : : : Q : ! ! : : : : ! : : ) ) a : : a a : s ) ! ",
"W R R W W I R E % = R R % % I % I % I I P $ $ I I % E I E U Y T T ( ( 1.i.i.} X.A c z u q 1 1     * * * & & R R P R P % P R P R R R R P R P P R R R P R P R R P P R R R P % I I P % P % = P P % I I % $ % I I $ I % I I R % I U E Y T T ( 1.1.i.i.} X.b v i i i 1 1   @ @ * , - - & - ; = > ; > ; ; Q W W : Q : ; ; > : ; ; : ; : ! : : : ! ! ! ! Q ~ Q W W ~ W ~ Q W W W R I R I R % - E I I I U I Y Y K T T ( ( 1.1.,.,.X.m v c u i     @ @ @ * o # # H H H o L # # # # H L L # H # o # L L H o H o H L H J H o H o o . F o o H L H H L F L H F H H H . O . L o o H o o H J G K Y T T T 1.<.} &.X. .v c i q 1   @ @ @ + * & & O o $ $ = H = # $ $ % # $ $ $ # $ $ $ $ = H = o $ $ $ # % # $ $ L P $ L P $ L L $ $ $ $ P % % % I I % % = P = = R E Y U T T ( 1.1.i.i.,.X.n v i i i 1 1   @ @ * * - = - I I I I I P P I % $ % I I % I # P P P P $ P I $ P # % $ P P P % P P P # P P % $ $ P $ % $ # $ % = % & $ & # R P I Y U T T ( ( ( 1.i.,.,. .v c i u 1 1     @ * * * % % = P $ % = % % = % E R % % % R = % % % % % & % % I - = = = ",
"# o H L L H L U L H H H H L F H H . H H H . . o H # . H G J K T T ( ( ( 1.} { X.b c c p 1 D   @ @ + + & o X H G H . . o . . o . F o . . o o . o . F . H . H H . H F H . o . . o . H o H . o . o o o . H o H . L F . F . L . G J K K K T ( T ( <.} } ..m v c i i       @ @ + + o O & # O & $ $ & & $ $ P P I % # $ $ $ $ $ = = $ $ $ P I I % P P P P P E P U U # L L U L L H L o L L L H H H L G J H U G K T T ( ( ( <.} } ] n v p p D     @ + + + X X X . . o H F F H F F G F . F . G . . F F G F . . G F G F X F . G X . X . . G G X G G X F F . G G X X . X G X . . . o G G G K K K T T / <.} &.] | v p c i @   @ @ + + + X o . . X X . . . X F . . . . F F . . . X o . . . . . . G . . . . . . . . . F . F L . . . . . . . X o . . o . X H . J G K K K T T ( 1.1.} } { n m c i i     @ @ + + + X G o X F F F F F F . . . . F F F H F F . . . F G X G . F . F F . . . F . . . . F F F F F F F . . . X . X X X . . G . G G K K T T ( ( <.} } &.| v c i i D   @ @ + + O + o X X O # O X F o . o H H H o o o H o o O O # # L . # o # o # ",
"F F . . F F F F o H H H H F . F . H . . . H F H G . H H G G K T T T T T } } ,...b v c p i @   @ @ * O + . . . . F H F o o . . H H H F H F F H . F o o F F . H F F H F H . H F . . . . H F H . H F . F . . . . . H . F . J H G G K K K T T T <.} } &...A B c c p D   @ @ + * + O O O o o O o X o o o o . # . o o o o o o o o o o o # # o H L L H L H H H H J H H H . F H H L . L F F L F H L H J H F K K K T Y T T <.} } &.| b v c p p D < * * * O . H . . F H . . X . F L F F F F F . . F o F F . H F H H o H . H H H F o H o o . H . F # . . F O . # . . # . H o o H o o J J J K K K T / / } { ,.o.o.m v c i < @ @ @ + O O o X X . F . . X . . . . F . F . . . . . X o . . . F . . . . F . F . F F . F . . . F . . . . F o . X F . O . . . H . F J K K K Y T T T } } &.| V m c c p D D @ @ * + + o . X . J F H H H F . o F F F F F F F F F F H F F F F . . F . F F F H F F F F . F . F . F . F . . . . X o o X X . H X U G K K T T T ( } } { X.n v v p p D   @ @ + + O + o X . . X . F F o o . . . H . . . o X o o . F F . O . X o H . ",
". . . H . F G G F F F F F F H . F o o . H o H . o . . G G H J K K T T / { } [ X. .v v j p p < @ * + + o X O . H o F . o . . . o . F . . . o H . o o F o o X H H F F H o F o F o o o o o H . o H F F F . . . . F . o . H F F H G G U K Y T / } } X.X... .v c p p < @ @ + + + + O O O X F X . X X X . . . F F . . . X . . . . o . X . . . G . G G F G F G . G H G H F . . G H G F F G . . G H F H J G G J K Y T Y T / { { X.X.V v v c p j < < - * & & $ o # $ o H # # # L L H P H o P H o # P o O P H o P o P # # P H # $ # P $ P L L L # P P o P # P # # # # H # L # o o # # L U J U Y / Y ^ { { [  .n A v v p j < , * & & O o # o o H o o o H o o o o H o X o H . o o o . o F F o . . o F F o X H F X O F o . . o . . H o . o o . . . . . . F . F G G K K Y Y / / } ,.&... .n c v p < @ < * + + + J o O . J o o F H G o . F H o . H H H . H H H H H H F F . F o o o H H . . . # H H . L F # L . H . . . . O . . O . F H F K U J K T Y / / } X...o.A m c j p < < * + + O O . X o . X X o o X . o . F o . . o . X X . X . . X . . . . . G ",
"# o L L o L L L L L F L H L H H H H H H H H H H H L L H J U U K Y Y / } { } ] @. .B v v c p , < * - - H o & H J P H o # H o o P H H P H H H P H o J J o H H H P H H H H H H H H H H H H H H H H L L L o L # o L H L H H P H L L U U Y Y ^ / / { { { ]  .v v v j p p , @ * * O O O O o o o o o O o o H o H H H . o o o H o . o H o . H H o . . F H F H J o J H J H J J H H H H H L J L H J H L H U U U U Y Y Y / / { { X.X.@.n V v v v j , , , - = - = P R R R R R I I P I R P R = E R = P R E R R E R R R R W R R R = = R = = R W ; R ; = = W = R = = R R = = R = = R = = R E E W ~ ^ { { { &...X. .n m v v j j p f , , - - - - I & I % $ % $ $ # % P P I P $ P P P $ $ H $ H P P o o $ P H $ # # H # $ P L L P # # # # # # # $ # $ L H # $ L H L L U U Y U / / / { { [ | b n v v j p j < * - - - H O & H H H P P P P o # P $ # L H P P P L H P $ $ $ $ P I % $ P P L P P P I L I L P P P L L L % % % & % $ & $ $ # $ L L U U U Y Y / { { &...@.n A m c v j j < , * - - - O $ # L o $ H H o # H H H H # # L o o # L o L H o H o # . # . ",
"% I $ P P P I I I % I R = R R R = = R = W = W % - = W I U W W ^ ^ ^ { { X.X...@.n B v m j j j j , , , Q ; > R = W R = ; W = = W W W R R = R = W ; ; R ; ; = = Q > Q W ; Q > Q = = ; ; ; W Q ; = ; W ; ; - ; ; W ; W ; W ; ; W W E ~ ^ ^ ^ ' { { X...n @.m B v v p j j , , > - = - - = = - R o = = $ % % P % # $ o = $ $ o H R o # # # P H P P P P P o E $ P R R R P R P I R % = % R I % I I I R I E ~ E U ^ ) { { X.X.X.@. .V V A v v m j j a f : : : : : ! ! ! ! ! ! ! : : ! ) ! _ ! s : ! _ _ ! : _ s _ s _ s s d s d d s s d _ ) ` s ` d s _ ` s s s d s s s : s _ _ a _ _ ) a _ ' ' { ..X.@.%.V V Z A v B v j j j a a f : : : ; : : : : : ; > ; ; Q ! ; : ! ; ; ; ; ; W ; Q Q ; ; ; ; ; ; ; ; = = ; ; ; ; W ; ; ; = ; ; ; ; W W W W = W R W R W E ~ ^ ~ { ) { &.X. .o.A n B A v v j f , : , - W ; = R R R W R W W W R ; R W W W W ; ; ~ W ; ; Q W : : : : : W : Q Q Q Q : Q : ; : : : : : : : : > > > > : ; W = R W ; E ~ Q { ^ { { X.X...@. .A n v v v j j j f , > > > - ; ; ; - = W = ; = = R R = = R = = - - = = R I I R $ I P P ",
"> : : ! ! : : : _ : a _ s s a s _ _ _ _ _ _ _ _ s a ) ) ' _ _ { ' ' { X.X.X.V +.O.B n n v v m j h f f ' f d ! s s _ s : s s s s _ _ _ s s _ s s _ s _ s _ f ! _ _ ` _ s ! _ _ s s _ _ ` ` : _ _ _ s s _ s s _ s _ _ _ _ _ s _ ` ' ' ' ' { ..%...@.O.&X&XZ v m m j h j j , f : ! f , : : > : : > ; : ; Q Q Q ; Q > : ; : ! > ; Q : ; ; > > ; W W Q Q Q ~ ; ! W ~ ! ! ! ! ! ! ! : ! ) ) ! ! _ ) _ ) ) ' ) ' ' { { [ | X...@.O.o.A B A m n m m g h h h ` [ [ d h ` h h h h h h h g h ] ] ] g ] [ h ] ] g g h ] ] h g g ] ] ] ] g g | ] ..g ] ] ] ] ] ] g ] ] g [ ] g g g [ g ] ] [ ..{ [ [ ..| X.n @.Z J.J.H.C B A v g h h f f f ` [ d ` ` _ ` ` d h ` ` ` ` s ` ` ` ` _ ` _ _ ` ! _ ! _ _ s : _ _ s _ s s a _ _ _ s s _ _ s s s s a s s _ a ` _ _ s _ ` ` ' [ { ..X.X.@.@.O.J.Z B A v j h j j d j f ` f s _ s s _ _ _ s s s s s ` s _ _ _ _ _ _ s s ` _ _ _ _ ) _ d ` ` ` d ` d d ` d ` ` ` ` ` d d _ ` s d ` ` _ d _ a a f _ ` ` { { ' X...%...@.o.A o.c n m v h j f f s f s s s _ s s a _ _ a s s : _ s s s s s a a : s ) a a : a ! ! ) "
};
